installer/msi/cep-src/luts/cmd_command_dark_cold.cube
TITLE "FlagshipEditor original preset: cmd_command_dark_cold.cube"
LUT_3D_SIZE 17
DOMAIN_MIN 0.0 0.0 0.0
DOMAIN_MAX 1.0 1.0 1.0
0.000000 0.000000 0.000000
0.000000 0.000000 0.000000
0.050455 0.000000 0.000000
0.106835 0.000000 0.000000
0.162455 0.000000 0.000000
0.217515 0.000000 0.000000
0.272133 0.000000 0.000000
0.326386 0.000000 0.000000
0.380330 0.000000 0.000000
0.434003 0.000000 0.000000
0.487438 0.000000 0.000000
0.540660 0.000000 0.000000
0.593688 0.000000 0.000000
0.646539 0.000000 0.000000
0.699228 0.000000 0.000232
0.751766 0.000000 0.001712
0.804164 0.000000 0.003188
0.000000 0.008377 0.000000
0.000000 0.010093 0.000000
0.056227 0.011715 0.000000
0.112608 0.013303 0.000000
0.168227 0.014870 0.000000
0.223287 0.016422 0.000000
0.277905 0.017961 0.000000
0.332159 0.019489 0.000000
0.386102 0.021009 0.000000
0.439776 0.022521 0.000000
0.493211 0.024027 0.000037
0.546432 0.025526 0.001537
0.599460 0.027020 0.003031
0.652311 0.028509 0.004520
0.705000 0.029994 0.006004
0.757538 0.031474 0.007484
0.809937 0.032950 0.008961
0.000000 0.069786 0.000000
0.004110 0.071502 0.000000
0.061684 0.073124 0.000000
0.118065 0.074713 0.000000
0.173684 0.076280 0.000000
0.228744 0.077831 0.000000
0.283362 0.079370 0.000000
0.337616 0.080898 0.000957
0.391559 0.082418 0.002476
0.445233 0.083930 0.003989
0.498668 0.085436 0.005494
0.551889 0.086935 0.006994
0.604917 0.088429 0.008488
0.657768 0.089918 0.009977
0.710457 0.091403 0.011461
0.762995 0.092883 0.012941
0.815394 0.094359 0.014418
0.000000 0.129922 0.000000
0.009453 0.131638 0.000000
0.067028 0.133260 0.000000
0.123409 0.134849 0.000115
0.179028 0.136416 0.001682
0.234088 0.137967 0.003233
0.288706 0.139506 0.004772
0.342960 0.141034 0.006300
0.396903 0.142554 0.007820
0.450577 0.144066 0.009332
0.504012 0.145572 0.010838
0.557233 0.147071 0.012337
0.610261 0.148565 0.013831
0.663112 0.150054 0.015320
0.715801 0.151539 0.016805
0.768339 0.153019 0.018285
0.820737 0.154495 0.019761
0.000000 0.189246 0.000460
0.014725 0.190962 0.002176
0.072299 0.192584 0.003798
0.128680 0.194173 0.005386
0.184300 0.195740 0.006953
0.239360 0.197291 0.008505
0.293978 0.198830 0.010043
0.348231 0.200358 0.011572
0.402175 0.201878 0.013092
0.455848 0.203390 0.014604
0.509283 0.204896 0.016109
0.562505 0.206395 0.017609
0.615532 0.207889 0.019103
0.668384 0.209378 0.020592
0.721072 0.210863 0.022076
0.773611 0.212343 0.023557
0.826009 0.213819 0.025033
0.000000 0.247973 0.005678
0.019944 0.249689 0.007394
0.077518 0.251311 0.009016
0.133899 0.252900 0.010605
0.189518 0.254467 0.012172
0.244578 0.256018 0.013723
0.299196 0.257557 0.015262
0.353450 0.259085 0.016790
0.407393 0.260605 0.018310
0.461067 0.262117 0.019822
0.514502 0.263623 0.021328
0.567723 0.265122 0.022827
0.620751 0.266616 0.024321
0.673602 0.268105 0.025810
0.726291 0.269590 0.027295
0.778829 0.271070 0.028775
0.831227 0.272546 0.030251
0.000000 0.306229 0.010855
0.025120 0.307945 0.012571
0.082695 0.309567 0.014193
0.139075 0.311156 0.015781
0.194695 0.312723 0.017348
0.249755 0.314274 0.018900
0.304373 0.315813 0.020439
0.358626 0.317341 0.021967
0.412570 0.318861 0.023487
0.466243 0.320373 0.024999
0.519678 0.321879 0.026505
0.572900 0.323378 0.028004
0.625928 0.324872 0.029498
0.678779 0.326361 0.030987
0.731468 0.327846 0.032472
0.784006 0.329326 0.033952
0.836404 0.330802 0.035428
0.000000 0.364096 0.015997
0.030262 0.365812 0.017713
0.087837 0.367434 0.019335
0.144218 0.369023 0.020924
0.199837 0.370590 0.022491
0.254897 0.372141 0.024042
0.309515 0.373680 0.025581
0.363769 0.375209 0.027109
0.417712 0.376728 0.028629
0.471385 0.378241 0.030141
0.524821 0.379746 0.031647
0.578042 0.381246 0.033146
0.631070 0.382740 0.034640
0.683921 0.384229 0.036129
0.736610 0.385713 0.037614
0.789148 0.387193 0.039094
0.841546 0.388670 0.040570
0.000000 0.421633 0.021110
0.035375 0.423349 0.022826
0.092950 0.424971 0.024448
0.149330 0.426559 0.026036
0.204950 0.428126 0.027603
0.260010 0.429677 0.029155
0.314628 0.431216 0.030693
0.368881 0.432745 0.032222
0.422825 0.434265 0.033742
0.476498 0.435777 0.035254
0.529933 0.437282 0.036759
0.583155 0.438782 0.038259
0.636183 0.440276 0.039753
0.689034 0.441765 0.041242
0.741722 0.443249 0.042726
0.794261 0.444730 0.044207
0.846659 0.446206 0.045683
0.000000 0.478881 0.026197
0.040462 0.480597 0.027913
0.098037 0.482219 0.029535
0.154417 0.483808 0.031123
0.210037 0.485375 0.032690
0.265097 0.486926 0.034242
0.319715 0.488465 0.035781
0.373968 0.489993 0.037309
0.427912 0.491513 0.038829
0.481585 0.493025 0.040341
0.535020 0.494531 0.041847
0.588242 0.496030 0.043346
0.641270 0.497524 0.044840
0.694121 0.499013 0.046329
0.746810 0.500498 0.047814
0.799348 0.501978 0.049294
0.851746 0.503454 0.050770
0.000000 0.535875 0.031261
0.045527 0.537591 0.032977
0.103101 0.539213 0.034600
0.159482 0.540802 0.036188
0.215101 0.542369 0.037755
0.270161 0.543920 0.039306
0.324779 0.545459 0.040845
0.379033 0.546987 0.042374
0.432976 0.548507 0.043893
0.486650 0.550019 0.045406
0.540085 0.551525 0.046911
0.593306 0.553024 0.048411
0.646334 0.554518 0.049905
0.699185 0.556007 0.051394
0.751874 0.557492 0.052878
0.804412 0.558972 0.054358
0.856811 0.560448 0.055835
0.000000 0.592641 0.036306
0.050571 0.594357 0.038022
0.108146 0.595980 0.039644
0.164526 0.597568 0.041232
0.220146 0.599135 0.042799
0.275206 0.600686 0.044351
0.329824 0.602225 0.045889
0.384077 0.603754 0.047418
0.438021 0.605273 0.048938
0.491694 0.606786 0.050450
0.545129 0.608291 0.051955
0.598351 0.609791 0.053455
0.651379 0.611285 0.054949
0.704230 0.612774 0.056438
0.756918 0.614258 0.057922
0.809457 0.615738 0.059403
0.861855 0.617215 0.060879
0.000000 0.649201 0.041332
0.055597 0.650917 0.043048
0.113172 0.652539 0.044670
0.169552 0.654128 0.046258
0.225172 0.655695 0.047825
0.280232 0.657246 0.049377
0.334850 0.658785 0.050915
0.389103 0.660313 0.052444
0.443047 0.661833 0.053964
0.496720 0.663346 0.055476
0.550155 0.664851 0.056981
0.603377 0.666350 0.058481
0.656404 0.667844 0.059975
0.709256 0.669334 0.061464
0.761944 0.670818 0.062948
0.814483 0.672298 0.064429
0.866881 0.673774 0.065905
0.000000 0.705573 0.046341
0.060606 0.707289 0.048057
0.118181 0.708911 0.049679
0.174562 0.710499 0.051267
0.230181 0.712066 0.052835
0.285241 0.713618 0.054386
0.339859 0.715156 0.055925
0.394112 0.716685 0.057453
0.448056 0.718205 0.058973
0.501729 0.719717 0.060485
0.555164 0.721222 0.061991
0.608386 0.722722 0.063490
0.661414 0.724216 0.064984
0.714265 0.725705 0.066473
0.766954 0.727189 0.067958
0.819492 0.728670 0.069438
0.871890 0.730146 0.070914
0.004695 0.761771 0.051335
0.065600 0.763487 0.053051
0.123175 0.765109 0.054673
0.179555 0.766697 0.056261
0.235175 0.768264 0.057828
0.290235 0.769816 0.059380
0.344853 0.771354 0.060918
0.399106 0.772883 0.062447
0.453050 0.774403 0.063967
0.506723 0.775915 0.065479
0.560158 0.777420 0.066984
0.613380 0.778920 0.068484
0.666407 0.780414 0.069978
0.719259 0.781903 0.071467
0.771947 0.783387 0.072951
0.824486 0.784868 0.074432
0.876884 0.786344 0.075908
0.009674 0.817808 0.056314
0.070580 0.819524 0.058030
0.128154 0.821146 0.059652
0.184535 0.822735 0.061241
0.240154 0.824302 0.062808
0.295214 0.825853 0.064359
0.349832 0.827392 0.065898
0.404086 0.828921 0.067426
0.458029 0.830440 0.068946
0.511703 0.831953 0.070459
0.565138 0.833458 0.071964
0.618359 0.834958 0.073463
0.671387 0.836452 0.074957
0.724238 0.837941 0.076447
0.776927 0.839425 0.077931
0.829465 0.840905 0.079411
0.881863 0.842382 0.080887
0.014641 0.873697 0.061281
0.075546 0.875413 0.062997
0.133120 0.877035 0.064619
0.189501 0.878623 0.066207
0.245120 0.880190 0.067774
0.300180 0.881741 0.069325
0.354799 0.883280 0.070864
0.409052 0.884809 0.072393
0.462995 0.886329 0.073913
0.516669 0.887841 0.075425
0.570104 0.889346 0.076930
0.623325 0.890846 0.078430
0.676353 0.892340 0.079924
0.729205 0.893829 0.081413
0.781893 0.895313 0.082897
0.834432 0.896793 0.084377
0.886830 0.898270 0.085854
0.000000 0.000000 0.038387
0.000000 0.000000 0.040103
0.051037 0.000000 0.041725
0.107418 0.000000 0.043314
0.163038 0.000000 0.044881
0.218097 0.000000 0.046432
0.272716 0.000000 0.047971
0.326969 0.000000 0.049499
0.380913 0.000000 0.051019
0.434586 0.000000 0.052531
0.488021 0.000000 0.054037
0.541242 0.000000 0.055536
0.594270 0.000000 0.057030
0.647122 0.000000 0.058519
0.699810 0.000000 0.060004
0.752349 0.000000 0.061484
0.804747 0.000000 0.062960
0.000000 0.008960 0.044160
0.000000 0.010676 0.045876
0.056810 0.012298 0.047498
0.113191 0.013886 0.049086
0.168810 0.015453 0.050653
0.223870 0.017004 0.052204
0.278488 0.018543 0.053743
0.332742 0.020072 0.055272
0.386685 0.021592 0.056792
0.440359 0.023104 0.058304
0.493794 0.024609 0.059809
0.547015 0.026109 0.061309
0.600043 0.027603 0.062803
0.652894 0.029092 0.064292
0.705583 0.030576 0.065776
0.758121 0.032057 0.067257
0.810519 0.033533 0.068733
0.000000 0.070369 0.049617
0.004692 0.072085 0.051332
0.062267 0.073707 0.052955
0.118648 0.075295 0.054543
0.174267 0.076862 0.056110
0.229327 0.078414 0.057661
0.283945 0.079952 0.059200
0.338199 0.081481 0.060729
0.392142 0.083001 0.062249
0.445816 0.084513 0.063761
0.499251 0.086019 0.065266
0.552472 0.087518 0.066766
0.605500 0.089012 0.068260
0.658351 0.090501 0.069749
0.711040 0.091986 0.071233
0.763578 0.093466 0.072713
0.815976 0.094942 0.074190
0.000000 0.130505 0.054960
0.010036 0.132221 0.056676
0.067611 0.133843 0.058298
0.123991 0.135431 0.059887
0.179611 0.136998 0.061454
0.234671 0.138550 0.063005
0.289289 0.140089 0.064544
0.343542 0.141617 0.066072
0.397486 0.143137 0.067592
0.451159 0.144649 0.069104
0.504594 0.146155 0.070610
0.557816 0.147654 0.072109
0.610844 0.149148 0.073603
0.663695 0.150637 0.075092
0.716384 0.152122 0.076577
0.768922 0.153602 0.078057
0.821320 0.155078 0.079533
0.000000 0.189829 0.060232
0.015308 0.191545 0.061948
0.072882 0.193167 0.063570
0.129263 0.194755 0.065158
0.184882 0.196322 0.066725
0.239942 0.197874 0.068277
0.294560 0.199412 0.069815
0.348814 0.200941 0.071344
0.402757 0.202461 0.072864
0.456431 0.203973 0.074376
0.509866 0.205478 0.075882
0.563087 0.206978 0.077381
0.616115 0.208472 0.078875
0.668966 0.209961 0.080364
0.721655 0.211445 0.081848
0.774193 0.212926 0.083329
0.826592 0.214402 0.084805
0.000000 0.248556 0.065450
0.020526 0.250272 0.067166
0.078101 0.251894 0.068788
0.134482 0.253483 0.070377
0.190101 0.255050 0.071944
0.245161 0.256601 0.073495
0.299779 0.258140 0.075034
0.354033 0.259668 0.076563
0.407976 0.261188 0.078082
0.461649 0.262700 0.079595
0.515084 0.264206 0.081100
0.568306 0.265705 0.082600
0.621334 0.267199 0.084094
0.674185 0.268688 0.085583
0.726874 0.270173 0.087067
0.779412 0.271653 0.088547
0.831810 0.273129 0.090024
0.000000 0.306812 0.070627
0.025703 0.308528 0.072343
0.083277 0.310150 0.073965
0.139658 0.311739 0.075554
0.195278 0.313306 0.077121
0.250338 0.314857 0.078672
0.304956 0.316396 0.080211
0.359209 0.317924 0.081739
0.413153 0.319444 0.083259
0.466826 0.320956 0.084771
0.520261 0.322462 0.086277
0.573482 0.323961 0.087776
0.626510 0.325455 0.089270
0.679362 0.326944 0.090759
0.732050 0.328429 0.092244
0.784589 0.329909 0.093724
0.836987 0.331385 0.095200
0.000000 0.364679 0.075769
0.030845 0.366395 0.077485
0.088420 0.368017 0.079107
0.144800 0.369606 0.080696
0.200420 0.371173 0.082263
0.255480 0.372724 0.083814
0.310098 0.374263 0.085353
0.364351 0.375791 0.086881
0.418295 0.377311 0.088401
0.471968 0.378823 0.089913
0.525403 0.380329 0.091419
0.578625 0.381828 0.092918
0.631653 0.383322 0.094412
0.684504 0.384811 0.095901
0.737192 0.386296 0.097386
0.789731 0.387776 0.098866
0.842129 0.389252 0.100342
0.000000 0.422215 0.080882
0.035958 0.423931 0.082598
0.093532 0.425553 0.084220
0.149913 0.427142 0.085808
0.205532 0.428709 0.087375
0.260592 0.430260 0.088927
0.315211 0.431799 0.090466
0.369464 0.433328 0.091994
0.423407 0.434847 0.093514
0.477081 0.436360 0.095026
0.530516 0.437865 0.096532
0.583737 0.439365 0.098031
0.636765 0.440859 0.099525
0.689616 0.442348 0.101014
0.742305 0.443832 0.102499
0.794843 0.445312 0.103979
0.847242 0.446789 0.105455
0.000000 0.479464 0.085969
0.041045 0.481180 0.087685
0.098619 0.482802 0.089307
0.155000 0.484390 0.090896
0.210620 0.485957 0.092463
0.265680 0.487509 0.094014
0.320298 0.489048 0.095553
0.374551 0.490576 0.097081
0.428495 0.492096 0.098601
0.482168 0.493608 0.100113
0.535603 0.495114 0.101619
0.588824 0.496613 0.103118
0.641852 0.498107 0.104612
0.694704 0.499596 0.106101
0.747392 0.501081 0.107586
0.799931 0.502561 0.109066
0.852329 0.504037 0.110542
0.000000 0.536458 0.091034
0.046110 0.538174 0.092750
0.103684 0.539796 0.094372
0.160065 0.541385 0.095960
0.215684 0.542952 0.097527
0.270744 0.544503 0.099078
0.325362 0.546042 0.100617
0.379616 0.547570 0.102146
0.433559 0.549090 0.103666
0.487233 0.550602 0.105178
0.540668 0.552108 0.106683
0.593889 0.553607 0.108183
0.646917 0.555101 0.109677
0.699768 0.556590 0.111166
0.752457 0.558075 0.112650
0.804995 0.559555 0.114131
0.857393 0.561031 0.115607
0.000000 0.593224 0.096078
0.051154 0.594940 0.097794
0.108728 0.596562 0.099416
0.165109 0.598151 0.101004
0.220728 0.599718 0.102571
0.275788 0.601269 0.104123
0.330407 0.602808 0.105662
0.384660 0.604336 0.107190
0.438603 0.605856 0.108710
0.492277 0.607368 0.110222
0.545712 0.608874 0.111728
0.598933 0.610373 0.113227
0.651961 0.611867 0.114721
0.704812 0.613356 0.116210
0.757501 0.614841 0.117695
0.810039 0.616321 0.119175
0.862438 0.617797 0.120651
0.000000 0.649784 0.101104
0.056180 0.651500 0.102820
0.113754 0.653122 0.104442
0.170135 0.654711 0.106030
0.225754 0.656278 0.107597
0.280814 0.657829 0.109149
0.335432 0.659368 0.110688
0.389686 0.660896 0.112216
0.443629 0.662416 0.113736
0.497303 0.663928 0.115248
0.550738 0.665434 0.116754
0.603959 0.666933 0.118253
0.656987 0.668427 0.119747
0.709838 0.669916 0.121236
0.762527 0.671401 0.122721
0.815065 0.672881 0.124201
0.867464 0.674357 0.125677
0.000284 0.706155 0.106113
0.061189 0.707871 0.107829
0.118763 0.709494 0.109451
0.175144 0.711082 0.111040
0.230764 0.712649 0.112607
0.285824 0.714200 0.114158
0.340442 0.715739 0.115697
0.394695 0.717268 0.117225
0.448639 0.718787 0.118745
0.502312 0.720300 0.120257
0.555747 0.721805 0.121763
0.608969 0.723305 0.123262
0.661996 0.724799 0.124756
0.714848 0.726288 0.126245
0.767536 0.727772 0.127730
0.820075 0.729252 0.129210
0.872473 0.730729 0.130686
0.005277 0.762354 0.111107
0.066183 0.764069 0.112823
0.123757 0.765692 0.114445
0.180138 0.767280 0.116033
0.235757 0.768847 0.117600
0.290817 0.770398 0.119152
0.345436 0.771937 0.120691
0.399689 0.773466 0.122219
0.453632 0.774986 0.123739
0.507306 0.776498 0.125251
0.560741 0.778003 0.126757
0.613962 0.779503 0.128256
0.666990 0.780997 0.129750
0.719841 0.782486 0.131239
0.772530 0.783970 0.132724
0.825068 0.785450 0.134204
0.877467 0.786927 0.135680
0.010257 0.818391 0.116086
0.071162 0.820107 0.117802
0.128737 0.821729 0.119425
0.185118 0.823318 0.121013
0.240737 0.824885 0.122580
0.295797 0.826436 0.124131
0.350415 0.827975 0.125670
0.404669 0.829503 0.127199
0.458612 0.831023 0.128718
0.512285 0.832535 0.130231
0.565721 0.834041 0.131736
0.618942 0.835540 0.133236
0.671970 0.837034 0.134730
0.724821 0.838523 0.136219
0.777510 0.840008 0.137703
0.830048 0.841488 0.139183
0.882446 0.842964 0.140660
0.015223 0.874279 0.121053
0.076129 0.875995 0.122769
0.133703 0.877617 0.124391
0.190084 0.879206 0.125979
0.245703 0.880773 0.127546
0.300763 0.882324 0.129098
0.355381 0.883863 0.130636
0.409635 0.885392 0.132165
0.463578 0.886911 0.133685
0.517252 0.888424 0.135197
0.570687 0.889929 0.136702
0.623908 0.891428 0.138202
0.676936 0.892922 0.139696
0.729787 0.894412 0.141185
0.782476 0.895896 0.142669
0.835014 0.897376 0.144150
0.887412 0.898852 0.145626
0.000000 0.000000 0.094890
0.000000 0.000000 0.096606
0.051588 0.000000 0.098228
0.107969 0.000000 0.099817
0.163588 0.000000 0.101384
0.218648 0.000000 0.102935
0.273267 0.000000 0.104474
0.327520 0.000000 0.106002
0.381463 0.000000 0.107522
0.435137 0.000000 0.109034
0.488572 0.000000 0.110540
0.541793 0.000000 0.112039
0.594821 0.000000 0.113533
0.647673 0.000000 0.115022
0.700361 0.000000 0.116507
0.752899 0.000000 0.117987
0.805298 0.000000 0.119463
0.000000 0.009511 0.100663
0.000000 0.011226 0.102379
0.057361 0.012849 0.104001
0.113742 0.014437 0.105589
0.169361 0.016004 0.107156
0.224421 0.017555 0.108708
0.279039 0.019094 0.110246
0.333293 0.020623 0.111775
0.387236 0.022143 0.113295
0.440910 0.023655 0.114807
0.494345 0.025160 0.116313
0.547566 0.026660 0.117812
0.600594 0.028154 0.119306
0.653445 0.029643 0.120795
0.706134 0.031127 0.122280
0.758672 0.032607 0.123760
0.811070 0.034084 0.125236
0.000000 0.070920 0.106120
0.005243 0.072636 0.107836
0.062818 0.074258 0.109458
0.119199 0.075846 0.111046
0.174818 0.077413 0.112613
0.229878 0.078965 0.114165
0.284496 0.080503 0.115703
0.338750 0.082032 0.117232
0.392693 0.083552 0.118752
0.446366 0.085064 0.120264
0.499801 0.086569 0.121769
0.553023 0.088069 0.123269
0.606051 0.089563 0.124763
0.658902 0.091052 0.126252
0.711591 0.092536 0.127736
0.764129 0.094017 0.129217
0.816527 0.095493 0.130693
0.000000 0.131056 0.111463
0.010587 0.132772 0.113179
0.068162 0.134394 0.114802
0.124542 0.135982 0.116390
0.180162 0.137549 0.117957
0.235222 0.139101 0.119508
0.289840 0.140639 0.121047
0.344093 0.142168 0.122576
0.398037 0.143688 0.124095
0.451710 0.145200 0.125608
0.505145 0.146705 0.127113
0.558367 0.148205 0.128613
0.611394 0.149699 0.130107
0.664246 0.151188 0.131596
0.716934 0.152672 0.133080
0.769473 0.154153 0.134560
0.821871 0.155629 0.136037
0.000000 0.190380 0.116735
0.015859 0.192096 0.118451
0.073433 0.193718 0.120073
0.129814 0.195306 0.121662
0.185433 0.196873 0.123229
0.240493 0.198424 0.124780
0.295111 0.199963 0.126319
0.349365 0.201492 0.127847
0.403308 0.203012 0.129367
0.456982 0.204524 0.130879
0.510417 0.206029 0.132385
0.563638 0.207529 0.133884
0.616666 0.209023 0.135378
0.669517 0.210512 0.136867
0.722206 0.211996 0.138352
0.774744 0.213477 0.139832
0.827142 0.214953 0.141308
0.000000 0.249107 0.121954
0.021077 0.250823 0.123670
0.078652 0.252445 0.125292
0.135032 0.254033 0.126880
0.190652 0.255600 0.128447
0.245712 0.257152 0.129998
0.300330 0.258691 0.131537
0.354583 0.260219 0.133066
0.408527 0.261739 0.134586
0.462200 0.263251 0.136098
0.515635 0.264757 0.137603
0.568857 0.266256 0.139103
0.621885 0.267750 0.140597
0.674736 0.269239 0.142086
0.727425 0.270724 0.143570
0.779963 0.272204 0.145050
0.832361 0.273680 0.146527
0.000000 0.307363 0.127130
0.026254 0.309079 0.128846
0.083828 0.310701 0.130468
0.140209 0.312289 0.132057
0.195828 0.313856 0.133624
0.250888 0.315408 0.135175
0.305507 0.316947 0.136714
0.359760 0.318475 0.138242
0.413703 0.319995 0.139762
0.467377 0.321507 0.141274
0.520812 0.323013 0.142780
0.574033 0.324512 0.144279
0.627061 0.326006 0.145773
0.679913 0.327495 0.147262
0.732601 0.328980 0.148747
0.785139 0.330460 0.150227
0.837538 0.331936 0.151703
0.000000 0.365230 0.132272
0.031396 0.366946 0.133988
0.088970 0.368568 0.135610
0.145351 0.370157 0.137199
0.200971 0.371724 0.138766
0.256031 0.373275 0.140317
0.310649 0.374814 0.141856
0.364902 0.376342 0.143385
0.418846 0.377862 0.144904
0.472519 0.379374 0.146417
0.525954 0.380880 0.147922
0.579175 0.382379 0.149422
0.632203 0.383873 0.150916
0.685055 0.385362 0.152405
0.737743 0.386847 0.153889
0.790282 0.388327 0.155369
0.842680 0.389803 0.156846
0.000000 0.422766 0.137385
0.036509 0.424482 0.139101
0.094083 0.426104 0.140723
0.150464 0.427693 0.142312
0.206083 0.429260 0.143879
0.261143 0.430811 0.145430
0.315761 0.432350 0.146969
0.370015 0.433878 0.148497
0.423958 0.435398 0.150017
0.477632 0.436910 0.151529
0.531067 0.438416 0.153035
0.584288 0.439915 0.154534
0.637316 0.441409 0.156028
0.690167 0.442898 0.157517
0.742856 0.444383 0.159002
0.795394 0.445863 0.160482
0.847793 0.447339 0.161958
0.000000 0.480015 0.142472
0.041596 0.481731 0.144188
0.099170 0.483353 0.145810
0.155551 0.484941 0.147399
0.211170 0.486508 0.148966
0.266230 0.488060 0.150517
0.320849 0.489598 0.152056
0.375102 0.491127 0.153584
0.429045 0.492647 0.155104
0.482719 0.494159 0.156616
0.536154 0.495664 0.158122
0.589375 0.497164 0.159621
0.642403 0.498658 0.161115
0.695255 0.500147 0.162604
0.747943 0.501631 0.164089
0.800481 0.503112 0.165569
0.852880 0.504588 0.167045
0.000000 0.537009 0.147537
0.046660 0.538725 0.149253
0.104235 0.540347 0.150875
0.160616 0.541935 0.152463
0.216235 0.543502 0.154030
0.271295 0.545054 0.155582
0.325913 0.546593 0.157120
0.380167 0.548121 0.158649
0.434110 0.549641 0.160169
0.487784 0.551153 0.161681
0.541219 0.552659 0.163187
0.594440 0.554158 0.164686
0.647468 0.555652 0.166180
0.700319 0.557141 0.167669
0.753008 0.558626 0.169153
0.805546 0.560106 0.170634
0.857944 0.561582 0.172110
0.000000 0.593775 0.152581
0.051705 0.595491 0.154297
0.109279 0.597113 0.155919
0.165660 0.598702 0.157508
0.221279 0.600269 0.159075
0.276339 0.601820 0.160626
0.330957 0.603359 0.162165
0.385211 0.604887 0.163693
0.439154 0.606407 0.165213
0.492828 0.607919 0.166725
0.546263 0.609425 0.168231
0.599484 0.610924 0.169730
0.652512 0.612418 0.171224
0.705363 0.613907 0.172713
0.758052 0.615392 0.174198
0.810590 0.616872 0.175678
0.862989 0.618348 0.177154
0.000000 0.650335 0.157607
0.056731 0.652051 0.159323
0.114305 0.653673 0.160945
0.170686 0.655261 0.162534
0.226305 0.656828 0.164101
0.281365 0.658380 0.165652
0.335983 0.659919 0.167191
0.390237 0.661447 0.168719
0.444180 0.662967 0.170239
0.497854 0.664479 0.171751
0.551289 0.665985 0.173257
0.604510 0.667484 0.174756
0.657538 0.668978 0.176250
0.710389 0.670467 0.177739
0.763078 0.671952 0.179224
0.815616 0.673432 0.180704
0.868015 0.674908 0.182180
0.000835 0.706706 0.162616
0.061740 0.708422 0.164332
0.119314 0.710044 0.165954
0.175695 0.711633 0.167543
0.231314 0.713200 0.169110
0.286374 0.714751 0.170661
0.340993 0.716290 0.172200
0.395246 0.717819 0.173728
0.449189 0.719338 0.175248
0.502863 0.720851 0.176761
0.556298 0.722356 0.178266
0.609519 0.723855 0.179765
0.662547 0.725350 0.181259
0.715399 0.726839 0.182749
0.768087 0.728323 0.184233
0.820625 0.729803 0.185713
0.873024 0.731279 0.187189
0.005828 0.762904 0.167610
0.066734 0.764620 0.169326
0.124308 0.766242 0.170948
0.180689 0.767831 0.172537
0.236308 0.769398 0.174104
0.291368 0.770949 0.175655
0.345986 0.772488 0.177194
0.400240 0.774017 0.178722
0.454183 0.775536 0.180242
0.507857 0.777049 0.181754
0.561292 0.778554 0.183260
0.614513 0.780054 0.184759
0.667541 0.781548 0.186253
0.720392 0.783037 0.187742
0.773081 0.784521 0.189227
0.825619 0.786001 0.190707
0.878018 0.787478 0.192183
0.010808 0.818942 0.172590
0.071713 0.820658 0.174306
0.129288 0.822280 0.175928
0.185669 0.823869 0.177516
0.241288 0.825436 0.179083
0.296348 0.826987 0.180634
0.350966 0.828526 0.182173
0.405219 0.830054 0.183702
0.459163 0.831574 0.185222
0.512836 0.833086 0.186734
0.566271 0.834592 0.188239
0.619493 0.836091 0.189739
0.672521 0.837585 0.191233
0.725372 0.839074 0.192722
0.778061 0.840559 0.194206
0.830599 0.842039 0.195687
0.882997 0.843515 0.197163
0.015774 0.874830 0.177556
0.076680 0.876546 0.179272
0.134254 0.878168 0.180894
0.190635 0.879757 0.182482
0.246254 0.881324 0.184050
0.301314 0.882875 0.185601
0.355932 0.884414 0.187140
0.410186 0.885942 0.188668
0.464129 0.887462 0.190188
0.517803 0.888974 0.191700
0.571238 0.890480 0.193206
0.624459 0.891979 0.194705
0.677487 0.893473 0.196199
0.730338 0.894962 0.197688
0.783027 0.896447 0.199173
0.835565 0.897927 0.200653
0.887963 0.899403 0.202129
0.000000 0.000000 0.150222
0.000000 0.000000 0.151938
0.052128 0.000000 0.153560
0.108509 0.000000 0.155149
0.164128 0.000000 0.156716
0.219188 0.000000 0.158267
0.273806 0.000000 0.159806
0.328060 0.000000 0.161334
0.382003 0.000000 0.162854
0.435676 0.000000 0.164366
0.489111 0.000000 0.165872
0.542333 0.000000 0.167371
0.595361 0.000000 0.168865
0.648212 0.000000 0.170354
0.700901 0.000000 0.171839
0.753439 0.000000 0.173319
0.805837 0.000000 0.174795
