installer/msi/cep-src/luts/cmd_command_dark_cold.cube
TITLE "FlagshipEditor original preset: cmd_command_dark_cold.cube"
LUT_3D_SIZE 5
DOMAIN_MIN 0.0 0.0 0.0
DOMAIN_MAX 1.0 1.0 1.0
0.000000 0.000000 0.000000
0.162455 0.000000 0.000000
0.380330 0.000000 0.000000
0.593688 0.000000 0.000000
0.804164 0.000000 0.003188
0.000000 0.189246 0.000460
0.184300 0.195740 0.006953
0.402175 0.201878 0.013092
0.615532 0.207889 0.019103
0.826009 0.213819 0.025033
0.000000 0.421633 0.021110
0.204950 0.428126 0.027603
0.422825 0.434265 0.033742
0.636183 0.440276 0.039753
0.846659 0.446206 0.045683
0.000000 0.649201 0.041332
0.225172 0.655695 0.047825
0.443047 0.661833 0.053964
0.656404 0.667844 0.059975
0.866881 0.673774 0.065905
0.014641 0.873697 0.061281
0.245120 0.880190 0.067774
0.462995 0.886329 0.073913
0.676353 0.892340 0.079924
0.886830 0.898270 0.085854
0.000000 0.000000 0.204807
0.164660 0.000000 0.211300
0.382535 0.000000 0.217439
0.595893 0.000000 0.223450
0.806369 0.000000 0.229380
0.000000 0.191451 0.226651
0.186505 0.197945 0.233145
0.404380 0.204083 0.239283
0.617738 0.210094 0.245294
0.828214 0.216024 0.251224
0.000000 0.423838 0.247301
0.207155 0.430331 0.253795
0.425030 0.436470 0.259933
0.638388 0.442481 0.265945
0.848864 0.448411 0.271875
0.000000 0.651407 0.267523
0.227377 0.657900 0.274017
0.445252 0.664039 0.280155
0.658610 0.670050 0.286166
0.869086 0.675980 0.292096
0.016846 0.875902 0.287472
0.247326 0.882395 0.293966
0.465201 0.888534 0.300104
0.678559 0.894545 0.306115
0.889035 0.900475 0.312045
0.000000 0.000000 0.418628
0.166745 0.000000 0.425121
0.384620 0.000000 0.431260
0.597978 0.000000 0.437271
0.808454 0.000000 0.443201
0.000000 0.193536 0.440472
0.188589 0.200029 0.446966
0.406464 0.206168 0.453104
0.619822 0.212179 0.459116
0.830299 0.218109 0.465046
0.000000 0.425923 0.461123
0.209240 0.432416 0.467616
0.427115 0.438555 0.473755
0.640472 0.444566 0.479766
0.850949 0.450496 0.485696
0.000000 0.653491 0.481344
0.229462 0.659985 0.487838
0.447336 0.666123 0.493976
0.660694 0.672134 0.499988
0.871171 0.678064 0.505918
0.018930 0.877986 0.501293
0.249410 0.884480 0.507787
0.467285 0.890618 0.513925
0.680643 0.896630 0.519937
0.891120 0.902560 0.525866
0.000000 0.000000 0.628016
0.168786 0.000000 0.634509
0.386661 0.000000 0.640648
0.600019 0.000000 0.646659
0.810495 0.000000 0.652589
0.000000 0.195577 0.649861
0.190631 0.202071 0.656354
0.408506 0.208209 0.662493
0.621864 0.214221 0.668504
0.832340 0.220151 0.674434
0.000000 0.427964 0.670511
0.211281 0.434458 0.677004
0.429156 0.440596 0.683143
0.642514 0.446607 0.689154
0.852990 0.452537 0.695084
0.001023 0.655533 0.690733
0.231503 0.662026 0.697226
0.449378 0.668165 0.703365
0.662736 0.674176 0.709376
0.873212 0.680106 0.715306
0.020972 0.880028 0.710681
0.251452 0.886521 0.717175
0.469327 0.892660 0.723313
0.682685 0.898671 0.729325
0.893161 0.904601 0.735255
0.000000 0.000000 0.834576
0.170800 0.000000 0.841070
0.388675 0.000000 0.847208
0.602033 0.000000 0.853219
0.812509 0.000000 0.859149
0.000000 0.197591 0.856421
0.192645 0.204085 0.862914
0.410520 0.210223 0.869053
0.623878 0.216234 0.875064
0.834354 0.222164 0.880994
0.000000 0.429978 0.877071
0.213295 0.436471 0.883564
0.431170 0.442610 0.889703
0.644528 0.448621 0.895714
0.855004 0.454551 0.901644
0.003037 0.657546 0.897293
0.233517 0.664040 0.903786
0.451392 0.670178 0.909925
0.664750 0.676190 0.915936
0.875226 0.682120 0.921866
0.022986 0.882042 0.917242
0.253466 0.888535 0.923735
0.471341 0.894674 0.929874
0.684698 0.900685 0.935885
0.895175 0.906615 0.941815
