installer/msi/cep-src/luts/cmd_command_dark_cold.cube
TITLE "FlagshipEditor original preset: cmd_command_dark_cold.cube"
LUT_3D_SIZE 9
DOMAIN_MIN 0.0 0.0 0.0
DOMAIN_MAX 1.0 1.0 1.0
0.000000 0.000000 0.000000
0.050455 0.000000 0.000000
0.162455 0.000000 0.000000
0.272133 0.000000 0.000000
0.380330 0.000000 0.000000
0.487438 0.000000 0.000000
0.593688 0.000000 0.000000
0.699228 0.000000 0.000232
0.804164 0.000000 0.003188
0.000000 0.069786 0.000000
0.061684 0.073124 0.000000
0.173684 0.076280 0.000000
0.283362 0.079370 0.000000
0.391559 0.082418 0.002476
0.498668 0.085436 0.005494
0.604917 0.088429 0.008488
0.710457 0.091403 0.011461
0.815394 0.094359 0.014418
0.000000 0.189246 0.000460
0.072299 0.192584 0.003798
0.184300 0.195740 0.006953
0.293978 0.198830 0.010043
0.402175 0.201878 0.013092
0.509283 0.204896 0.016109
0.615532 0.207889 0.019103
0.721072 0.210863 0.022076
0.826009 0.213819 0.025033
0.000000 0.306229 0.010855
0.082695 0.309567 0.014193
0.194695 0.312723 0.017348
0.304373 0.315813 0.020439
0.412570 0.318861 0.023487
0.519678 0.321879 0.026505
0.625928 0.324872 0.029498
0.731468 0.327846 0.032472
0.836404 0.330802 0.035428
0.000000 0.421633 0.021110
0.092950 0.424971 0.024448
0.204950 0.428126 0.027603
0.314628 0.431216 0.030693
0.422825 0.434265 0.033742
0.529933 0.437282 0.036759
0.636183 0.440276 0.039753
0.741722 0.443249 0.042726
0.846659 0.446206 0.045683
0.000000 0.535875 0.031261
0.103101 0.539213 0.034600
0.215101 0.542369 0.037755
0.324779 0.545459 0.040845
0.432976 0.548507 0.043893
0.540085 0.551525 0.046911
0.646334 0.554518 0.049905
0.751874 0.557492 0.052878
0.856811 0.560448 0.055835
0.000000 0.649201 0.041332
0.113172 0.652539 0.044670
0.225172 0.655695 0.047825
0.334850 0.658785 0.050915
0.443047 0.661833 0.053964
0.550155 0.664851 0.056981
0.656404 0.667844 0.059975
0.761944 0.670818 0.062948
0.866881 0.673774 0.065905
0.004695 0.761771 0.051335
0.123175 0.765109 0.054673
0.235175 0.768264 0.057828
0.344853 0.771354 0.060918
0.453050 0.774403 0.063967
0.560158 0.777420 0.066984
0.666407 0.780414 0.069978
0.771947 0.783387 0.072951
0.876884 0.786344 0.075908
0.014641 0.873697 0.061281
0.133120 0.877035 0.064619
0.245120 0.880190 0.067774
0.354799 0.883280 0.070864
0.462995 0.886329 0.073913
0.570104 0.889346 0.076930
0.676353 0.892340 0.079924
0.781893 0.895313 0.082897
0.886830 0.898270 0.085854
0.000000 0.000000 0.094890
0.051588 0.000000 0.098228
0.163588 0.000000 0.101384
0.273267 0.000000 0.104474
0.381463 0.000000 0.107522
0.488572 0.000000 0.110540
0.594821 0.000000 0.113533
0.700361 0.000000 0.116507
0.805298 0.000000 0.119463
0.000000 0.070920 0.106120
0.062818 0.074258 0.109458
0.174818 0.077413 0.112613
0.284496 0.080503 0.115703
0.392693 0.083552 0.118752
0.499801 0.086569 0.121769
0.606051 0.089563 0.124763
0.711591 0.092536 0.127736
0.816527 0.095493 0.130693
0.000000 0.190380 0.116735
0.073433 0.193718 0.120073
0.185433 0.196873 0.123229
0.295111 0.199963 0.126319
0.403308 0.203012 0.129367
0.510417 0.206029 0.132385
0.616666 0.209023 0.135378
0.722206 0.211996 0.138352
0.827142 0.214953 0.141308
0.000000 0.307363 0.127130
0.083828 0.310701 0.130468
0.195828 0.313856 0.133624
0.305507 0.316947 0.136714
0.413703 0.319995 0.139762
0.520812 0.323013 0.142780
0.627061 0.326006 0.145773
0.732601 0.328980 0.148747
0.837538 0.331936 0.151703
0.000000 0.422766 0.137385
0.094083 0.426104 0.140723
0.206083 0.429260 0.143879
0.315761 0.432350 0.146969
0.423958 0.435398 0.150017
0.531067 0.438416 0.153035
0.637316 0.441409 0.156028
0.742856 0.444383 0.159002
0.847793 0.447339 0.161958
0.000000 0.537009 0.147537
0.104235 0.540347 0.150875
0.216235 0.543502 0.154030
0.325913 0.546593 0.157120
0.434110 0.549641 0.160169
0.541219 0.552659 0.163187
0.647468 0.555652 0.166180
0.753008 0.558626 0.169153
0.857944 0.561582 0.172110
0.000000 0.650335 0.157607
0.114305 0.653673 0.160945
0.226305 0.656828 0.164101
0.335983 0.659919 0.167191
0.444180 0.662967 0.170239
0.551289 0.665985 0.173257
0.657538 0.668978 0.176250
0.763078 0.671952 0.179224
0.868015 0.674908 0.182180
0.005828 0.762904 0.167610
0.124308 0.766242 0.170948
0.236308 0.769398 0.174104
0.345986 0.772488 0.177194
0.454183 0.775536 0.180242
0.561292 0.778554 0.183260
0.667541 0.781548 0.186253
0.773081 0.784521 0.189227
0.878018 0.787478 0.192183
0.015774 0.874830 0.177556
0.134254 0.878168 0.180894
0.246254 0.881324 0.184050
0.355932 0.884414 0.187140
0.464129 0.887462 0.190188
0.571238 0.890480 0.193206
0.677487 0.893473 0.196199
0.783027 0.896447 0.199173
0.887963 0.899403 0.202129
0.000000 0.000000 0.204807
0.052660 0.000000 0.208145
0.164660 0.000000 0.211300
0.274338 0.000000 0.214390
0.382535 0.000000 0.217439
0.489644 0.000000 0.220456
0.595893 0.000000 0.223450
0.701433 0.000000 0.226423
0.806369 0.000000 0.229380
0.000000 0.071991 0.216036
0.063889 0.075329 0.219374
0.175890 0.078485 0.222530
0.285568 0.081575 0.225620
0.393764 0.084623 0.228668
0.500873 0.087641 0.231686
0.607122 0.090635 0.234679
0.712662 0.093608 0.237653
0.817599 0.096565 0.240609
0.000000 0.191451 0.226651
0.074505 0.194789 0.229989
0.186505 0.197945 0.233145
0.296183 0.201035 0.236235
0.404380 0.204083 0.239283
0.511488 0.207101 0.242301
0.617738 0.210094 0.245294
0.723278 0.213068 0.248268
0.828214 0.216024 0.251224
0.000000 0.308435 0.237047
0.084900 0.311773 0.240385
0.196900 0.314928 0.243540
0.306578 0.318018 0.246630
0.414775 0.321067 0.249679
0.521884 0.324084 0.252696
0.628133 0.327078 0.255690
0.733673 0.330051 0.258663
0.838609 0.333008 0.261620
0.000000 0.423838 0.247301
0.095155 0.427176 0.250639
0.207155 0.430331 0.253795
0.316833 0.433422 0.256885
0.425030 0.436470 0.259933
0.532138 0.439488 0.262951
0.638388 0.442481 0.265945
0.743928 0.445455 0.268918
0.848864 0.448411 0.271875
0.000000 0.538080 0.257453
0.105307 0.541419 0.260791
0.217307 0.544574 0.263947
0.326985 0.547664 0.267037
0.435182 0.550712 0.270085
0.542290 0.553730 0.273103
0.648539 0.556724 0.276096
0.754079 0.559697 0.279070
0.859016 0.562654 0.282026
0.000000 0.651407 0.267523
0.115377 0.654745 0.270861
0.227377 0.657900 0.274017
0.337055 0.660990 0.277107
0.445252 0.664039 0.280155
0.552360 0.667056 0.283173
0.658610 0.670050 0.286166
0.764150 0.673023 0.289140
0.869086 0.675980 0.292096
0.006900 0.763976 0.277526
0.125380 0.767314 0.280864
0.237380 0.770470 0.284020
0.347058 0.773560 0.287110
0.455255 0.776608 0.290158
0.562363 0.779626 0.293176
0.668613 0.782619 0.296170
0.774153 0.785593 0.299143
0.879089 0.788549 0.302100
0.016846 0.875902 0.287472
0.135326 0.879240 0.290810
0.247326 0.882395 0.293966
0.357004 0.885485 0.297056
0.465201 0.888534 0.300104
0.572309 0.891552 0.303122
0.678559 0.894545 0.306115
0.784099 0.897518 0.309089
0.889035 0.900475 0.312045
0.000000 0.000000 0.312444
0.053709 0.000000 0.315782
0.165709 0.000000 0.318937
0.275388 0.000000 0.322028
0.383584 0.000000 0.325076
0.490693 0.000000 0.328094
0.596942 0.000000 0.331087
0.702482 0.000000 0.334061
0.807419 0.000000 0.337017
0.000000 0.073041 0.323673
0.064939 0.076379 0.327011
0.176939 0.079534 0.330167
0.286617 0.082624 0.333257
0.394814 0.085673 0.336305
0.501922 0.088690 0.339323
0.608172 0.091684 0.342317
0.713712 0.094657 0.345290
0.818648 0.097614 0.348247
0.000000 0.192501 0.334289
0.075554 0.195839 0.337627
0.187554 0.198994 0.340782
0.297232 0.202084 0.343872
0.405429 0.205133 0.346921
0.512538 0.208150 0.349938
0.618787 0.211144 0.352932
0.724327 0.214117 0.355905
0.829263 0.217074 0.358862
0.000000 0.309484 0.344684
0.085949 0.312822 0.348022
0.197949 0.315978 0.351178
0.307628 0.319068 0.354268
0.415824 0.322116 0.357316
0.522933 0.325134 0.360334
0.629182 0.328127 0.363327
0.734722 0.331101 0.366301
0.839659 0.334057 0.369257
0.000000 0.424887 0.354939
0.096204 0.428225 0.358277
0.208204 0.431381 0.361432
0.317882 0.434471 0.364522
0.426079 0.437519 0.367571
0.533188 0.440537 0.370588
0.639437 0.443530 0.373582
0.744977 0.446504 0.376555
0.849914 0.449460 0.379512
0.000000 0.539130 0.365090
0.106356 0.542468 0.368429
0.218356 0.545623 0.371584
0.328034 0.548714 0.374674
0.436231 0.551762 0.377722
0.543340 0.554780 0.380740
0.649589 0.557773 0.383734
0.755129 0.560747 0.386707
0.860065 0.563703 0.389664
0.000000 0.652456 0.375161
0.116426 0.655794 0.378499
0.228426 0.658950 0.381654
0.338104 0.662040 0.384744
0.446301 0.665088 0.387793
0.553410 0.668106 0.390810
0.659659 0.671099 0.393804
0.765199 0.674073 0.396777
0.870136 0.677029 0.399734
0.007949 0.765025 0.385164
0.126429 0.768363 0.388502
0.238429 0.771519 0.391657
0.348107 0.774609 0.394747
0.456304 0.777657 0.397796
0.563413 0.780675 0.400813
0.669662 0.783669 0.403807
0.775202 0.786642 0.406780
0.880139 0.789599 0.409737
0.017895 0.876951 0.395110
0.136375 0.880289 0.398448
0.248375 0.883445 0.401603
0.358053 0.886535 0.404693
0.466250 0.889583 0.407742
0.573359 0.892601 0.410759
0.679608 0.895594 0.413753
0.785148 0.898568 0.416726
0.890084 0.901524 0.419683
0.000000 0.000000 0.418628
0.054745 0.000000 0.421966
0.166745 0.000000 0.425121
0.276423 0.000000 0.428211
0.384620 0.000000 0.431260
0.491728 0.000000 0.434277
0.597978 0.000000 0.437271
0.703517 0.000000 0.440244
0.808454 0.000000 0.443201
0.000000 0.074076 0.429857
0.065974 0.077414 0.433195
0.177974 0.080570 0.436351
0.287652 0.083660 0.439441
0.395849 0.086708 0.442489
0.502958 0.089726 0.445507
0.609207 0.092719 0.448500
0.714747 0.095693 0.451474
0.819683 0.098649 0.454430
0.000000 0.193536 0.440472
0.076589 0.196874 0.443810
0.188589 0.200029 0.446966
0.298268 0.203120 0.450056
0.406464 0.206168 0.453104
0.513573 0.209186 0.456122
0.619822 0.212179 0.459116
0.725362 0.215153 0.462089
0.830299 0.218109 0.465046
0.000000 0.310519 0.450868
0.086985 0.313857 0.454206
0.198985 0.317013 0.457361
0.308663 0.320103 0.460451
0.416860 0.323151 0.463500
0.523968 0.326169 0.466517
0.630218 0.329162 0.469511
0.735757 0.332136 0.472484
0.840694 0.335092 0.475441
0.000000 0.425923 0.461123
0.097239 0.429261 0.464461
0.209240 0.432416 0.467616
0.318918 0.435506 0.470706
0.427115 0.438555 0.473755
0.534223 0.441572 0.476772
0.640472 0.444566 0.479766
0.746012 0.447539 0.482739
0.850949 0.450496 0.485696
0.000000 0.540165 0.471274
0.107391 0.543503 0.474612
0.219391 0.546659 0.477768
0.329069 0.549749 0.480858
0.437266 0.552797 0.483906
0.544375 0.555815 0.486924
0.650624 0.558808 0.489917
0.756164 0.561782 0.492891
0.861101 0.564738 0.495847
0.000000 0.653491 0.481344
0.117461 0.656829 0.484683
0.229462 0.659985 0.487838
0.339140 0.663075 0.490928
0.447336 0.666123 0.493976
0.554445 0.669141 0.496994
0.660694 0.672134 0.499988
0.766234 0.675108 0.502961
0.871171 0.678064 0.505918
0.008985 0.766061 0.491348
0.127464 0.769399 0.494686
0.239465 0.772554 0.497841
0.349143 0.775644 0.500931
0.457340 0.778693 0.503980
0.564448 0.781710 0.506997
0.670697 0.784704 0.509991
0.776237 0.787677 0.512964
0.881174 0.790634 0.515921
0.018930 0.877986 0.501293
0.137410 0.881325 0.504631
0.249410 0.884480 0.507787
0.359088 0.887570 0.510877
0.467285 0.890618 0.513925
0.574394 0.893636 0.516943
0.680643 0.896630 0.519937
0.786183 0.899603 0.522910
0.891120 0.902560 0.525866
0.000000 0.000000 0.523743
0.055769 0.000000 0.527081
0.167770 0.000000 0.530237
0.277448 0.000000 0.533327
0.385644 0.000000 0.536375
0.492753 0.000000 0.539393
0.599002 0.000000 0.542387
0.704542 0.000000 0.545360
0.809479 0.000000 0.548317
0.000000 0.075101 0.534973
0.066999 0.078439 0.538311
0.178999 0.081594 0.541466
0.288677 0.084684 0.544557
0.396874 0.087733 0.547605
0.503983 0.090750 0.550623
0.610232 0.093744 0.553616
0.715772 0.096717 0.556590
0.820708 0.099674 0.559546
0.000000 0.194561 0.545588
0.077614 0.197899 0.548926
0.189614 0.201054 0.552082
0.299292 0.204144 0.555172
0.407489 0.207193 0.558220
0.514598 0.210210 0.561238
0.620847 0.213204 0.564231
0.726387 0.216177 0.567205
0.831324 0.219134 0.570161
0.000000 0.311544 0.555983
0.088009 0.314882 0.559321
0.200010 0.318038 0.562477
0.309688 0.321128 0.565567
0.417884 0.324176 0.568615
0.524993 0.327194 0.571633
0.631242 0.330187 0.574627
0.736782 0.333161 0.577600
0.841719 0.336117 0.580557
0.000000 0.426947 0.566238
0.098264 0.430285 0.569576
0.210264 0.433441 0.572732
0.319942 0.436531 0.575822
0.428139 0.439579 0.578870
0.535248 0.442597 0.581888
0.641497 0.445591 0.584881
0.747037 0.448564 0.587855
0.851974 0.451521 0.590811
0.000000 0.541190 0.576390
0.108416 0.544528 0.579728
0.220416 0.547684 0.582884
0.330094 0.550774 0.585974
0.438291 0.553822 0.589022
0.545400 0.556840 0.592040
0.651649 0.559833 0.595033
0.757189 0.562807 0.598007
0.862125 0.565763 0.600963
0.000006 0.654516 0.586460
0.118486 0.657854 0.589798
0.230486 0.661010 0.592954
0.340164 0.664100 0.596044
0.448361 0.667148 0.599092
0.555470 0.670166 0.602110
0.661719 0.673159 0.605103
0.767259 0.676133 0.608077
0.872196 0.679089 0.611033
0.010009 0.767085 0.596463
0.128489 0.770424 0.599801
0.240489 0.773579 0.602957
0.350167 0.776669 0.606047
0.458364 0.779717 0.609095
0.565473 0.782735 0.612113
0.671722 0.785729 0.615106
0.777262 0.788702 0.618080
0.882199 0.791659 0.621036
0.019955 0.879011 0.606409
0.138435 0.882349 0.609747
0.250435 0.885505 0.612903
0.360113 0.888595 0.615993
0.468310 0.891643 0.619041
0.575419 0.894661 0.622059
0.681668 0.897654 0.625052
0.787208 0.900628 0.628026
0.892144 0.903584 0.630982
0.000000 0.000000 0.628016
0.056786 0.000000 0.631354
0.168786 0.000000 0.634509
0.278464 0.000000 0.637599
0.386661 0.000000 0.640648
0.493770 0.000000 0.643665
0.600019 0.000000 0.646659
0.705559 0.000000 0.649632
0.810495 0.000000 0.652589
0.000000 0.076117 0.639245
0.068015 0.079455 0.642583
0.180016 0.082611 0.645739
0.289694 0.085701 0.648829
0.397891 0.088749 0.651877
0.504999 0.091767 0.654895
0.611248 0.094761 0.657888
0.716788 0.097734 0.660862
0.821725 0.100691 0.663818
0.000000 0.195577 0.649861
0.078631 0.198915 0.653199
0.190631 0.202071 0.656354
0.300309 0.205161 0.659444
0.408506 0.208209 0.662493
0.515614 0.211227 0.665510
0.621864 0.214221 0.668504
0.727404 0.217194 0.671477
0.832340 0.220151 0.674434
0.000000 0.312561 0.660256
0.089026 0.315899 0.663594
0.201026 0.319054 0.666749
0.310704 0.322144 0.669839
0.418901 0.325193 0.672888
0.526010 0.328210 0.675905
0.632259 0.331204 0.678899
0.737799 0.334177 0.681872
0.842735 0.337134 0.684829
0.000000 0.427964 0.670511
0.099281 0.431302 0.673849
0.211281 0.434458 0.677004
0.320959 0.437548 0.680094
0.429156 0.440596 0.683143
0.536265 0.443614 0.686160
0.642514 0.446607 0.689154
0.748054 0.449581 0.692127
0.852990 0.452537 0.695084
0.000000 0.542207 0.680662
0.109433 0.545545 0.684000
0.221433 0.548700 0.687156
0.331111 0.551790 0.690246
0.439308 0.554839 0.693294
0.546416 0.557856 0.696312
0.652666 0.560850 0.699306
0.758205 0.563823 0.702279
0.863142 0.566780 0.705236
0.001023 0.655533 0.690733
0.119503 0.658871 0.694071
0.231503 0.662026 0.697226
0.341181 0.665116 0.700316
0.449378 0.668165 0.703365
0.556487 0.671182 0.706382
0.662736 0.674176 0.709376
0.768276 0.677149 0.712349
0.873212 0.680106 0.715306
0.011026 0.768102 0.700736
0.129506 0.771440 0.704074
0.241506 0.774596 0.707229
0.351184 0.777686 0.710319
0.459381 0.780734 0.713368
0.566490 0.783752 0.716385
0.672739 0.786745 0.719379
0.778279 0.789719 0.722352
0.883215 0.792675 0.725309
0.020972 0.880028 0.710681
0.139452 0.883366 0.714020
0.251452 0.886521 0.717175
0.361130 0.889612 0.720265
0.469327 0.892660 0.723313
0.576435 0.895678 0.726331
0.682685 0.898671 0.729325
0.788225 0.901645 0.732298
0.893161 0.904601 0.735255
0.000000 0.000000 0.731592
0.057796 0.000000 0.734930
0.169796 0.000000 0.738086
0.279474 0.000000 0.741176
0.387671 0.000000 0.744224
0.494779 0.000000 0.747242
0.601029 0.000000 0.750235
0.706569 0.000000 0.753209
0.811505 0.000000 0.756165
0.000000 0.077127 0.742822
0.069025 0.080465 0.746160
0.181025 0.083621 0.749315
0.290703 0.086711 0.752405
0.398900 0.089759 0.755454
0.506009 0.092777 0.758471
0.612258 0.095770 0.761465
0.717798 0.098744 0.764438
0.822735 0.101700 0.767395
0.000000 0.196587 0.753437
0.079641 0.199925 0.756775
0.191641 0.203081 0.759930
0.301319 0.206171 0.763020
0.409516 0.209219 0.766069
0.516624 0.212237 0.769087
0.622874 0.215230 0.772080
0.728413 0.218204 0.775053
0.833350 0.221160 0.778010
0.000000 0.313570 0.763832
0.090036 0.316908 0.767170
0.202036 0.320064 0.770326
0.311714 0.323154 0.773416
0.419911 0.326202 0.776464
0.527020 0.329220 0.779482
0.633269 0.332214 0.782475
0.738809 0.335187 0.785449
0.843745 0.338144 0.788405
0.000000 0.428974 0.774087
0.100291 0.432312 0.777425
0.212291 0.435467 0.780580
0.321969 0.438557 0.783671
0.430166 0.441606 0.786719
0.537274 0.444623 0.789737
0.643524 0.447617 0.792730
0.749064 0.450590 0.795704
0.854000 0.453547 0.798660
0.000000 0.543216 0.784239
0.110442 0.546554 0.787577
0.222443 0.549710 0.790732
0.332121 0.552800 0.793822
0.440317 0.555848 0.796871
0.547426 0.558866 0.799888
0.653675 0.561860 0.802882
0.759215 0.564833 0.805855
0.864152 0.567790 0.808812
0.002033 0.656542 0.794309
0.120513 0.659880 0.797647
0.232513 0.663036 0.800802
0.342191 0.666126 0.803893
0.450388 0.669174 0.806941
0.557496 0.672192 0.809959
0.663746 0.675186 0.812952
0.769286 0.678159 0.815926
0.874222 0.681116 0.818882
0.012036 0.769112 0.804312
0.130516 0.772450 0.807650
0.242516 0.775605 0.810805
0.352194 0.778696 0.813896
0.460391 0.781744 0.816944
0.567499 0.784762 0.819962
0.673749 0.787755 0.822955
0.779289 0.790729 0.825929
0.884225 0.793685 0.828885
0.021982 0.881038 0.814258
0.140462 0.884376 0.817596
0.252462 0.887531 0.820751
0.362140 0.890621 0.823841
0.470337 0.893670 0.826890
0.577445 0.896687 0.829907
0.683694 0.899681 0.832901
0.789234 0.902654 0.835874
0.894171 0.905611 0.838831
0.000000 0.000000 0.834576
0.058800 0.000000 0.837914
0.170800 0.000000 0.841070
0.280478 0.000000 0.844160
0.388675 0.000000 0.847208
0.495784 0.000000 0.850226
0.602033 0.000000 0.853219
0.707573 0.000000 0.856193
0.812509 0.000000 0.859149
0.000000 0.078131 0.845806
0.070029 0.081469 0.849144
0.182029 0.084625 0.852299
0.291708 0.087715 0.855389
0.399904 0.090763 0.858438
0.507013 0.093781 0.861455
0.613262 0.096774 0.864449
0.718802 0.099748 0.867422
0.823739 0.102704 0.870379
0.000000 0.197591 0.856421
0.080645 0.200929 0.859759
0.192645 0.204085 0.862914
0.302323 0.207175 0.866004
0.410520 0.210223 0.869053
0.517628 0.213241 0.872071
0.623878 0.216234 0.875064
0.729418 0.219208 0.878038
0.834354 0.222164 0.880994
0.000000 0.314574 0.866816
0.091040 0.317913 0.870154
0.203040 0.321068 0.873310
0.312718 0.324158 0.876400
0.420915 0.327206 0.879448
0.528024 0.330224 0.882466
0.634273 0.333218 0.885459
0.739813 0.336191 0.888433
0.844749 0.339148 0.891389
0.000000 0.429978 0.877071
0.101295 0.433316 0.880409
0.213295 0.436471 0.883564
0.322973 0.439561 0.886655
0.431170 0.442610 0.889703
0.538278 0.445627 0.892721
0.644528 0.448621 0.895714
0.750068 0.451594 0.898688
0.855004 0.454551 0.901644
0.000000 0.544220 0.887223
0.111446 0.547558 0.890561
0.223447 0.550714 0.893716
0.333125 0.553804 0.896806
0.441322 0.556852 0.899855
0.548430 0.559870 0.902872
0.654679 0.562864 0.905866
0.760219 0.565837 0.908839
0.865156 0.568794 0.911796
0.003037 0.657546 0.897293
0.121517 0.660885 0.900631
0.233517 0.664040 0.903786
0.343195 0.667130 0.906877
0.451392 0.670178 0.909925
0.558500 0.673196 0.912943
0.664750 0.676190 0.915936
0.770290 0.679163 0.918910
0.875226 0.682120 0.921866
0.013040 0.770116 0.907296
0.131520 0.773454 0.910634
0.243520 0.776609 0.913789
0.353198 0.779700 0.916880
0.461395 0.782748 0.919928
0.568503 0.785766 0.922946
0.674753 0.788759 0.925939
0.780293 0.791733 0.928913
0.885229 0.794689 0.931869
0.022986 0.882042 0.917242
0.141466 0.885380 0.920580
0.253466 0.888535 0.923735
0.363144 0.891625 0.926825
0.471341 0.894674 0.929874
0.578449 0.897691 0.932891
0.684698 0.900685 0.935885
0.790238 0.903658 0.938858
0.895175 0.906615 0.941815
