installer/msi/cep-src/luts/jack_rottier_cinematic.cube
TITLE "FlagshipEditor original preset: jack_rottier_cinematic.cube"
LUT_3D_SIZE 9
DOMAIN_MIN 0.0 0.0 0.0
DOMAIN_MAX 1.0 1.0 1.0
0.000000 0.000000 0.000000
0.096717 0.004312 0.004312
0.207130 0.009235 0.009235
0.316393 0.014107 0.014107
0.424916 0.018946 0.018946
0.532892 0.023760 0.023760
0.640434 0.028555 0.028555
0.747616 0.033334 0.033334
0.854492 0.038100 0.038100
0.012447 0.091732 0.012447
0.109165 0.096045 0.016760
0.219578 0.100968 0.021683
0.328841 0.105839 0.026555
0.437364 0.110678 0.031393
0.545339 0.115493 0.036208
0.652881 0.120288 0.041003
0.760064 0.125067 0.045782
0.866939 0.129832 0.050547
0.029009 0.213784 0.029009
0.125726 0.218096 0.033321
0.236139 0.223019 0.038244
0.345402 0.227891 0.043116
0.453925 0.232730 0.047955
0.561901 0.237544 0.052769
0.669443 0.242339 0.057564
0.776625 0.247118 0.062343
0.883500 0.251883 0.067108
0.045398 0.334564 0.045398
0.142115 0.338876 0.049710
0.252528 0.343799 0.054633
0.361791 0.348671 0.059505
0.470314 0.353510 0.064344
0.578290 0.358324 0.069158
0.685832 0.363119 0.073953
0.793014 0.367898 0.078732
0.899889 0.372664 0.083497
0.061676 0.454526 0.061676
0.158393 0.458838 0.065988
0.268806 0.463761 0.070911
0.378069 0.468633 0.075783
0.486592 0.473472 0.080622
0.594568 0.478286 0.085436
0.702110 0.483081 0.090231
0.809292 0.487860 0.095010
0.916167 0.492626 0.099775
0.077871 0.573883 0.077871
0.174589 0.578196 0.082184
0.285002 0.583119 0.087107
0.394265 0.587990 0.091979
0.502788 0.592829 0.096817
0.610764 0.597644 0.101632
0.718305 0.602439 0.106427
0.825488 0.607218 0.111206
0.932363 0.611983 0.115971
0.094002 0.692761 0.094002
0.190719 0.697073 0.098315
0.301133 0.701996 0.103238
0.410396 0.706868 0.108109
0.518919 0.711707 0.112948
0.626894 0.716521 0.117762
0.734436 0.721316 0.122558
0.841618 0.726095 0.127337
0.948494 0.730860 0.132102
0.110079 0.811241 0.110079
0.206796 0.815553 0.114391
0.317209 0.820476 0.119314
0.426472 0.825348 0.124186
0.534995 0.830187 0.129025
0.642971 0.835001 0.133839
0.750513 0.839796 0.138634
0.857695 0.844575 0.143413
0.964571 0.849341 0.148179
0.126110 0.929382 0.126110
0.222827 0.933694 0.130422
0.333240 0.938617 0.135345
0.442503 0.943489 0.140217
0.551026 0.948328 0.145056
0.659002 0.953142 0.149870
0.766544 0.957937 0.154665
0.873726 0.962716 0.159444
0.980601 0.967481 0.164209
0.001075 0.001075 0.068880
0.097792 0.005387 0.073192
0.208205 0.010310 0.078115
0.317468 0.015182 0.082987
0.425991 0.020021 0.087825
0.533967 0.024835 0.092640
0.641509 0.029630 0.097435
0.748691 0.034409 0.102214
0.855566 0.039174 0.106979
0.013522 0.092807 0.081327
0.110239 0.097119 0.085639
0.220652 0.102042 0.090562
0.329915 0.106914 0.095434
0.438438 0.111753 0.100273
0.546414 0.116567 0.105087
0.653956 0.121362 0.109882
0.761138 0.126141 0.114661
0.868014 0.130906 0.119426
0.030083 0.214858 0.097888
0.126801 0.219171 0.102201
0.237214 0.224094 0.107124
0.346477 0.228966 0.111995
0.455000 0.233804 0.116834
0.562976 0.238619 0.121649
0.670517 0.243414 0.126444
0.777700 0.248193 0.131223
0.884575 0.252958 0.135988
0.046472 0.335639 0.114277
0.143190 0.339951 0.118590
0.253603 0.344874 0.123513
0.362866 0.349746 0.128384
0.471389 0.354585 0.133223
0.579364 0.359399 0.138038
0.686906 0.364194 0.142833
0.794089 0.368973 0.147612
0.900964 0.373738 0.152377
0.062750 0.455601 0.130555
0.159467 0.459913 0.134867
0.269881 0.464836 0.139791
0.379144 0.469708 0.144662
0.487667 0.474547 0.149501
0.595642 0.479361 0.154315
0.703184 0.484156 0.159110
0.810366 0.488935 0.163889
0.917242 0.493700 0.168655
0.078946 0.574958 0.146751
0.175663 0.579270 0.151063
0.286076 0.584193 0.155986
0.395339 0.589065 0.160858
0.503862 0.593904 0.165697
0.611838 0.598718 0.170511
0.719380 0.603513 0.175306
0.826562 0.608292 0.180085
0.933438 0.613058 0.184851
0.095077 0.693835 0.162882
0.191794 0.698148 0.167194
0.302207 0.703071 0.172117
0.411470 0.707943 0.176989
0.519993 0.712781 0.181828
0.627969 0.717596 0.186642
0.735511 0.722391 0.191437
0.842693 0.727170 0.196216
0.949568 0.731935 0.200981
0.111154 0.812316 0.178959
0.207871 0.816628 0.183271
0.318284 0.821551 0.188194
0.427547 0.826423 0.193066
0.536070 0.831261 0.197904
0.644046 0.836076 0.202719
0.751588 0.840871 0.207514
0.858770 0.845650 0.212293
0.965645 0.850415 0.217058
0.127184 0.930456 0.194989
0.223902 0.934769 0.199302
0.334315 0.939692 0.204225
0.443578 0.944564 0.209096
0.552101 0.949402 0.213935
0.660077 0.954217 0.218750
0.767618 0.959012 0.223545
0.874801 0.963791 0.228324
0.981676 0.968556 0.233089
0.002747 0.002747 0.176041
0.099464 0.007059 0.180354
0.209877 0.011982 0.185277
0.319140 0.016854 0.190149
0.427663 0.021692 0.194987
0.535639 0.026507 0.199802
0.643180 0.031302 0.204597
0.750363 0.036081 0.209376
0.857238 0.040846 0.214141
0.015194 0.094479 0.188489
0.111911 0.098791 0.192801
0.222324 0.103714 0.197724
0.331587 0.108586 0.202596
0.440110 0.113425 0.207435
0.548086 0.118239 0.212249
0.655628 0.123034 0.217044
0.762810 0.127813 0.221823
0.869685 0.132578 0.226588
0.031755 0.216530 0.205050
0.128473 0.220843 0.209363
0.238886 0.225766 0.214286
0.348149 0.230637 0.219157
0.456672 0.235476 0.223996
0.564647 0.240291 0.228811
0.672189 0.245086 0.233606
0.779371 0.249865 0.238385
0.886247 0.254630 0.243150
0.048144 0.337310 0.221439
0.144861 0.341623 0.225752
0.255275 0.346546 0.230675
0.364538 0.351418 0.235546
0.473061 0.356256 0.240385
0.581036 0.361071 0.245199
0.688578 0.365866 0.249994
0.795760 0.370645 0.254773
0.902636 0.375410 0.259539
0.064422 0.457272 0.237717
0.161139 0.461585 0.242029
0.271552 0.466508 0.246952
0.380816 0.471380 0.251824
0.489338 0.476218 0.256663
0.597314 0.481033 0.261477
0.704856 0.485828 0.266272
0.812038 0.490607 0.271051
0.918914 0.495372 0.275817
0.080618 0.576630 0.253913
0.177335 0.580942 0.258225
0.287748 0.585865 0.263148
0.397011 0.590737 0.268020
0.505534 0.595576 0.272859
0.613510 0.600390 0.277673
0.721052 0.605185 0.282468
0.828234 0.609964 0.287247
0.935110 0.614729 0.292013
0.096749 0.695507 0.270044
0.193466 0.699820 0.274356
0.303879 0.704743 0.279279
0.413142 0.709615 0.284151
0.521665 0.714453 0.288990
0.629641 0.719268 0.293804
0.737183 0.724063 0.298599
0.844365 0.728842 0.303378
0.951240 0.733607 0.308143
0.112826 0.813987 0.286120
0.209543 0.818300 0.290433
0.319956 0.823223 0.295356
0.429219 0.828095 0.300228
0.537742 0.832933 0.305066
0.645718 0.837748 0.309881
0.753259 0.842543 0.314676
0.860442 0.847322 0.319455
0.967317 0.852087 0.324220
0.128856 0.932128 0.302151
0.225574 0.936441 0.306464
0.335987 0.941364 0.311387
0.445250 0.946235 0.316258
0.553773 0.951074 0.321097
0.661748 0.955889 0.325912
0.769290 0.960684 0.330707
0.876473 0.965463 0.335486
0.983348 0.970228 0.340251
0.004401 0.004401 0.282087
0.101118 0.008713 0.286400
0.211531 0.013636 0.291323
0.320794 0.018508 0.296194
0.429317 0.023347 0.301033
0.537293 0.028161 0.305848
0.644835 0.032956 0.310643
0.752017 0.037735 0.315422
0.858893 0.042501 0.320187
0.016848 0.096133 0.294535
0.113566 0.100446 0.298847
0.223979 0.105369 0.303770
0.333242 0.110240 0.308642
0.441765 0.115079 0.313481
0.549740 0.119894 0.318295
0.657282 0.124689 0.323090
0.764465 0.129468 0.327869
0.871340 0.134233 0.332634
0.033410 0.218185 0.311096
0.130127 0.222497 0.315408
0.240540 0.227420 0.320331
0.349803 0.232292 0.325203
0.458326 0.237131 0.330042
0.566302 0.241945 0.334856
0.673844 0.246740 0.339651
0.781026 0.251519 0.344430
0.887901 0.256284 0.349196
0.049799 0.338965 0.327485
0.146516 0.343277 0.331797
0.256929 0.348200 0.336720
0.366192 0.353072 0.341592
0.474715 0.357911 0.346431
0.582691 0.362725 0.351245
0.690233 0.367520 0.356040
0.797415 0.372299 0.360819
0.904290 0.377065 0.365585
0.066077 0.458927 0.343763
0.162794 0.463239 0.348075
0.273207 0.468162 0.352998
0.382470 0.473034 0.357870
0.490993 0.477873 0.362709
0.598969 0.482687 0.367523
0.706511 0.487482 0.372318
0.813693 0.492261 0.377097
0.920568 0.497027 0.381862
0.082272 0.578284 0.359959
0.178990 0.582597 0.364271
0.289403 0.587520 0.369194
0.398666 0.592391 0.374066
0.507189 0.597230 0.378905
0.615165 0.602045 0.383719
0.722706 0.606840 0.388514
0.829889 0.611619 0.393293
0.936764 0.616384 0.398058
0.098403 0.697162 0.376089
0.195120 0.701474 0.380402
0.305534 0.706397 0.385325
0.414797 0.711269 0.390197
0.523319 0.716108 0.395035
0.631295 0.720922 0.399850
0.738837 0.725717 0.404645
0.846019 0.730496 0.409424
0.952895 0.735261 0.414189
0.114480 0.815642 0.392166
0.211197 0.819954 0.396479
0.321610 0.824877 0.401402
0.430873 0.829749 0.406273
0.539396 0.834588 0.411112
0.647372 0.839402 0.415927
0.754914 0.844197 0.420722
0.862096 0.848976 0.425501
0.968972 0.853742 0.430266
0.130511 0.933783 0.408197
0.227228 0.938095 0.412509
0.337641 0.943018 0.417432
0.446904 0.947890 0.422304
0.555427 0.952729 0.427143
0.663403 0.957543 0.431957
0.770945 0.962338 0.436752
0.878127 0.967117 0.441531
0.985002 0.971882 0.446297
0.006044 0.006044 0.387415
0.102762 0.010357 0.391727
0.213175 0.015280 0.396650
0.322438 0.020151 0.401522
0.430961 0.024990 0.406361
0.538936 0.029805 0.411175
0.646478 0.034600 0.415970
0.753660 0.039379 0.420749
0.860536 0.044144 0.425514
0.018492 0.097777 0.399862
0.115209 0.102089 0.404174
0.225622 0.107012 0.409097
0.334885 0.111884 0.413969
0.443408 0.116722 0.418808
0.551384 0.121537 0.423622
0.658926 0.126332 0.428417
0.766108 0.131111 0.433196
0.872983 0.135876 0.437962
0.035053 0.219828 0.416423
0.131770 0.224140 0.420736
0.242183 0.229063 0.425659
0.351446 0.233935 0.430531
0.459969 0.238774 0.435369
0.567945 0.243588 0.440184
0.675487 0.248383 0.444979
0.782669 0.253162 0.449758
0.889545 0.257928 0.454523
0.051442 0.340608 0.432812
0.148159 0.344921 0.437125
0.258572 0.349844 0.442048
0.367835 0.354715 0.446920
0.476358 0.359554 0.451758
0.584334 0.364369 0.456573
0.691876 0.369164 0.461368
0.799058 0.373943 0.466147
0.905934 0.378708 0.470912
0.067720 0.460570 0.449090
0.164437 0.464883 0.453403
0.274850 0.469806 0.458326
0.384113 0.474677 0.463197
0.492636 0.479516 0.468036
0.600612 0.484331 0.472851
0.708154 0.489126 0.477646
0.815336 0.493905 0.482425
0.922211 0.498670 0.487190
0.083916 0.579928 0.465286
0.180633 0.584240 0.469598
0.291046 0.589163 0.474521
0.400309 0.594035 0.479393
0.508832 0.598873 0.484232
0.616808 0.603688 0.489046
0.724350 0.608483 0.493841
0.831532 0.613262 0.498620
0.938407 0.618027 0.503386
0.100046 0.698805 0.481417
0.196764 0.703117 0.485729
0.307177 0.708040 0.490652
0.416440 0.712912 0.495524
0.524963 0.717751 0.500363
0.632939 0.722565 0.505177
0.740480 0.727360 0.509972
0.847663 0.732139 0.514751
0.954538 0.736905 0.519516
0.116123 0.817285 0.497494
0.212841 0.821598 0.501806
0.323254 0.826521 0.506729
0.432517 0.831392 0.511601
0.541040 0.836231 0.516440
0.649015 0.841045 0.521254
0.756557 0.845840 0.526049
0.863739 0.850619 0.530828
0.970615 0.855385 0.535593
0.132154 0.935426 0.513524
0.228871 0.939738 0.517837
0.339284 0.944661 0.522760
0.448547 0.949533 0.527632
0.557070 0.954372 0.532470
0.665046 0.959186 0.537285
0.772588 0.963981 0.542080
0.879770 0.968760 0.546859
0.986646 0.973526 0.551624
0.007679 0.007679 0.492211
0.104397 0.011992 0.496523
0.214810 0.016915 0.501446
0.324073 0.021786 0.506318
0.432596 0.026625 0.511157
0.540571 0.031440 0.515971
0.648113 0.036235 0.520766
0.755295 0.041014 0.525545
0.862171 0.045779 0.530311
0.020127 0.099411 0.504658
0.116844 0.103724 0.508971
0.227257 0.108647 0.513894
0.336520 0.113519 0.518766
0.445043 0.118357 0.523604
0.553019 0.123172 0.528419
0.660561 0.127967 0.533214
0.767743 0.132746 0.537993
0.874618 0.137511 0.542758
0.036688 0.221463 0.521220
0.133405 0.225775 0.525532
0.243818 0.230698 0.530455
0.353081 0.235570 0.535327
0.461604 0.240409 0.540166
0.569580 0.245223 0.544980
0.677122 0.250018 0.549775
0.784304 0.254797 0.554554
0.891180 0.259563 0.559319
0.053077 0.342243 0.537609
0.149794 0.346556 0.541921
0.260207 0.351479 0.546844
0.369470 0.356350 0.551716
0.477993 0.361189 0.556555
0.585969 0.366003 0.561369
0.693511 0.370799 0.566164
0.800693 0.375577 0.570943
0.907569 0.380343 0.575708
0.069355 0.462205 0.553887
0.166072 0.466518 0.558199
0.276485 0.471441 0.563122
0.385748 0.476312 0.567994
0.494271 0.481151 0.572833
0.602247 0.485966 0.577647
0.709789 0.490761 0.582442
0.816971 0.495540 0.587221
0.923846 0.500305 0.591986
0.085551 0.581562 0.570082
0.182268 0.585875 0.574395
0.292681 0.590798 0.579318
0.401944 0.595670 0.584190
0.510467 0.600508 0.589028
0.618443 0.605323 0.593843
0.725985 0.610118 0.598638
0.833167 0.614897 0.603417
0.940042 0.619662 0.608182
0.101681 0.700440 0.586213
0.198399 0.704752 0.590526
0.308812 0.709675 0.595449
0.418075 0.714547 0.600320
0.526598 0.719386 0.605159
0.634574 0.724200 0.609974
0.742115 0.728995 0.614769
0.849298 0.733774 0.619548
0.956173 0.738540 0.624313
0.117758 0.818920 0.602290
0.214476 0.823233 0.606602
0.324889 0.828156 0.611525
0.434152 0.833027 0.616397
0.542675 0.837866 0.621236
0.650650 0.842680 0.626050
0.758192 0.847475 0.630845
0.865374 0.852254 0.635624
0.972250 0.857020 0.640390
0.133789 0.937061 0.618321
0.230506 0.941373 0.622633
0.340919 0.946296 0.627556
0.450182 0.951168 0.632428
0.558705 0.956007 0.637267
0.666681 0.960821 0.642081
0.774223 0.965616 0.646876
0.881405 0.970395 0.651655
0.988281 0.975161 0.656420
0.009308 0.009308 0.596586
0.106025 0.013620 0.600899
0.216438 0.018543 0.605822
0.325701 0.023415 0.610693
0.434224 0.028254 0.615532
0.542200 0.033068 0.620347
0.649742 0.037863 0.625142
0.756924 0.042642 0.629921
0.863799 0.047407 0.634686
0.021755 0.101040 0.609034
0.118472 0.105352 0.613346
0.228885 0.110275 0.618269
0.338148 0.115147 0.623141
0.446671 0.119986 0.627980
0.554647 0.124800 0.632794
0.662189 0.129595 0.637589
0.769371 0.134374 0.642368
0.876247 0.139140 0.647133
0.038316 0.223091 0.625595
0.135034 0.227404 0.629907
0.245447 0.232327 0.634830
0.354710 0.237199 0.639702
0.463233 0.242037 0.644541
0.571209 0.246852 0.649355
0.678750 0.251647 0.654150
0.785933 0.256426 0.658929
0.892808 0.261191 0.663695
0.054705 0.343872 0.641984
0.151423 0.348184 0.646296
0.261836 0.353107 0.651219
0.371099 0.357979 0.656091
0.479622 0.362818 0.660930
0.587597 0.367632 0.665744
0.695139 0.372427 0.670539
0.802322 0.377206 0.675318
0.909197 0.381971 0.680084
0.070983 0.463834 0.658262
0.167701 0.468146 0.662574
0.278114 0.473069 0.667497
0.387377 0.477941 0.672369
0.495900 0.482780 0.677208
0.603875 0.487594 0.682022
0.711417 0.492389 0.686817
0.818599 0.497168 0.691596
0.925475 0.501933 0.696361
0.087179 0.583191 0.674458
0.183896 0.587503 0.678770
0.294309 0.592426 0.683693
0.403573 0.597298 0.688565
0.512095 0.602137 0.693404
0.620071 0.606951 0.698218
0.727613 0.611746 0.703013
0.834795 0.616525 0.707792
0.941671 0.621291 0.712557
0.103310 0.702068 0.690588
0.200027 0.706381 0.694901
0.310440 0.711304 0.699824
0.419703 0.716176 0.704696
0.528226 0.721014 0.709534
0.636202 0.725829 0.714349
0.743744 0.730624 0.719144
0.850926 0.735403 0.723923
0.957801 0.740168 0.728688
0.119387 0.820549 0.706665
0.216104 0.824861 0.710978
0.326517 0.829784 0.715901
0.435780 0.834656 0.720772
0.544303 0.839494 0.725611
0.652279 0.844309 0.730426
0.759821 0.849104 0.735221
0.867003 0.853883 0.740000
0.973878 0.858648 0.744765
0.135417 0.938689 0.722696
0.232135 0.943002 0.727008
0.342548 0.947925 0.731931
0.451811 0.952797 0.736803
0.560334 0.957635 0.741642
0.668310 0.962450 0.746456
0.775851 0.967245 0.751251
0.883034 0.972024 0.756030
0.989909 0.976789 0.760796
0.010931 0.010931 0.700613
0.107648 0.015243 0.704925
0.218061 0.020166 0.709848
0.327324 0.025038 0.714720
0.435847 0.029877 0.719558
0.543823 0.034691 0.724373
0.651365 0.039486 0.729168
0.758547 0.044265 0.733947
0.865422 0.049030 0.738712
0.023378 0.102663 0.713060
0.120095 0.106975 0.717372
0.230508 0.111898 0.722295
0.339771 0.116770 0.727167
0.448294 0.121609 0.732006
0.556270 0.126423 0.736820
0.663812 0.131218 0.741615
0.770994 0.135997 0.746394
0.877870 0.140762 0.751159
0.039939 0.224714 0.729621
0.136657 0.229027 0.733934
0.247070 0.233950 0.738857
0.356333 0.238822 0.743728
0.464856 0.243660 0.748567
0.572832 0.248475 0.753382
0.680373 0.253270 0.758177
0.787556 0.258049 0.762956
0.894431 0.262814 0.767721
0.056328 0.345495 0.746010
0.153046 0.349807 0.750323
0.263459 0.354730 0.755246
0.372722 0.359602 0.760117
0.481245 0.364440 0.764956
0.589220 0.369255 0.769771
0.696762 0.374050 0.774566
0.803945 0.378829 0.779345
0.910820 0.383594 0.784110
0.072606 0.465457 0.762288
0.169323 0.469769 0.766600
0.279737 0.474692 0.771524
0.389000 0.479564 0.776395
0.497523 0.484403 0.781234
0.605498 0.489217 0.786048
0.713040 0.494012 0.790843
0.820222 0.498791 0.795622
0.927098 0.503556 0.800388
0.088802 0.584814 0.778484
0.185519 0.589126 0.782796
0.295932 0.594049 0.787719
0.405195 0.598921 0.792591
0.513718 0.603760 0.797430
0.621694 0.608574 0.802244
0.729236 0.613369 0.807039
0.836418 0.618148 0.811818
0.943294 0.622913 0.816584
0.104933 0.703691 0.794615
0.201650 0.708004 0.798927
0.312063 0.712927 0.803850
0.421326 0.717799 0.808722
0.529849 0.722637 0.813561
0.637825 0.727452 0.818375
0.745367 0.732247 0.823170
0.852549 0.737026 0.827949
0.959424 0.741791 0.832714
0.121010 0.822172 0.810692
0.217727 0.826484 0.815004
0.328140 0.831407 0.819927
0.437403 0.836279 0.824799
0.545926 0.841117 0.829637
0.653902 0.845932 0.834452
0.761444 0.850727 0.839247
0.868626 0.855506 0.844026
0.975501 0.860271 0.848791
0.137040 0.940312 0.826722
0.233758 0.944625 0.831035
0.344171 0.949548 0.835958
0.453434 0.954420 0.840829
0.561957 0.959258 0.845668
0.669933 0.964073 0.850483
0.777474 0.968868 0.855278
0.884657 0.973647 0.860057
0.991532 0.978412 0.864822
0.012549 0.012549 0.804341
0.109266 0.016861 0.808653
0.219679 0.021784 0.813576
0.328942 0.026656 0.818448
0.437465 0.031495 0.823287
0.545441 0.036309 0.828101
0.652983 0.041104 0.832896
0.760165 0.045883 0.837675
0.867041 0.050649 0.842441
0.024996 0.104281 0.816788
0.121714 0.108594 0.821101
0.232127 0.113517 0.826024
0.341390 0.118388 0.830895
0.449913 0.123227 0.835734
0.557888 0.128041 0.840549
0.665430 0.132837 0.845344
0.772612 0.137615 0.850123
0.879488 0.142381 0.854888
0.041558 0.226333 0.833350
0.138275 0.230645 0.837662
0.248688 0.235568 0.842585
0.357951 0.240440 0.847457
0.466474 0.245279 0.852296
0.574450 0.250093 0.857110
0.681992 0.254888 0.861905
0.789174 0.259667 0.866684
0.896049 0.264432 0.871449
0.057947 0.347113 0.849739
0.154664 0.351425 0.854051
0.265077 0.356348 0.858974
0.374340 0.361220 0.863846
0.482863 0.366059 0.868685
0.590839 0.370873 0.873499
0.698381 0.375668 0.878294
0.805563 0.380447 0.883073
0.912438 0.385212 0.887838
0.074225 0.467075 0.866017
0.170942 0.471387 0.870329
0.281355 0.476310 0.875252
0.390618 0.481182 0.880124
0.499141 0.486021 0.884962
0.607117 0.490835 0.889777
0.714658 0.495630 0.894572
0.821841 0.500409 0.899351
0.928716 0.505175 0.904116
0.090420 0.586432 0.882212
0.187138 0.590745 0.886525
0.297551 0.595668 0.891448
0.406814 0.600539 0.896320
0.515337 0.605378 0.901158
0.623313 0.610193 0.905973
0.730854 0.614988 0.910768
0.838037 0.619767 0.915547
0.944912 0.624532 0.920312
0.106551 0.705310 0.898343
0.203268 0.709622 0.902656
0.313681 0.714545 0.907579
0.422945 0.719417 0.912450
0.531467 0.724256 0.917289
0.639443 0.729070 0.922103
0.746985 0.733865 0.926898
0.854167 0.738644 0.931677
0.961043 0.743409 0.936443
0.122628 0.823790 0.914420
0.219345 0.828102 0.918732
0.329758 0.833025 0.923655
0.439021 0.837897 0.928527
0.547544 0.842736 0.933366
0.655520 0.847550 0.938180
0.763062 0.852345 0.942975
0.870244 0.857124 0.947754
0.977120 0.861889 0.952520
0.138659 0.941931 0.930451
0.235376 0.946243 0.934763
0.345789 0.951166 0.939686
0.455052 0.956038 0.944558
0.563575 0.960877 0.949397
0.671551 0.965691 0.954211
0.779093 0.970486 0.959006
0.886275 0.975265 0.963785
0.993150 0.980030 0.968550
