installer/msi/cep-src/luts/jack_rottier_cinematic.cube
TITLE "FlagshipEditor original preset: jack_rottier_cinematic.cube"
LUT_3D_SIZE 17
DOMAIN_MIN 0.0 0.0 0.0
DOMAIN_MAX 1.0 1.0 1.0
0.000000 0.000000 0.000000
0.040740 0.001816 0.001816
0.096717 0.004312 0.004312
0.152111 0.006782 0.006782
0.207130 0.009235 0.009235
0.261872 0.011676 0.011676
0.316393 0.014107 0.014107
0.370733 0.016530 0.016530
0.424916 0.018946 0.018946
0.478964 0.021356 0.021356
0.532892 0.023760 0.023760
0.586712 0.026160 0.026160
0.640434 0.028555 0.028555
0.694066 0.030947 0.030947
0.747616 0.033334 0.033334
0.801090 0.035719 0.035719
0.854492 0.038100 0.038100
0.004051 0.029855 0.004051
0.044791 0.031671 0.005868
0.100768 0.034167 0.008363
0.156162 0.036637 0.010833
0.211181 0.039090 0.013286
0.265923 0.041531 0.015727
0.320444 0.043962 0.018158
0.374784 0.046385 0.020581
0.428967 0.048801 0.022997
0.483015 0.051210 0.025407
0.536943 0.053615 0.027811
0.590763 0.056015 0.030211
0.644485 0.058410 0.032606
0.698117 0.060801 0.034998
0.751667 0.063189 0.037385
0.805141 0.065573 0.039770
0.858543 0.067954 0.042151
0.012447 0.091732 0.012447
0.053187 0.093549 0.014264
0.109165 0.096045 0.016760
0.164559 0.098515 0.019230
0.219578 0.100968 0.021683
0.274319 0.103408 0.024124
0.328841 0.105839 0.026555
0.383180 0.108262 0.028977
0.437364 0.110678 0.031393
0.491412 0.113088 0.033803
0.545339 0.115493 0.036208
0.599159 0.117892 0.038607
0.652881 0.120288 0.041003
0.706514 0.122679 0.043394
0.760064 0.125067 0.045782
0.813537 0.127451 0.048166
0.866939 0.129832 0.050547
0.020756 0.152965 0.020756
0.061496 0.154782 0.022573
0.117473 0.157278 0.025069
0.172868 0.159748 0.027538
0.227887 0.162201 0.029992
0.282628 0.164642 0.032432
0.337150 0.167073 0.034863
0.391489 0.169495 0.037286
0.445673 0.171911 0.039702
0.499721 0.174321 0.042112
0.553648 0.176726 0.044517
0.607468 0.179125 0.046916
0.661190 0.181521 0.049312
0.714823 0.183912 0.051703
0.768372 0.186300 0.054091
0.821846 0.188684 0.056475
0.875248 0.191065 0.058856
0.029009 0.213784 0.029009
0.069749 0.215600 0.030825
0.125726 0.218096 0.033321
0.181120 0.220566 0.035791
0.236139 0.223019 0.038244
0.290881 0.225460 0.040685
0.345402 0.227891 0.043116
0.399741 0.230314 0.045539
0.453925 0.232730 0.047955
0.507973 0.235140 0.050365
0.561901 0.237544 0.052769
0.615721 0.239944 0.055169
0.669443 0.242339 0.057564
0.723075 0.244730 0.059955
0.776625 0.247118 0.062343
0.830098 0.249502 0.064727
0.883500 0.251883 0.067108
0.037220 0.274295 0.037220
0.077960 0.276112 0.039036
0.133937 0.278608 0.041532
0.189331 0.281078 0.044002
0.244350 0.283531 0.046455
0.299092 0.285972 0.048896
0.353613 0.288403 0.051327
0.407952 0.290825 0.053750
0.462136 0.293241 0.056166
0.516184 0.295651 0.058576
0.570112 0.298056 0.060980
0.623932 0.300455 0.063380
0.677654 0.302851 0.065775
0.731286 0.305242 0.068166
0.784836 0.307630 0.070554
0.838309 0.310014 0.072938
0.891711 0.312395 0.075319
0.045398 0.334564 0.045398
0.086138 0.336380 0.047214
0.142115 0.338876 0.049710
0.197509 0.341346 0.052180
0.252528 0.343799 0.054633
0.307270 0.346240 0.057074
0.361791 0.348671 0.059505
0.416130 0.351094 0.061928
0.470314 0.353510 0.064344
0.524362 0.355920 0.066753
0.578290 0.358324 0.069158
0.632110 0.360724 0.071558
0.685832 0.363119 0.073953
0.739464 0.365511 0.076344
0.793014 0.367898 0.078732
0.846487 0.370282 0.081116
0.899889 0.372664 0.083497
0.053548 0.394631 0.053548
0.094288 0.396447 0.055365
0.150266 0.398943 0.057861
0.205660 0.401413 0.060331
0.260679 0.403866 0.062784
0.315420 0.406307 0.065225
0.369942 0.408738 0.067655
0.424281 0.411161 0.070078
0.478465 0.413577 0.072494
0.532513 0.415987 0.074904
0.586440 0.418391 0.077309
0.640260 0.420791 0.079708
0.693982 0.423186 0.082104
0.747615 0.425578 0.084495
0.801165 0.427965 0.086883
0.854638 0.430349 0.089267
0.908040 0.432731 0.091648
0.061676 0.454526 0.061676
0.102416 0.456342 0.063492
0.158393 0.458838 0.065988
0.213787 0.461308 0.068458
0.268806 0.463761 0.070911
0.323547 0.466202 0.073352
0.378069 0.468633 0.075783
0.432408 0.471056 0.078206
0.486592 0.473472 0.080622
0.540640 0.475882 0.083031
0.594568 0.478286 0.085436
0.648388 0.480686 0.087836
0.702110 0.483081 0.090231
0.755742 0.485473 0.092622
0.809292 0.487860 0.095010
0.862765 0.490245 0.097394
0.916167 0.492626 0.099775
0.069783 0.514271 0.069783
0.110523 0.516088 0.071599
0.166500 0.518583 0.074095
0.221894 0.521053 0.076565
0.276913 0.523506 0.079018
0.331654 0.525947 0.081459
0.386176 0.528378 0.083890
0.440515 0.530801 0.086313
0.494699 0.533217 0.088728
0.548747 0.535627 0.091138
0.602675 0.538031 0.093543
0.656495 0.540431 0.095943
0.710216 0.542826 0.098338
0.763849 0.545218 0.100729
0.817399 0.547605 0.103117
0.870872 0.549990 0.105501
0.924274 0.552371 0.107882
0.077871 0.573883 0.077871
0.118612 0.575700 0.079688
0.174589 0.578196 0.082184
0.229983 0.580666 0.084654
0.285002 0.583119 0.087107
0.339743 0.585559 0.089548
0.394265 0.587990 0.091979
0.448604 0.590413 0.094401
0.502788 0.592829 0.096817
0.556836 0.595239 0.099227
0.610764 0.597644 0.101632
0.664583 0.600043 0.104031
0.718305 0.602439 0.106427
0.771938 0.604830 0.108818
0.825488 0.607218 0.111206
0.878961 0.609602 0.113590
0.932363 0.611983 0.115971
0.085944 0.633376 0.085944
0.126684 0.635193 0.087761
0.182661 0.637689 0.090257
0.238056 0.640158 0.092726
0.293075 0.642612 0.095180
0.347816 0.645052 0.097620
0.402338 0.647483 0.100051
0.456677 0.649906 0.102474
0.510860 0.652322 0.104890
0.564908 0.654732 0.107300
0.618836 0.657136 0.109704
0.672656 0.659536 0.112104
0.726378 0.661931 0.114499
0.780011 0.664323 0.116891
0.833560 0.666710 0.119278
0.887034 0.669095 0.121663
0.940436 0.671476 0.124044
0.094002 0.692761 0.094002
0.134742 0.694577 0.095819
0.190719 0.697073 0.098315
0.246114 0.699543 0.100784
0.301133 0.701996 0.103238
0.355874 0.704437 0.105678
0.410396 0.706868 0.108109
0.464735 0.709291 0.110532
0.518919 0.711707 0.112948
0.572967 0.714117 0.115358
0.626894 0.716521 0.117762
0.680714 0.718921 0.120162
0.734436 0.721316 0.122558
0.788069 0.723707 0.124949
0.841618 0.726095 0.127337
0.895092 0.728479 0.129721
0.948494 0.730860 0.132102
0.102047 0.752046 0.102047
0.142787 0.753863 0.103863
0.198764 0.756359 0.106359
0.254158 0.758829 0.108829
0.309177 0.761282 0.111282
0.363919 0.763723 0.113723
0.418440 0.766154 0.116154
0.472779 0.768577 0.118577
0.526963 0.770992 0.120993
0.581011 0.773402 0.123403
0.634939 0.775807 0.125807
0.688759 0.778206 0.128207
0.742481 0.780602 0.130602
0.796113 0.782993 0.132993
0.849663 0.785381 0.135381
0.903136 0.787765 0.137765
0.956538 0.790146 0.140146
0.110079 0.811241 0.110079
0.150819 0.813057 0.111895
0.206796 0.815553 0.114391
0.262190 0.818023 0.116861
0.317209 0.820476 0.119314
0.371951 0.822917 0.121755
0.426472 0.825348 0.124186
0.480812 0.827771 0.126609
0.534995 0.830187 0.129025
0.589043 0.832597 0.131435
0.642971 0.835001 0.133839
0.696791 0.837401 0.136239
0.750513 0.839796 0.138634
0.804145 0.842188 0.141026
0.857695 0.844575 0.143413
0.911169 0.846959 0.145798
0.964571 0.849341 0.148179
0.118100 0.870351 0.118100
0.158840 0.872167 0.119916
0.214817 0.874663 0.122412
0.270211 0.877133 0.124882
0.325230 0.879586 0.127335
0.379972 0.882027 0.129776
0.434493 0.884458 0.132207
0.488832 0.886881 0.134630
0.543016 0.889297 0.137046
0.597064 0.891707 0.139456
0.650992 0.894111 0.141860
0.704812 0.896511 0.144260
0.758534 0.898906 0.146655
0.812166 0.901297 0.149046
0.865716 0.903685 0.151434
0.919189 0.906069 0.153818
0.972591 0.908450 0.156199
0.126110 0.929382 0.126110
0.166850 0.931198 0.127926
0.222827 0.933694 0.130422
0.278221 0.936164 0.132892
0.333240 0.938617 0.135345
0.387982 0.941058 0.137786
0.442503 0.943489 0.140217
0.496842 0.945912 0.142640
0.551026 0.948328 0.145056
0.605074 0.950738 0.147466
0.659002 0.953142 0.149870
0.712822 0.955542 0.152270
0.766544 0.957937 0.154665
0.820176 0.960328 0.157056
0.873726 0.962716 0.159444
0.927199 0.965100 0.161828
0.980601 0.967481 0.164209
0.000227 0.000227 0.014551
0.040967 0.002044 0.016367
0.096944 0.004539 0.018863
0.152338 0.007009 0.021333
0.207357 0.009462 0.023786
0.262099 0.011903 0.026227
0.316620 0.014334 0.028658
0.370960 0.016757 0.031081
0.425143 0.019173 0.033497
0.479191 0.021583 0.035906
0.533119 0.023987 0.038311
0.586939 0.026387 0.040711
0.640661 0.028782 0.043106
0.694293 0.031174 0.045497
0.747843 0.033561 0.047885
0.801317 0.035946 0.050269
0.854719 0.038327 0.052650
0.004278 0.030082 0.018602
0.045018 0.031898 0.020418
0.100995 0.034394 0.022914
0.156389 0.036864 0.025384
0.211408 0.039317 0.027837
0.266150 0.041758 0.030278
0.320671 0.044189 0.032709
0.375011 0.046612 0.035132
0.429194 0.049028 0.037548
0.483242 0.051437 0.039957
0.537170 0.053842 0.042362
0.590990 0.056242 0.044762
0.644712 0.058637 0.047157
0.698344 0.061028 0.049548
0.751894 0.063416 0.051936
0.805368 0.065800 0.054320
0.858770 0.068181 0.056701
0.012674 0.091959 0.026998
0.053414 0.093776 0.028814
0.109392 0.096272 0.031310
0.164786 0.098742 0.033780
0.219805 0.101195 0.036233
0.274546 0.103635 0.038674
0.329068 0.106066 0.041105
0.383407 0.108489 0.043528
0.437591 0.110905 0.045944
0.491639 0.113315 0.048354
0.545566 0.115720 0.050758
0.599386 0.118119 0.053158
0.653108 0.120515 0.055553
0.706741 0.122906 0.057945
0.760291 0.125294 0.060332
0.813764 0.127678 0.062717
0.867166 0.130059 0.065098
0.020983 0.153192 0.035307
0.061723 0.155009 0.037123
0.117700 0.157505 0.039619
0.173095 0.159975 0.042089
0.228114 0.162428 0.044542
0.282855 0.164869 0.046983
0.337377 0.167300 0.049414
0.391716 0.169722 0.051837
0.445900 0.172138 0.054253
0.499948 0.174548 0.056663
0.553875 0.176953 0.059067
0.607695 0.179352 0.061467
0.661417 0.181748 0.063862
0.715050 0.184139 0.066253
0.768599 0.186527 0.068641
0.822073 0.188911 0.071025
0.875475 0.191292 0.073406
0.029236 0.214011 0.043559
0.069976 0.215827 0.045376
0.125953 0.218323 0.047872
0.181347 0.220793 0.050342
0.236366 0.223246 0.052795
0.291108 0.225687 0.055236
0.345629 0.228118 0.057667
0.399968 0.230541 0.060089
0.454152 0.232957 0.062505
0.508200 0.235367 0.064915
0.562128 0.237771 0.067320
0.615948 0.240171 0.069719
0.669670 0.242566 0.072115
0.723302 0.244957 0.074506
0.776852 0.247345 0.076894
0.830325 0.249729 0.079278
0.883727 0.252110 0.081659
0.037447 0.274522 0.051770
0.078187 0.276339 0.053587
0.134164 0.278835 0.056083
0.189558 0.281305 0.058553
0.244577 0.283758 0.061006
0.299319 0.286199 0.063447
0.353840 0.288630 0.065878
0.408179 0.291052 0.068300
0.462363 0.293468 0.070716
0.516411 0.295878 0.073126
0.570339 0.298283 0.075531
0.624159 0.300682 0.077930
0.677881 0.303078 0.080326
0.731513 0.305469 0.082717
0.785063 0.307857 0.085105
0.838536 0.310241 0.087489
0.891938 0.312622 0.089870
0.045625 0.334791 0.059948
0.086365 0.336607 0.061765
0.142342 0.339103 0.064261
0.197736 0.341573 0.066731
0.252755 0.344026 0.069184
0.307497 0.346467 0.071624
0.362018 0.348898 0.074055
0.416357 0.351321 0.076478
0.470541 0.353737 0.078894
0.524589 0.356147 0.081304
0.578517 0.358551 0.083709
0.632337 0.360951 0.086108
0.686059 0.363346 0.088504
0.739691 0.365738 0.090895
0.793241 0.368125 0.093283
0.846714 0.370510 0.095667
0.900116 0.372891 0.098048
0.053775 0.394858 0.068099
0.094515 0.396674 0.069915
0.150493 0.399170 0.072411
0.205887 0.401640 0.074881
0.260906 0.404093 0.077334
0.315647 0.406534 0.079775
0.370169 0.408965 0.082206
0.424508 0.411388 0.084629
0.478692 0.413804 0.087045
0.532740 0.416214 0.089455
0.586667 0.418618 0.091859
0.640487 0.421018 0.094259
0.694209 0.423413 0.096654
0.747842 0.425805 0.099046
0.801392 0.428192 0.101433
0.854865 0.430577 0.103817
0.908267 0.432958 0.106199
0.061903 0.454753 0.076226
0.102643 0.456569 0.078043
0.158620 0.459065 0.080539
0.214014 0.461535 0.083008
0.269033 0.463988 0.085462
0.323775 0.466429 0.087902
0.378296 0.468860 0.090333
0.432635 0.471283 0.092756
0.486819 0.473699 0.095172
0.540867 0.476109 0.097582
0.594795 0.478513 0.099987
0.648615 0.480913 0.102386
0.702337 0.483308 0.104782
0.755969 0.485700 0.107173
0.809519 0.488087 0.109561
0.862992 0.490472 0.111945
0.916394 0.492853 0.114326
0.070010 0.514498 0.084333
0.110750 0.516315 0.086150
0.166727 0.518810 0.088646
0.222121 0.521280 0.091115
0.277140 0.523733 0.093569
0.331881 0.526174 0.096009
0.386403 0.528605 0.098440
0.440742 0.531028 0.100863
0.494926 0.533444 0.103279
0.548974 0.535854 0.105689
0.602902 0.538258 0.108093
0.656722 0.540658 0.110493
0.710444 0.543053 0.112888
0.764076 0.545445 0.115280
0.817626 0.547832 0.117667
0.871099 0.550217 0.120052
0.924501 0.552598 0.122433
0.078098 0.574110 0.092422
0.118839 0.575927 0.094239
0.174816 0.578423 0.096734
0.230210 0.580893 0.099204
0.285229 0.583346 0.101657
0.339970 0.585786 0.104098
0.394492 0.588217 0.106529
0.448831 0.590640 0.108952
0.503015 0.593056 0.111368
0.557063 0.595466 0.113778
0.610991 0.597871 0.116182
0.664810 0.600270 0.118582
0.718532 0.602666 0.120977
0.772165 0.605057 0.123369
0.825715 0.607445 0.125756
0.879188 0.609829 0.128141
0.932590 0.612210 0.130522
0.086171 0.633603 0.100495
0.126911 0.635420 0.102311
0.182888 0.637916 0.104807
0.238283 0.640385 0.107277
0.293302 0.642839 0.109730
0.348043 0.645279 0.112171
0.402565 0.647710 0.114602
0.456904 0.650133 0.117025
0.511087 0.652549 0.119441
0.565136 0.654959 0.121851
0.619063 0.657363 0.124255
0.672883 0.659763 0.126655
0.726605 0.662158 0.129050
0.780238 0.664550 0.131441
0.833787 0.666937 0.133829
0.887261 0.669322 0.136213
0.940663 0.671703 0.138594
0.094229 0.692988 0.108553
0.134969 0.694804 0.110369
0.190946 0.697300 0.112865
0.246341 0.699770 0.115335
0.301360 0.702223 0.117788
0.356101 0.704664 0.120229
0.410623 0.707095 0.122660
0.464962 0.709518 0.125083
0.519146 0.711934 0.127499
0.573194 0.714344 0.129909
0.627121 0.716748 0.132313
0.680941 0.719148 0.134713
0.734663 0.721543 0.137108
0.788296 0.723934 0.139499
0.841845 0.726322 0.141887
0.895319 0.728706 0.144271
0.948721 0.731087 0.146652
0.102274 0.752273 0.116597
0.143014 0.754090 0.118414
0.198991 0.756586 0.120910
0.254385 0.759056 0.123380
0.309404 0.761509 0.125833
0.364146 0.763950 0.128274
0.418667 0.766381 0.130705
0.473006 0.768804 0.133127
0.527190 0.771219 0.135543
0.581238 0.773629 0.137953
0.635166 0.776034 0.140358
0.688986 0.778433 0.142757
0.742708 0.780829 0.145153
0.796340 0.783220 0.147544
0.849890 0.785608 0.149932
0.903363 0.787992 0.152316
0.956765 0.790373 0.154697
0.110306 0.811468 0.124630
0.151046 0.813284 0.126446
0.207023 0.815780 0.128942
0.262417 0.818250 0.131412
0.317436 0.820703 0.133865
0.372178 0.823144 0.136306
0.426699 0.825575 0.138737
0.481039 0.827998 0.141160
0.535222 0.830414 0.143576
0.589270 0.832824 0.145985
0.643198 0.835228 0.148390
0.697018 0.837628 0.150790
0.750740 0.840023 0.153185
0.804372 0.842415 0.155576
0.857922 0.844802 0.157964
0.911396 0.847186 0.160348
0.964798 0.849568 0.162729
0.118327 0.870578 0.132650
0.159067 0.872394 0.134467
0.215044 0.874890 0.136963
0.270438 0.877360 0.139433
0.325457 0.879813 0.141886
0.380199 0.882254 0.144327
0.434720 0.884685 0.146758
0.489059 0.887108 0.149180
0.543243 0.889524 0.151596
0.597291 0.891934 0.154006
0.651219 0.894338 0.156411
0.705039 0.896738 0.158810
0.758761 0.899133 0.161206
0.812393 0.901524 0.163597
0.865943 0.903912 0.165985
0.919416 0.906296 0.168369
0.972818 0.908677 0.170750
0.126337 0.929609 0.140660
0.167077 0.931425 0.142477
0.223054 0.933921 0.144973
0.278448 0.936391 0.147443
0.333467 0.938844 0.149896
0.388209 0.941285 0.152337
0.442730 0.943716 0.154768
0.497069 0.946139 0.157190
0.551253 0.948555 0.159606
0.605301 0.950965 0.162016
0.659229 0.953369 0.164421
0.713049 0.955769 0.166820
0.766771 0.958164 0.169216
0.820403 0.960555 0.171607
0.873953 0.962943 0.173995
0.927426 0.965327 0.176379
0.980828 0.967708 0.178760
0.001075 0.001075 0.068880
0.041815 0.002891 0.070696
0.097792 0.005387 0.073192
0.153186 0.007857 0.075662
0.208205 0.010310 0.078115
0.262947 0.012751 0.080556
0.317468 0.015182 0.082987
0.371807 0.017605 0.085410
0.425991 0.020021 0.087825
0.480039 0.022430 0.090235
0.533967 0.024835 0.092640
0.587787 0.027235 0.095040
0.641509 0.029630 0.097435
0.695141 0.032021 0.099826
0.748691 0.034409 0.102214
0.802164 0.036793 0.104598
0.855566 0.039174 0.106979
0.005126 0.030929 0.072931
0.045866 0.032746 0.074747
0.101843 0.035242 0.077243
0.157237 0.037712 0.079713
0.212256 0.040165 0.082166
0.266998 0.042605 0.084607
0.321519 0.045036 0.087038
0.375858 0.047459 0.089461
0.430042 0.049875 0.091877
0.484090 0.052285 0.094286
0.538018 0.054690 0.096691
0.591838 0.057089 0.099091
0.645560 0.059485 0.101486
0.699192 0.061876 0.103877
0.752742 0.064264 0.106265
0.806215 0.066648 0.108649
0.859617 0.069029 0.111030
0.013522 0.092807 0.081327
0.054262 0.094623 0.083143
0.110239 0.097119 0.085639
0.165633 0.099589 0.088109
0.220652 0.102042 0.090562
0.275394 0.104483 0.093003
0.329915 0.106914 0.095434
0.384255 0.109337 0.097857
0.438438 0.111753 0.100273
0.492486 0.114163 0.102683
0.546414 0.116567 0.105087
0.600234 0.118967 0.107487
0.653956 0.121362 0.109882
0.707588 0.123754 0.112274
0.761138 0.126141 0.114661
0.814612 0.128525 0.117045
0.868014 0.130906 0.119426
0.021831 0.154040 0.089636
0.062571 0.155857 0.091452
0.118548 0.158352 0.093948
0.173942 0.160822 0.096418
0.228961 0.163275 0.098871
0.283703 0.165716 0.101312
0.338224 0.168147 0.103743
0.392563 0.170570 0.106166
0.446747 0.172986 0.108582
0.500795 0.175396 0.110992
0.554723 0.177800 0.113396
0.608543 0.180200 0.115796
0.662265 0.182595 0.118191
0.715897 0.184987 0.120582
0.769447 0.187374 0.122970
0.822920 0.189759 0.125354
0.876322 0.192140 0.127735
0.030083 0.214858 0.097888
0.070823 0.216675 0.099705
0.126801 0.219171 0.102201
0.182195 0.221641 0.104671
0.237214 0.224094 0.107124
0.291955 0.226535 0.109564
0.346477 0.228966 0.111995
0.400816 0.231388 0.114418
0.455000 0.233804 0.116834
0.509048 0.236214 0.119244
0.562976 0.238619 0.121649
0.616795 0.241018 0.124048
0.670517 0.243414 0.126444
0.724150 0.245805 0.128835
0.777700 0.248193 0.131223
0.831173 0.250577 0.133607
0.884575 0.252958 0.135988
0.038294 0.275370 0.106099
0.079034 0.277187 0.107916
0.135012 0.279682 0.110412
0.190406 0.282152 0.112882
0.245425 0.284605 0.115335
0.300166 0.287046 0.117775
0.354688 0.289477 0.120206
0.409027 0.291900 0.122629
0.463211 0.294316 0.125045
0.517259 0.296726 0.127455
0.571186 0.299130 0.129860
0.625006 0.301530 0.132259
0.678728 0.303925 0.134655
0.732361 0.306317 0.137046
0.785911 0.308704 0.139434
0.839384 0.311089 0.141818
0.892786 0.313470 0.144199
0.046472 0.335639 0.114277
0.087212 0.337455 0.116094
0.143190 0.339951 0.118590
0.198584 0.342421 0.121059
0.253603 0.344874 0.123513
0.308344 0.347315 0.125953
0.362866 0.349746 0.128384
0.417205 0.352169 0.130807
0.471389 0.354585 0.133223
0.525437 0.356994 0.135633
0.579364 0.359399 0.138038
0.633184 0.361799 0.140437
0.686906 0.364194 0.142833
0.740539 0.366585 0.145224
0.794089 0.368973 0.147612
0.847562 0.371357 0.149996
0.900964 0.373738 0.152377
0.054623 0.395706 0.122428
0.095363 0.397522 0.124244
0.151340 0.400018 0.126740
0.206734 0.402488 0.129210
0.261753 0.404941 0.131663
0.316495 0.407382 0.134104
0.371016 0.409813 0.136535
0.425356 0.412236 0.138958
0.479539 0.414652 0.141374
0.533587 0.417061 0.143784
0.587515 0.419466 0.146188
0.641335 0.421866 0.148588
0.695057 0.424261 0.150983
0.748689 0.426652 0.153375
0.802239 0.429040 0.155762
0.855713 0.431424 0.158146
0.909115 0.433805 0.160527
0.062750 0.455601 0.130555
0.103490 0.457417 0.132372
0.159467 0.459913 0.134867
0.214862 0.462383 0.137337
0.269881 0.464836 0.139791
0.324622 0.467277 0.142231
0.379144 0.469708 0.144662
0.433483 0.472131 0.147085
0.487667 0.474547 0.149501
0.541715 0.476956 0.151911
0.595642 0.479361 0.154315
0.649462 0.481761 0.156715
0.703184 0.484156 0.159110
0.756817 0.486547 0.161502
0.810366 0.488935 0.163889
0.863840 0.491319 0.166274
0.917242 0.493700 0.168655
0.070857 0.515346 0.138662
0.111597 0.517162 0.140479
0.167574 0.519658 0.142974
0.222969 0.522128 0.145444
0.277988 0.524581 0.147897
0.332729 0.527022 0.150338
0.387251 0.529453 0.152769
0.441590 0.531876 0.155192
0.495773 0.534292 0.157608
0.549821 0.536701 0.160018
0.603749 0.539106 0.162422
0.657569 0.541506 0.164822
0.711291 0.543901 0.167217
0.764924 0.546292 0.169609
0.818473 0.548680 0.171996
0.871947 0.551064 0.174381
0.925349 0.553445 0.176762
0.078946 0.574958 0.146751
0.119686 0.576774 0.148567
0.175663 0.579270 0.151063
0.231058 0.581740 0.153533
0.286076 0.584193 0.155986
0.340818 0.586634 0.158427
0.395339 0.589065 0.160858
0.449679 0.591488 0.163281
0.503862 0.593904 0.165697
0.557910 0.596314 0.168107
0.611838 0.598718 0.170511
0.665658 0.601118 0.172911
0.719380 0.603513 0.175306
0.773012 0.605905 0.177698
0.826562 0.608292 0.180085
0.880036 0.610676 0.182470
0.933438 0.613058 0.184851
0.087019 0.634451 0.154824
0.127759 0.636267 0.156640
0.183736 0.638763 0.159136
0.239130 0.641233 0.161606
0.294149 0.643686 0.164059
0.348891 0.646127 0.166500
0.403412 0.648558 0.168931
0.457751 0.650981 0.171354
0.511935 0.653397 0.173770
0.565983 0.655807 0.176179
0.619911 0.658211 0.178584
0.673731 0.660611 0.180984
0.727453 0.663006 0.183379
0.781085 0.665397 0.185770
0.834635 0.667785 0.188158
0.888108 0.670169 0.190542
0.941510 0.672550 0.192923
0.095077 0.693835 0.162882
0.135817 0.695652 0.164698
0.191794 0.698148 0.167194
0.247188 0.700618 0.169664
0.302207 0.703071 0.172117
0.356949 0.705512 0.174558
0.411470 0.707943 0.176989
0.465809 0.710365 0.179412
0.519993 0.712781 0.181828
0.574041 0.715191 0.184238
0.627969 0.717596 0.186642
0.681789 0.719995 0.189042
0.735511 0.722391 0.191437
0.789143 0.724782 0.193828
0.842693 0.727170 0.196216
0.896166 0.729554 0.198600
0.949568 0.731935 0.200981
0.103121 0.753121 0.170926
0.143861 0.754938 0.172743
0.199839 0.757433 0.175239
0.255233 0.759903 0.177709
0.310252 0.762357 0.180162
0.364993 0.764797 0.182603
0.419515 0.767228 0.185033
0.473854 0.769651 0.187456
0.528038 0.772067 0.189872
0.582086 0.774477 0.192282
0.636014 0.776881 0.194687
0.689833 0.779281 0.197086
0.743555 0.781676 0.199482
0.797188 0.784068 0.201873
0.850738 0.786455 0.204261
0.904211 0.788840 0.206645
0.957613 0.791221 0.209026
0.111154 0.812316 0.178959
0.151894 0.814132 0.180775
0.207871 0.816628 0.183271
0.263265 0.819098 0.185741
0.318284 0.821551 0.188194
0.373026 0.823992 0.190635
0.427547 0.826423 0.193066
0.481886 0.828846 0.195489
0.536070 0.831261 0.197904
0.590118 0.833671 0.200314
0.644046 0.836076 0.202719
0.697866 0.838476 0.205119
0.751588 0.840871 0.207514
0.805220 0.843262 0.209905
0.858770 0.845650 0.212293
0.912243 0.848034 0.214677
0.965645 0.850415 0.217058
0.119174 0.871425 0.186979
0.159914 0.873242 0.188796
0.215892 0.875738 0.191292
0.271286 0.878208 0.193762
0.326305 0.880661 0.196215
0.381046 0.883102 0.198655
0.435568 0.885533 0.201086
0.489907 0.887955 0.203509
0.544091 0.890371 0.205925
0.598139 0.892781 0.208335
0.652067 0.895186 0.210740
0.705886 0.897585 0.213139
0.759608 0.899981 0.215535
0.813241 0.902372 0.217926
0.866791 0.904760 0.220314
0.920264 0.907144 0.222698
0.973666 0.909525 0.225079
0.127184 0.930456 0.194989
0.167924 0.932273 0.196806
0.223902 0.934769 0.199302
0.279296 0.937239 0.201772
0.334315 0.939692 0.204225
0.389056 0.942133 0.206666
0.443578 0.944564 0.209096
0.497917 0.946986 0.211519
0.552101 0.949402 0.213935
0.606149 0.951812 0.216345
0.660077 0.954217 0.218750
0.713896 0.956616 0.221149
0.767618 0.959012 0.223545
0.821251 0.961403 0.225936
0.874801 0.963791 0.228324
0.928274 0.966175 0.230708
0.981676 0.968556 0.233089
0.001913 0.001913 0.122643
0.042653 0.003730 0.124459
0.098631 0.006226 0.126955
0.154025 0.008696 0.129425
0.209044 0.011149 0.131878
0.263785 0.013590 0.134319
0.318307 0.016021 0.136750
0.372646 0.018443 0.139173
0.426830 0.020859 0.141589
0.480878 0.023269 0.143998
0.534806 0.025674 0.146403
0.588625 0.028073 0.148803
0.642347 0.030469 0.151198
0.695980 0.032860 0.153589
0.749530 0.035248 0.155977
0.803003 0.037632 0.158361
0.856405 0.040013 0.160742
