installer/msi/cep-src/luts/jack_rottier_cinematic.cube
TITLE "FlagshipEditor original preset: jack_rottier_cinematic.cube"
LUT_3D_SIZE 5
DOMAIN_MIN 0.0 0.0 0.0
DOMAIN_MAX 1.0 1.0 1.0
0.000000 0.000000 0.000000
0.207130 0.009235 0.009235
0.424916 0.018946 0.018946
0.640434 0.028555 0.028555
0.854492 0.038100 0.038100
0.029009 0.213784 0.029009
0.236139 0.223019 0.038244
0.453925 0.232730 0.047955
0.669443 0.242339 0.057564
0.883500 0.251883 0.067108
0.061676 0.454526 0.061676
0.268806 0.463761 0.070911
0.486592 0.473472 0.080622
0.702110 0.483081 0.090231
0.916167 0.492626 0.099775
0.094002 0.692761 0.094002
0.301133 0.701996 0.103238
0.518919 0.711707 0.112948
0.734436 0.721316 0.122558
0.948494 0.730860 0.132102
0.126110 0.929382 0.126110
0.333240 0.938617 0.135345
0.551026 0.948328 0.145056
0.766544 0.957937 0.154665
0.980601 0.967481 0.164209
0.002747 0.002747 0.176041
0.209877 0.011982 0.185277
0.427663 0.021692 0.194987
0.643180 0.031302 0.204597
0.857238 0.040846 0.214141
0.031755 0.216530 0.205050
0.238886 0.225766 0.214286
0.456672 0.235476 0.223996
0.672189 0.245086 0.233606
0.886247 0.254630 0.243150
0.064422 0.457272 0.237717
0.271552 0.466508 0.246952
0.489338 0.476218 0.256663
0.704856 0.485828 0.266272
0.918914 0.495372 0.275817
0.096749 0.695507 0.270044
0.303879 0.704743 0.279279
0.521665 0.714453 0.288990
0.737183 0.724063 0.298599
0.951240 0.733607 0.308143
0.128856 0.932128 0.302151
0.335987 0.941364 0.311387
0.553773 0.951074 0.321097
0.769290 0.960684 0.330707
0.983348 0.970228 0.340251
0.006044 0.006044 0.387415
0.213175 0.015280 0.396650
0.430961 0.024990 0.406361
0.646478 0.034600 0.415970
0.860536 0.044144 0.425514
0.035053 0.219828 0.416423
0.242183 0.229063 0.425659
0.459969 0.238774 0.435369
0.675487 0.248383 0.444979
0.889545 0.257928 0.454523
0.067720 0.460570 0.449090
0.274850 0.469806 0.458326
0.492636 0.479516 0.468036
0.708154 0.489126 0.477646
0.922211 0.498670 0.487190
0.100046 0.698805 0.481417
0.307177 0.708040 0.490652
0.524963 0.717751 0.500363
0.740480 0.727360 0.509972
0.954538 0.736905 0.519516
0.132154 0.935426 0.513524
0.339284 0.944661 0.522760
0.557070 0.954372 0.532470
0.772588 0.963981 0.542080
0.986646 0.973526 0.551624
0.009308 0.009308 0.596586
0.216438 0.018543 0.605822
0.434224 0.028254 0.615532
0.649742 0.037863 0.625142
0.863799 0.047407 0.634686
0.038316 0.223091 0.625595
0.245447 0.232327 0.634830
0.463233 0.242037 0.644541
0.678750 0.251647 0.654150
0.892808 0.261191 0.663695
0.070983 0.463834 0.658262
0.278114 0.473069 0.667497
0.495900 0.482780 0.677208
0.711417 0.492389 0.686817
0.925475 0.501933 0.696361
0.103310 0.702068 0.690588
0.310440 0.711304 0.699824
0.528226 0.721014 0.709534
0.743744 0.730624 0.719144
0.957801 0.740168 0.728688
0.135417 0.938689 0.722696
0.342548 0.947925 0.731931
0.560334 0.957635 0.741642
0.775851 0.967245 0.751251
0.989909 0.976789 0.760796
0.012549 0.012549 0.804341
0.219679 0.021784 0.813576
0.437465 0.031495 0.823287
0.652983 0.041104 0.832896
0.867041 0.050649 0.842441
0.041558 0.226333 0.833350
0.248688 0.235568 0.842585
0.466474 0.245279 0.852296
0.681992 0.254888 0.861905
0.896049 0.264432 0.871449
0.074225 0.467075 0.866017
0.281355 0.476310 0.875252
0.499141 0.486021 0.884962
0.714658 0.495630 0.894572
0.928716 0.505175 0.904116
0.106551 0.705310 0.898343
0.313681 0.714545 0.907579
0.531467 0.724256 0.917289
0.746985 0.733865 0.926898
0.961043 0.743409 0.936443
0.138659 0.941931 0.930451
0.345789 0.951166 0.939686
0.563575 0.960877 0.949397
0.779093 0.970486 0.959006
0.993150 0.980030 0.968550
