installer/msi/cep-src/luts/lyrical_lemonade_neon.cube
TITLE "FlagshipEditor original preset: lyrical_lemonade_neon.cube"
LUT_3D_SIZE 5
DOMAIN_MIN 0.0 0.0 0.0
DOMAIN_MAX 1.0 1.0 1.0
0.000000 0.000000 0.000000
0.309949 0.000000 0.000000
0.653378 0.000000 0.000000
0.986177 0.000000 0.000000
1.000000 0.000000 0.000000
0.000000 0.248858 0.000000
0.273102 0.236502 0.000000
0.616530 0.222810 0.000000
0.949329 0.209543 0.000000
1.000000 0.202086 0.000000
0.000000 0.559920 0.000000
0.227044 0.547564 0.000000
0.570472 0.533872 0.000000
0.903271 0.520605 0.000000
1.000000 0.513148 0.000000
0.000000 0.861354 0.000000
0.182411 0.848998 0.000000
0.525840 0.835306 0.000000
0.858639 0.822039 0.000000
1.000000 0.814582 0.000000
0.000000 1.000000 0.000000
0.152605 1.000000 0.000000
0.496034 1.000000 0.000000
0.828833 1.000000 0.000000
1.000000 1.000000 0.000000
0.000000 0.000000 0.325334
0.305658 0.000000 0.312978
0.649086 0.000000 0.299286
0.981885 0.000000 0.286019
1.000000 0.000000 0.278562
0.000000 0.244566 0.288486
0.268810 0.232210 0.276130
0.612239 0.218519 0.262439
0.945038 0.205251 0.249171
1.000000 0.197794 0.241714
0.000000 0.555628 0.242429
0.222752 0.543272 0.230072
0.566181 0.529581 0.216381
0.898980 0.516313 0.203114
1.000000 0.508856 0.195657
0.000000 0.857062 0.197796
0.178120 0.844706 0.185440
0.521548 0.831015 0.171749
0.854347 0.817747 0.158481
1.000000 0.810290 0.151024
0.000000 1.000000 0.167990
0.148314 1.000000 0.155634
0.491742 1.000000 0.141942
0.824541 1.000000 0.128675
1.000000 1.000000 0.121218
0.000000 0.000000 0.677804
0.301008 0.000000 0.665448
0.644437 0.000000 0.651757
0.977236 0.000000 0.638489
1.000000 0.000000 0.631032
0.000000 0.239917 0.640957
0.264160 0.227560 0.628600
0.607589 0.213869 0.614909
0.940388 0.200602 0.601642
1.000000 0.193145 0.594185
0.000000 0.550979 0.594899
0.218103 0.538622 0.582542
0.561531 0.524931 0.568851
0.894330 0.511664 0.555584
1.000000 0.504207 0.548127
0.000000 0.852413 0.550266
0.173470 0.840056 0.537910
0.516899 0.826365 0.524219
0.849698 0.813098 0.510951
1.000000 0.805641 0.503494
0.000000 1.000000 0.520460
0.143664 1.000000 0.508104
0.487093 1.000000 0.494413
0.819892 1.000000 0.481145
1.000000 1.000000 0.473688
0.000000 0.000000 1.000000
0.296502 0.000000 1.000000
0.639931 0.000000 0.993317
0.972730 0.000000 0.980050
1.000000 0.000000 0.972593
0.000000 0.235411 0.982517
0.259655 0.223055 0.970161
0.603083 0.209364 0.956470
0.935882 0.196096 0.943202
1.000000 0.188639 0.935745
0.000000 0.546473 0.936459
0.213597 0.534117 0.924103
0.557026 0.520426 0.910412
0.889824 0.507158 0.897144
1.000000 0.499701 0.889687
0.000000 0.847907 0.891827
0.168964 0.835551 0.879471
0.512393 0.821860 0.865780
0.845192 0.808592 0.852512
1.000000 0.801135 0.845055
0.000000 1.000000 0.862021
0.139158 1.000000 0.849665
0.482587 1.000000 0.835973
0.815386 1.000000 0.822706
1.000000 1.000000 0.815249
0.000000 0.000000 1.000000
0.294065 0.000000 1.000000
0.637494 0.000000 1.000000
0.970293 0.000000 1.000000
1.000000 0.000000 1.000000
0.000000 0.232974 1.000000
0.257218 0.220618 1.000000
0.600646 0.206926 1.000000
0.933445 0.193659 1.000000
1.000000 0.186202 1.000000
0.000000 0.544036 1.000000
0.211160 0.531680 1.000000
0.554588 0.517988 1.000000
0.887387 0.504721 1.000000
1.000000 0.497264 1.000000
0.000000 0.845470 1.000000
0.166527 0.833114 1.000000
0.509956 0.819422 1.000000
0.842755 0.806155 1.000000
1.000000 0.798698 1.000000
0.000000 1.000000 1.000000
0.136721 1.000000 1.000000
0.480150 1.000000 1.000000
0.812949 1.000000 1.000000
1.000000 1.000000 1.000000
