installer/msi/cep-src/luts/lyrical_lemonade_neon.cube
TITLE "FlagshipEditor original preset: lyrical_lemonade_neon.cube"
LUT_3D_SIZE 9
DOMAIN_MIN 0.0 0.0 0.0
DOMAIN_MAX 1.0 1.0 1.0
0.000000 0.000000 0.000000
0.130943 0.000000 0.000000
0.309949 0.000000 0.000000
0.483415 0.000000 0.000000
0.653378 0.000000 0.000000
0.820783 0.000000 0.000000
0.986177 0.000000 0.000000
1.000000 0.000000 0.000000
1.000000 0.000000 0.000000
0.000000 0.086722 0.000000
0.118102 0.081502 0.000000
0.297109 0.074366 0.000000
0.470574 0.067451 0.000000
0.640537 0.060675 0.000000
0.807942 0.054001 0.000000
0.973336 0.047407 0.000000
1.000000 0.040880 0.000000
1.000000 0.039950 0.000000
0.000000 0.248858 0.000000
0.094095 0.243638 0.000000
0.273102 0.236502 0.000000
0.446567 0.229586 0.000000
0.616530 0.222810 0.000000
0.783935 0.216137 0.000000
0.949329 0.209543 0.000000
1.000000 0.203015 0.000000
1.000000 0.202086 0.000000
0.000000 0.405975 0.000000
0.070831 0.400755 0.000000
0.249838 0.393619 0.000000
0.423304 0.386704 0.000000
0.593266 0.379928 0.000000
0.760671 0.373254 0.000000
0.926065 0.366660 0.000000
1.000000 0.360133 0.000000
1.000000 0.359203 0.000000
0.000000 0.559920 0.000000
0.048037 0.554700 0.000000
0.227044 0.547564 0.000000
0.400509 0.540648 0.000000
0.570472 0.533872 0.000000
0.737877 0.527199 0.000000
0.903271 0.520605 0.000000
1.000000 0.514077 0.000000
1.000000 0.513148 0.000000
0.000000 0.711548 0.000000
0.025586 0.706327 0.000000
0.204593 0.699191 0.000000
0.378058 0.692276 0.000000
0.548021 0.685500 0.000000
0.715426 0.678826 0.000000
0.880820 0.672233 0.000000
1.000000 0.665705 0.000000
1.000000 0.664776 0.000000
0.000000 0.861354 0.000000
0.003405 0.856134 0.000000
0.182411 0.848998 0.000000
0.355877 0.842082 0.000000
0.525840 0.835306 0.000000
0.693245 0.828633 0.000000
0.858639 0.822039 0.000000
1.000000 0.815511 0.000000
1.000000 0.814582 0.000000
0.000000 1.000000 0.000000
0.000000 1.000000 0.000000
0.160452 0.997306 0.000000
0.333918 0.990391 0.000000
0.503880 0.983615 0.000000
0.671285 0.976941 0.000000
0.836679 0.970348 0.000000
1.000000 0.963820 0.000000
1.000000 0.962891 0.000000
0.000000 1.000000 0.000000
0.000000 1.000000 0.000000
0.152605 1.000000 0.000000
0.326071 1.000000 0.000000
0.496034 1.000000 0.000000
0.663439 1.000000 0.000000
0.828833 1.000000 0.000000
0.992573 1.000000 0.000000
1.000000 1.000000 0.000000
0.000000 0.000000 0.141615
0.129075 0.000000 0.136395
0.308081 0.000000 0.129259
0.481547 0.000000 0.122343
0.651510 0.000000 0.115567
0.818915 0.000000 0.108894
0.984309 0.000000 0.102300
1.000000 0.000000 0.095772
1.000000 0.000000 0.094843
0.000000 0.084854 0.128774
0.116234 0.079634 0.123554
0.295240 0.072498 0.116418
0.468706 0.065582 0.109502
0.638669 0.058807 0.102727
0.806074 0.052133 0.096053
0.971468 0.045539 0.089459
1.000000 0.039012 0.082932
1.000000 0.038082 0.082002
0.000000 0.246990 0.104767
0.092227 0.241770 0.099547
0.271234 0.234634 0.092411
0.444699 0.227718 0.085496
0.614662 0.220942 0.078720
0.782067 0.214269 0.072046
0.947461 0.207675 0.065452
1.000000 0.201147 0.058925
1.000000 0.200218 0.057995
0.000000 0.404107 0.081504
0.068963 0.398887 0.076283
0.247970 0.391751 0.069147
0.421435 0.384835 0.062232
0.591398 0.378060 0.055456
0.758803 0.371386 0.048782
0.924197 0.364792 0.042189
1.000000 0.358265 0.035661
1.000000 0.357335 0.034732
0.000000 0.558052 0.058709
0.046169 0.552832 0.053489
0.225176 0.545695 0.046353
0.398641 0.538780 0.039438
0.568604 0.532004 0.032662
0.736009 0.525331 0.025988
0.901403 0.518737 0.019394
1.000000 0.512209 0.012867
1.000000 0.511280 0.011937
0.000000 0.709680 0.036258
0.023718 0.704459 0.031038
0.202725 0.697323 0.023902
0.376190 0.690408 0.016987
0.546153 0.683632 0.010211
0.713558 0.676958 0.003537
0.878952 0.670364 0.000000
1.000000 0.663837 0.000000
1.000000 0.662908 0.000000
0.000000 0.859486 0.014077
0.001537 0.854266 0.008857
0.180543 0.847129 0.001721
0.354009 0.840214 0.000000
0.523972 0.833438 0.000000
0.691377 0.826765 0.000000
0.856771 0.820171 0.000000
1.000000 0.813643 0.000000
1.000000 0.812714 0.000000
0.000000 1.000000 0.000000
0.000000 1.000000 0.000000
0.158584 0.995438 0.000000
0.332049 0.988523 0.000000
0.502012 0.981747 0.000000
0.669417 0.975073 0.000000
0.834811 0.968480 0.000000
0.998552 0.961952 0.000000
1.000000 0.961023 0.000000
0.000000 1.000000 0.000000
0.000000 1.000000 0.000000
0.150737 1.000000 0.000000
0.324203 1.000000 0.000000
0.494166 1.000000 0.000000
0.661571 1.000000 0.000000
0.826965 1.000000 0.000000
0.990705 1.000000 0.000000
1.000000 1.000000 0.000000
0.000000 0.000000 0.325334
0.126651 0.000000 0.320114
0.305658 0.000000 0.312978
0.479123 0.000000 0.306062
0.649086 0.000000 0.299286
0.816491 0.000000 0.292613
0.981885 0.000000 0.286019
1.000000 0.000000 0.279491
1.000000 0.000000 0.278562
0.000000 0.082431 0.312493
0.113811 0.077211 0.307273
0.292817 0.070074 0.300137
0.466283 0.063159 0.293222
0.636246 0.056383 0.286446
0.803650 0.049709 0.279772
0.969045 0.043116 0.273178
1.000000 0.036588 0.266651
1.000000 0.035659 0.265721
0.000000 0.244566 0.288486
0.089804 0.239346 0.283266
0.268810 0.232210 0.276130
0.442276 0.225295 0.269215
0.612239 0.218519 0.262439
0.779644 0.211845 0.255765
0.945038 0.205251 0.249171
1.000000 0.198724 0.242644
1.000000 0.197794 0.241714
0.000000 0.401684 0.265223
0.066540 0.396464 0.260002
0.245546 0.389327 0.252866
0.419012 0.382412 0.245951
0.588975 0.375636 0.239175
0.756380 0.368962 0.232501
0.921774 0.362369 0.225908
1.000000 0.355841 0.219380
1.000000 0.354912 0.218451
0.000000 0.555628 0.242429
0.043746 0.550408 0.237208
0.222752 0.543272 0.230072
0.396218 0.536357 0.223157
0.566181 0.529581 0.216381
0.733586 0.522907 0.209707
0.898980 0.516313 0.203114
1.000000 0.509786 0.196586
1.000000 0.508856 0.195657
0.000000 0.707256 0.219978
0.021295 0.702036 0.214757
0.200301 0.694900 0.207621
0.373767 0.687984 0.200706
0.543730 0.681208 0.193930
0.711135 0.674535 0.187256
0.876529 0.667941 0.180663
1.000000 0.661413 0.174135
1.000000 0.660484 0.173206
0.000000 0.857062 0.197796
0.000000 0.851842 0.192576
0.178120 0.844706 0.185440
0.351586 0.837791 0.178524
0.521548 0.831015 0.171749
0.688953 0.824341 0.165075
0.854347 0.817747 0.158481
1.000000 0.811220 0.151954
1.000000 0.810290 0.151024
0.000000 1.000000 0.175837
0.000000 1.000000 0.170616
0.156160 0.993015 0.163480
0.329626 0.986099 0.156565
0.499589 0.979323 0.149789
0.666994 0.972650 0.143115
0.832388 0.966056 0.136522
0.996128 0.959528 0.129994
1.000000 0.958599 0.129065
0.000000 1.000000 0.167990
0.000000 1.000000 0.162770
0.148314 1.000000 0.155634
0.321779 1.000000 0.148718
0.491742 1.000000 0.141942
0.659147 1.000000 0.135269
0.824541 1.000000 0.128675
0.988282 1.000000 0.122147
1.000000 1.000000 0.121218
0.000000 0.000000 0.503367
0.124303 0.000000 0.498147
0.303309 0.000000 0.491010
0.476775 0.000000 0.484095
0.646738 0.000000 0.477319
0.814143 0.000000 0.470645
0.979537 0.000000 0.464052
1.000000 0.000000 0.457524
1.000000 0.000000 0.456595
0.000000 0.080082 0.490526
0.111462 0.074862 0.485306
0.290468 0.067726 0.478170
0.463934 0.060810 0.471254
0.633897 0.054035 0.464478
0.801302 0.047361 0.457805
0.966696 0.040767 0.451211
1.000000 0.034240 0.444683
1.000000 0.033310 0.443754
0.000000 0.242218 0.466519
0.087455 0.236998 0.461299
0.266462 0.229862 0.454163
0.439927 0.222946 0.447247
0.609890 0.216170 0.440472
0.777295 0.209497 0.433798
0.942689 0.202903 0.427204
1.000000 0.196375 0.420676
1.000000 0.195446 0.419747
0.000000 0.399335 0.443255
0.064191 0.394115 0.438035
0.243198 0.386979 0.430899
0.416663 0.380063 0.423983
0.586626 0.373288 0.417208
0.754031 0.366614 0.410534
0.919425 0.360020 0.403940
1.000000 0.353493 0.397413
1.000000 0.352563 0.396483
0.000000 0.553280 0.420461
0.041397 0.548060 0.415241
0.220404 0.540923 0.408105
0.393869 0.534008 0.401189
0.563832 0.527232 0.394414
0.731237 0.520558 0.387740
0.896631 0.513965 0.381146
1.000000 0.507437 0.374619
1.000000 0.506508 0.373689
0.000000 0.704907 0.398010
0.018946 0.699687 0.392790
0.197953 0.692551 0.385654
0.371418 0.685636 0.378738
0.541381 0.678860 0.371963
0.708786 0.672186 0.365289
0.874180 0.665592 0.358695
1.000000 0.659065 0.352168
1.000000 0.658135 0.351238
0.000000 0.854714 0.375829
0.000000 0.849494 0.370609
0.175771 0.842357 0.363472
0.349237 0.835442 0.356557
0.519200 0.828666 0.349781
0.686605 0.821992 0.343107
0.851999 0.815399 0.336514
1.000000 0.808871 0.329986
1.000000 0.807942 0.329057
0.000000 1.000000 0.353869
0.000000 0.997802 0.348649
0.153812 0.990666 0.341513
0.327277 0.983751 0.334597
0.497240 0.976975 0.327822
0.664645 0.970301 0.321148
0.830039 0.963708 0.314554
0.993780 0.957180 0.308027
1.000000 0.956251 0.307097
0.000000 1.000000 0.346023
0.000000 1.000000 0.340803
0.145965 1.000000 0.333666
0.319431 1.000000 0.326751
0.489394 1.000000 0.319975
0.656799 1.000000 0.313301
0.822193 1.000000 0.306708
0.985933 1.000000 0.300180
1.000000 1.000000 0.299251
0.000000 0.000000 0.677804
0.122002 0.000000 0.672584
0.301008 0.000000 0.665448
0.474474 0.000000 0.658532
0.644437 0.000000 0.651757
0.811842 0.000000 0.645083
0.977236 0.000000 0.638489
1.000000 0.000000 0.631962
1.000000 0.000000 0.631032
0.000000 0.077781 0.664964
0.109161 0.072561 0.659743
0.288167 0.065425 0.652607
0.461633 0.058509 0.645692
0.631596 0.051734 0.638916
0.799001 0.045060 0.632242
0.964395 0.038466 0.625649
1.000000 0.031939 0.619121
1.000000 0.031009 0.618192
0.000000 0.239917 0.640957
0.085154 0.234697 0.635737
0.264160 0.227560 0.628600
0.437626 0.220645 0.621685
0.607589 0.213869 0.614909
0.774994 0.207196 0.608235
0.940388 0.200602 0.601642
1.000000 0.194074 0.595114
1.000000 0.193145 0.594185
0.000000 0.397034 0.617693
0.061890 0.391814 0.612473
0.240897 0.384678 0.605336
0.414362 0.377762 0.598421
0.584325 0.370987 0.591645
0.751730 0.364313 0.584971
0.917124 0.357719 0.578378
1.000000 0.351192 0.571850
1.000000 0.350262 0.570921
0.000000 0.550979 0.594899
0.039096 0.545759 0.589679
0.218103 0.538622 0.582542
0.391568 0.531707 0.575627
0.561531 0.524931 0.568851
0.728936 0.518257 0.562177
0.894330 0.511664 0.555584
1.000000 0.505136 0.549056
1.000000 0.504207 0.548127
0.000000 0.702606 0.572448
0.016645 0.697386 0.567228
0.195652 0.690250 0.560091
0.369117 0.683335 0.553176
0.539080 0.676559 0.546400
0.706485 0.669885 0.539726
0.871879 0.663291 0.533133
1.000000 0.656764 0.526605
1.000000 0.655834 0.525676
0.000000 0.852413 0.550266
0.000000 0.847193 0.545046
0.173470 0.840056 0.537910
0.346936 0.833141 0.530995
0.516899 0.826365 0.524219
0.684304 0.819691 0.517545
0.849698 0.813098 0.510951
1.000000 0.806570 0.504424
1.000000 0.805641 0.503494
0.000000 1.000000 0.528307
0.000000 0.995501 0.523087
0.151511 0.988365 0.515950
0.324976 0.981450 0.509035
0.494939 0.974674 0.502259
0.662344 0.968000 0.495585
0.827738 0.961406 0.488992
0.991479 0.954879 0.482464
1.000000 0.953949 0.481535
0.000000 1.000000 0.520460
0.000000 1.000000 0.515240
0.143664 1.000000 0.508104
0.317130 1.000000 0.501188
0.487093 1.000000 0.494413
0.654498 1.000000 0.487739
0.819892 1.000000 0.481145
0.983632 1.000000 0.474618
1.000000 1.000000 0.473688
0.000000 0.000000 0.849616
0.119735 0.000000 0.844396
0.298742 0.000000 0.837260
0.472207 0.000000 0.830345
0.642170 0.000000 0.823569
0.809575 0.000000 0.816895
0.974969 0.000000 0.810301
1.000000 0.000000 0.803774
1.000000 0.000000 0.802844
0.000000 0.075515 0.836776
0.106895 0.070295 0.831556
0.285901 0.063158 0.824419
0.459367 0.056243 0.817504
0.629330 0.049467 0.810728
0.796734 0.042793 0.804054
0.962129 0.036200 0.797461
1.000000 0.029672 0.790933
1.000000 0.028743 0.790004
0.000000 0.237650 0.812769
0.082888 0.232430 0.807549
0.261894 0.225294 0.800412
0.435360 0.218379 0.793497
0.605323 0.211603 0.786721
0.772727 0.204929 0.780047
0.938122 0.198335 0.773454
1.000000 0.191808 0.766926
1.000000 0.190878 0.765997
0.000000 0.394768 0.789505
0.059624 0.389548 0.784285
0.238630 0.382411 0.777149
0.412096 0.375496 0.770233
0.582059 0.368720 0.763457
0.749464 0.362046 0.756784
0.914858 0.355453 0.750190
1.000000 0.348925 0.743662
1.000000 0.347996 0.742733
0.000000 0.548712 0.766711
0.036830 0.543492 0.761491
0.215836 0.536356 0.754355
0.389302 0.529440 0.747439
0.559265 0.522665 0.740663
0.726670 0.515991 0.733990
0.892064 0.509397 0.727396
1.000000 0.502870 0.720868
1.000000 0.501940 0.719939
0.000000 0.700340 0.744260
0.014379 0.695120 0.739040
0.193385 0.687983 0.731903
0.366851 0.681068 0.724988
0.536814 0.674292 0.718212
0.704219 0.667619 0.711539
0.869613 0.661025 0.704945
1.000000 0.654497 0.698417
1.000000 0.653568 0.697488
0.000000 0.850146 0.722079
0.000000 0.844926 0.716858
0.171204 0.837790 0.709722
0.344669 0.830874 0.702807
0.514632 0.824099 0.696031
0.682037 0.817425 0.689357
0.847431 0.810831 0.682764
1.000000 0.804304 0.676236
1.000000 0.803374 0.675307
0.000000 0.998455 0.700119
0.000000 0.993235 0.694899
0.149244 0.986099 0.687763
0.322710 0.979183 0.680847
0.492673 0.972407 0.674071
0.660078 0.965734 0.667398
0.825472 0.959140 0.660804
0.989212 0.952612 0.654276
1.000000 0.951683 0.653347
0.000000 1.000000 0.692272
0.000000 1.000000 0.687052
0.141398 1.000000 0.679916
0.314863 1.000000 0.673001
0.484826 1.000000 0.666225
0.652231 1.000000 0.659551
0.817625 1.000000 0.652957
0.981366 1.000000 0.646430
1.000000 1.000000 0.645500
0.000000 0.000000 1.000000
0.117496 0.000000 1.000000
0.296502 0.000000 1.000000
0.469968 0.000000 1.000000
0.639931 0.000000 0.993317
0.807336 0.000000 0.986644
0.972730 0.000000 0.980050
1.000000 0.000000 0.973522
1.000000 0.000000 0.972593
0.000000 0.073276 1.000000
0.104655 0.068055 1.000000
0.283662 0.060919 0.994168
0.457127 0.054004 0.987252
0.627090 0.047228 0.980477
0.794495 0.040554 0.973803
0.959889 0.033961 0.967209
1.000000 0.027433 0.960682
1.000000 0.026504 0.959752
0.000000 0.235411 0.982517
0.080648 0.230191 0.977297
0.259655 0.223055 0.970161
0.433121 0.216139 0.963246
0.603083 0.209364 0.956470
0.770488 0.202690 0.949796
0.935882 0.196096 0.943202
1.000000 0.189569 0.936675
1.000000 0.188639 0.935745
0.000000 0.392529 0.959254
0.057385 0.387308 0.954033
0.236391 0.380172 0.946897
0.409857 0.373257 0.939982
0.579820 0.366481 0.933206
0.747224 0.359807 0.926532
0.912619 0.353214 0.919939
1.000000 0.346686 0.913411
1.000000 0.345757 0.912482
0.000000 0.546473 0.936459
0.034591 0.541253 0.931239
0.213597 0.534117 0.924103
0.387063 0.527201 0.917188
0.557026 0.520426 0.910412
0.724430 0.513752 0.903738
0.889824 0.507158 0.897144
1.000000 0.500630 0.890617
1.000000 0.499701 0.889687
0.000000 0.698101 0.914008
0.012140 0.692881 0.908788
0.191146 0.685744 0.901652
0.364612 0.678829 0.894737
0.534575 0.672053 0.887961
0.701979 0.665379 0.881287
0.867373 0.658786 0.874693
1.000000 0.652258 0.868166
1.000000 0.651329 0.867236
0.000000 0.847907 0.891827
0.000000 0.842687 0.886607
0.168964 0.835551 0.879471
0.342430 0.828635 0.872555
0.512393 0.821860 0.865780
0.679798 0.815186 0.859106
0.845192 0.808592 0.852512
1.000000 0.802064 0.845984
1.000000 0.801135 0.845055
0.000000 0.996216 0.869868
0.000000 0.990996 0.864647
0.147005 0.983859 0.857511
0.320471 0.976944 0.850596
0.490434 0.970168 0.843820
0.657838 0.963494 0.837146
0.823233 0.956901 0.830553
0.986973 0.950373 0.824025
1.000000 0.949444 0.823096
0.000000 1.000000 0.862021
0.000000 1.000000 0.856801
0.139158 1.000000 0.849665
0.312624 1.000000 0.842749
0.482587 1.000000 0.835973
0.649992 1.000000 0.829300
0.815386 1.000000 0.822706
0.979127 1.000000 0.816178
1.000000 1.000000 0.815249
0.000000 0.000000 1.000000
0.115279 0.000000 1.000000
0.294286 0.000000 1.000000
0.467751 0.000000 1.000000
0.637714 0.000000 1.000000
0.805119 0.000000 1.000000
0.970513 0.000000 1.000000
1.000000 0.000000 1.000000
1.000000 0.000000 1.000000
0.000000 0.071059 1.000000
0.102439 0.065839 1.000000
0.281445 0.058702 1.000000
0.454911 0.051787 1.000000
0.624873 0.045011 1.000000
0.792278 0.038337 1.000000
0.957672 0.031744 1.000000
1.000000 0.025216 1.000000
1.000000 0.024287 1.000000
0.000000 0.233194 1.000000
0.078432 0.227974 1.000000
0.257438 0.220838 1.000000
0.430904 0.213923 1.000000
0.600867 0.207147 1.000000
0.768271 0.200473 1.000000
0.933666 0.193879 1.000000
1.000000 0.187352 1.000000
1.000000 0.186422 1.000000
0.000000 0.390312 1.000000
0.055168 0.385092 1.000000
0.234174 0.377955 1.000000
0.407640 0.371040 1.000000
0.577603 0.364264 1.000000
0.745008 0.357590 1.000000
0.910402 0.350997 1.000000
1.000000 0.344469 1.000000
1.000000 0.343540 1.000000
0.000000 0.544256 1.000000
0.032374 0.539036 1.000000
0.211380 0.531900 1.000000
0.384846 0.524984 1.000000
0.554809 0.518209 1.000000
0.722214 0.511535 1.000000
0.887608 0.504941 1.000000
1.000000 0.498414 1.000000
1.000000 0.497484 1.000000
0.000000 0.695884 1.000000
0.009923 0.690664 1.000000
0.188929 0.683527 1.000000
0.362395 0.676612 1.000000
0.532358 0.669836 1.000000
0.699763 0.663163 1.000000
0.865157 0.656569 1.000000
1.000000 0.650041 1.000000
1.000000 0.649112 1.000000
0.000000 0.845690 1.000000
0.000000 0.840470 1.000000
0.166748 0.833334 1.000000
0.340213 0.826418 1.000000
0.510176 0.819643 1.000000
0.677581 0.812969 1.000000
0.842975 0.806375 1.000000
1.000000 0.799848 1.000000
1.000000 0.798918 1.000000
0.000000 0.993999 1.000000
0.000000 0.988779 1.000000
0.144788 0.981642 1.000000
0.318254 0.974727 1.000000
0.488217 0.967951 1.000000
0.655622 0.961278 1.000000
0.821016 0.954684 0.998604
0.984756 0.948156 0.992076
1.000000 0.947227 0.991147
0.000000 1.000000 1.000000
0.000000 1.000000 1.000000
0.136942 1.000000 1.000000
0.310407 1.000000 1.000000
0.480370 1.000000 1.000000
0.647775 1.000000 0.997351
0.813169 1.000000 0.990757
0.976910 1.000000 0.984230
1.000000 1.000000 0.983300
0.000000 0.000000 1.000000
0.115059 0.000000 1.000000
0.294065 0.000000 1.000000
0.467531 0.000000 1.000000
0.637494 0.000000 1.000000
0.804899 0.000000 1.000000
0.970293 0.000000 1.000000
1.000000 0.000000 1.000000
1.000000 0.000000 1.000000
0.000000 0.070838 1.000000
0.102218 0.065618 1.000000
0.281225 0.058482 1.000000
0.454690 0.051567 1.000000
0.624653 0.044791 1.000000
0.792058 0.038117 1.000000
0.957452 0.031523 1.000000
1.000000 0.024996 1.000000
1.000000 0.024066 1.000000
0.000000 0.232974 1.000000
0.078211 0.227754 1.000000
0.257218 0.220618 1.000000
0.430683 0.213702 1.000000
0.600646 0.206926 1.000000
0.768051 0.200253 1.000000
0.933445 0.193659 1.000000
1.000000 0.187131 1.000000
1.000000 0.186202 1.000000
0.000000 0.390091 1.000000
0.054947 0.384871 1.000000
0.233954 0.377735 1.000000
0.407420 0.370820 1.000000
0.577382 0.364044 1.000000
0.744787 0.357370 1.000000
0.910181 0.350776 1.000000
1.000000 0.344249 1.000000
1.000000 0.343319 1.000000
0.000000 0.544036 1.000000
0.032153 0.538816 1.000000
0.211160 0.531680 1.000000
0.384625 0.524764 1.000000
0.554588 0.517988 1.000000
0.721993 0.511315 1.000000
0.887387 0.504721 1.000000
1.000000 0.498193 1.000000
1.000000 0.497264 1.000000
0.000000 0.695664 1.000000
0.009702 0.690443 1.000000
0.188709 0.683307 1.000000
0.362174 0.676392 1.000000
0.532137 0.669616 1.000000
0.699542 0.662942 1.000000
0.864936 0.656349 1.000000
1.000000 0.649821 1.000000
1.000000 0.648892 1.000000
0.000000 0.845470 1.000000
0.000000 0.840250 1.000000
0.166527 0.833114 1.000000
0.339993 0.826198 1.000000
0.509956 0.819422 1.000000
0.677361 0.812749 1.000000
0.842755 0.806155 1.000000
1.000000 0.799627 1.000000
1.000000 0.798698 1.000000
0.000000 0.993779 1.000000
0.000000 0.988558 1.000000
0.144568 0.981422 1.000000
0.318034 0.974507 1.000000
0.487996 0.967731 1.000000
0.655401 0.961057 1.000000
0.820795 0.954464 1.000000
0.984536 0.947936 1.000000
1.000000 0.947007 1.000000
0.000000 1.000000 1.000000
0.000000 1.000000 1.000000
0.136721 1.000000 1.000000
0.310187 1.000000 1.000000
0.480150 1.000000 1.000000
0.647555 1.000000 1.000000
0.812949 1.000000 1.000000
0.976689 1.000000 1.000000
1.000000 1.000000 1.000000
