installer/msi/cep-src/luts/lyrical_lemonade_neon.cube
TITLE "FlagshipEditor original preset: lyrical_lemonade_neon.cube"
LUT_3D_SIZE 17
DOMAIN_MIN 0.0 0.0 0.0
DOMAIN_MAX 1.0 1.0 1.0
0.000000 0.000000 0.000000
0.037639 0.000000 0.000000
0.130943 0.000000 0.000000
0.221359 0.000000 0.000000
0.309949 0.000000 0.000000
0.397206 0.000000 0.000000
0.483415 0.000000 0.000000
0.568762 0.000000 0.000000
0.653378 0.000000 0.000000
0.737360 0.000000 0.000000
0.820783 0.000000 0.000000
0.903706 0.000000 0.000000
0.986177 0.000000 0.000000
1.000000 0.000000 0.000000
1.000000 0.000000 0.000000
1.000000 0.000000 0.000000
1.000000 0.000000 0.000000
0.000000 0.002212 0.000000
0.037311 0.000711 0.000000
0.130615 0.000000 0.000000
0.221031 0.000000 0.000000
0.309622 0.000000 0.000000
0.396879 0.000000 0.000000
0.483087 0.000000 0.000000
0.568434 0.000000 0.000000
0.653050 0.000000 0.000000
0.737032 0.000000 0.000000
0.820455 0.000000 0.000000
0.903378 0.000000 0.000000
0.985849 0.000000 0.000000
1.000000 0.000000 0.000000
1.000000 0.000000 0.000000
1.000000 0.000000 0.000000
1.000000 0.000000 0.000000
0.000000 0.086722 0.000000
0.024798 0.085222 0.000000
0.118102 0.081502 0.000000
0.208518 0.077898 0.000000
0.297109 0.074366 0.000000
0.384365 0.070887 0.000000
0.470574 0.067451 0.000000
0.555921 0.064048 0.000000
0.640537 0.060675 0.000000
0.724519 0.057327 0.000000
0.807942 0.054001 0.000000
0.890865 0.050695 0.000000
0.973336 0.047407 0.000000
1.000000 0.044136 0.000000
1.000000 0.040880 0.000000
1.000000 0.039950 0.000000
1.000000 0.039950 0.000000
0.000000 0.168617 0.000000
0.012672 0.167117 0.000000
0.105976 0.163397 0.000000
0.196392 0.159792 0.000000
0.284983 0.156261 0.000000
0.372240 0.152782 0.000000
0.458448 0.149345 0.000000
0.543795 0.145943 0.000000
0.628411 0.142569 0.000000
0.712393 0.139221 0.000000
0.795816 0.135896 0.000000
0.878739 0.132590 0.000000
0.961210 0.129302 0.000000
1.000000 0.126031 0.000000
1.000000 0.122774 0.000000
1.000000 0.121845 0.000000
1.000000 0.121845 0.000000
0.000000 0.248858 0.000000
0.000791 0.247358 0.000000
0.094095 0.243638 0.000000
0.184511 0.240033 0.000000
0.273102 0.236502 0.000000
0.360359 0.233023 0.000000
0.446567 0.229586 0.000000
0.531914 0.226184 0.000000
0.616530 0.222810 0.000000
0.700512 0.219462 0.000000
0.783935 0.216137 0.000000
0.866858 0.212831 0.000000
0.949329 0.209543 0.000000
1.000000 0.206272 0.000000
1.000000 0.203015 0.000000
1.000000 0.202086 0.000000
1.000000 0.202086 0.000000
0.000000 0.327891 0.000000
0.000000 0.326391 0.000000
0.082393 0.322671 0.000000
0.172809 0.319067 0.000000
0.261399 0.315535 0.000000
0.348656 0.312056 0.000000
0.434865 0.308620 0.000000
0.520212 0.305217 0.000000
0.604828 0.301844 0.000000
0.688810 0.298496 0.000000
0.772233 0.295170 0.000000
0.855156 0.291864 0.000000
0.937627 0.288576 0.000000
1.000000 0.285305 0.000000
1.000000 0.282049 0.000000
1.000000 0.281119 0.000000
1.000000 0.281119 0.000000
0.000000 0.405975 0.000000
0.000000 0.404475 0.000000
0.070831 0.400755 0.000000
0.161248 0.397151 0.000000
0.249838 0.393619 0.000000
0.337095 0.390140 0.000000
0.423304 0.386704 0.000000
0.508650 0.383301 0.000000
0.593266 0.379928 0.000000
0.677248 0.376580 0.000000
0.760671 0.373254 0.000000
0.843594 0.369948 0.000000
0.926065 0.366660 0.000000
1.000000 0.363389 0.000000
1.000000 0.360133 0.000000
1.000000 0.359203 0.000000
1.000000 0.359203 0.000000
0.000000 0.483279 0.000000
0.000000 0.481778 0.000000
0.059385 0.478059 0.000000
0.149801 0.474454 0.000000
0.238392 0.470922 0.000000
0.325649 0.467444 0.000000
0.411857 0.464007 0.000000
0.497204 0.460604 0.000000
0.581820 0.457231 0.000000
0.665802 0.453883 0.000000
0.749225 0.450557 0.000000
0.832148 0.447252 0.000000
0.914619 0.443964 0.000000
0.996679 0.440692 0.000000
1.000000 0.437436 0.000000
1.000000 0.436507 0.000000
1.000000 0.436507 0.000000
0.000000 0.559920 0.000000
0.000000 0.558419 0.000000
0.048037 0.554700 0.000000
0.138453 0.551095 0.000000
0.227044 0.547564 0.000000
0.314301 0.544085 0.000000
0.400509 0.540648 0.000000
0.485856 0.537246 0.000000
0.570472 0.533872 0.000000
0.654454 0.530524 0.000000
0.737877 0.527199 0.000000
0.820800 0.523893 0.000000
0.903271 0.520605 0.000000
0.985331 0.517334 0.000000
1.000000 0.514077 0.000000
1.000000 0.513148 0.000000
1.000000 0.513148 0.000000
0.000000 0.635987 0.000000
0.000000 0.634487 0.000000
0.036774 0.630767 0.000000
0.127190 0.627162 0.000000
0.215781 0.623631 0.000000
0.303038 0.620152 0.000000
0.389246 0.616715 0.000000
0.474593 0.613313 0.000000
0.559209 0.609939 0.000000
0.643191 0.606591 0.000000
0.726614 0.603266 0.000000
0.809537 0.599960 0.000000
0.892008 0.596672 0.000000
0.974068 0.593401 0.000000
1.000000 0.590144 0.000000
1.000000 0.589215 0.000000
1.000000 0.589215 0.000000
0.000000 0.711548 0.000000
0.000000 0.710047 0.000000
0.025586 0.706327 0.000000
0.116002 0.702723 0.000000
0.204593 0.699191 0.000000
0.291850 0.695713 0.000000
0.378058 0.692276 0.000000
0.463405 0.688873 0.000000
0.548021 0.685500 0.000000
0.632003 0.682152 0.000000
0.715426 0.678826 0.000000
0.798349 0.675520 0.000000
0.880820 0.672233 0.000000
0.962880 0.668961 0.000000
1.000000 0.665705 0.000000
1.000000 0.664776 0.000000
1.000000 0.664776 0.000000
0.000000 0.786655 0.000000
0.000000 0.785155 0.000000
0.014465 0.781435 0.000000
0.104881 0.777831 0.000000
0.193472 0.774299 0.000000
0.280729 0.770820 0.000000
0.366938 0.767384 0.000000
0.452284 0.763981 0.000000
0.536900 0.760608 0.000000
0.620882 0.757260 0.000000
0.704305 0.753934 0.000000
0.787228 0.750628 0.000000
0.869699 0.747340 0.000000
0.951759 0.744069 0.000000
1.000000 0.740813 0.000000
1.000000 0.739883 0.000000
1.000000 0.739883 0.000000
0.000000 0.861354 0.000000
0.000000 0.859853 0.000000
0.003405 0.856134 0.000000
0.093821 0.852529 0.000000
0.182411 0.848998 0.000000
0.269668 0.845519 0.000000
0.355877 0.842082 0.000000
0.441224 0.838680 0.000000
0.525840 0.835306 0.000000
0.609822 0.831958 0.000000
0.693245 0.828633 0.000000
0.776168 0.825327 0.000000
0.858639 0.822039 0.000000
0.940698 0.818768 0.000000
1.000000 0.815511 0.000000
1.000000 0.814582 0.000000
1.000000 0.814582 0.000000
0.000000 0.935680 0.000000
0.000000 0.934179 0.000000
0.000000 0.930459 0.000000
0.082816 0.926855 0.000000
0.171406 0.923323 0.000000
0.258663 0.919845 0.000000
0.344872 0.916408 0.000000
0.430219 0.913005 0.000000
0.514835 0.909632 0.000000
0.598817 0.906284 0.000000
0.682240 0.902958 0.000000
0.765163 0.899652 0.000000
0.847634 0.896365 0.000000
0.929693 0.893093 0.000000
1.000000 0.889837 0.000000
1.000000 0.888908 0.000000
1.000000 0.888908 0.000000
0.000000 1.000000 0.000000
0.000000 1.000000 0.000000
0.000000 1.000000 0.000000
0.071862 1.000000 0.000000
0.160452 0.997306 0.000000
0.247709 0.993828 0.000000
0.333918 0.990391 0.000000
0.419264 0.986988 0.000000
0.503880 0.983615 0.000000
0.587862 0.980267 0.000000
0.671285 0.976941 0.000000
0.754208 0.973635 0.000000
0.836679 0.970348 0.000000
0.918739 0.967076 0.000000
1.000000 0.963820 0.000000
1.000000 0.962891 0.000000
1.000000 0.962891 0.000000
0.000000 1.000000 0.000000
0.000000 1.000000 0.000000
0.000000 1.000000 0.000000
0.064015 1.000000 0.000000
0.152605 1.000000 0.000000
0.239862 1.000000 0.000000
0.326071 1.000000 0.000000
0.411418 1.000000 0.000000
0.496034 1.000000 0.000000
0.580016 1.000000 0.000000
0.663439 1.000000 0.000000
0.746362 1.000000 0.000000
0.828833 1.000000 0.000000
0.910892 1.000000 0.000000
0.992573 1.000000 0.000000
1.000000 1.000000 0.000000
1.000000 1.000000 0.000000
0.000000 1.000000 0.000000
0.000000 1.000000 0.000000
0.000000 1.000000 0.000000
0.064015 1.000000 0.000000
0.152605 1.000000 0.000000
0.239862 1.000000 0.000000
0.326071 1.000000 0.000000
0.411418 1.000000 0.000000
0.496034 1.000000 0.000000
0.580016 1.000000 0.000000
0.663439 1.000000 0.000000
0.746362 1.000000 0.000000
0.828833 1.000000 0.000000
0.910892 1.000000 0.000000
0.992573 1.000000 0.000000
1.000000 1.000000 0.000000
1.000000 1.000000 0.000000
0.000000 0.000000 0.045855
0.037034 0.000000 0.044354
0.130338 0.000000 0.040634
0.220754 0.000000 0.037030
0.309344 0.000000 0.033498
0.396601 0.000000 0.030020
0.482810 0.000000 0.026583
0.568157 0.000000 0.023180
0.652773 0.000000 0.019807
0.736755 0.000000 0.016459
0.820178 0.000000 0.013133
0.903101 0.000000 0.009827
0.985572 0.000000 0.006540
1.000000 0.000000 0.003268
1.000000 0.000000 0.000012
1.000000 0.000000 0.000000
1.000000 0.000000 0.000000
0.000000 0.001607 0.045527
0.036707 0.000107 0.044027
0.130011 0.000000 0.040307
0.220427 0.000000 0.036702
0.309017 0.000000 0.033171
0.396274 0.000000 0.029692
0.482483 0.000000 0.026255
0.567830 0.000000 0.022853
0.652446 0.000000 0.019479
0.736428 0.000000 0.016131
0.819850 0.000000 0.012806
0.902773 0.000000 0.009500
0.985244 0.000000 0.006212
1.000000 0.000000 0.002941
1.000000 0.000000 0.000000
1.000000 0.000000 0.000000
1.000000 0.000000 0.000000
0.000000 0.086118 0.033014
0.024193 0.084617 0.031513
0.117497 0.080897 0.027794
0.207913 0.077293 0.024189
0.296504 0.073761 0.020657
0.383761 0.070282 0.017179
0.469969 0.066846 0.013742
0.555316 0.063443 0.010340
0.639932 0.060070 0.006966
0.723914 0.056722 0.003618
0.807337 0.053396 0.000292
0.890260 0.050090 0.000000
0.972731 0.046803 0.000000
1.000000 0.043531 0.000000
1.000000 0.040275 0.000000
1.000000 0.039346 0.000000
1.000000 0.039346 0.000000
0.000000 0.168012 0.020888
0.012067 0.166512 0.019387
0.105371 0.162792 0.015668
0.195788 0.159188 0.012063
0.284378 0.155656 0.008532
0.371635 0.152177 0.005053
0.457844 0.148740 0.001616
0.543190 0.145338 0.000000
0.627806 0.141965 0.000000
0.711788 0.138617 0.000000
0.795211 0.135291 0.000000
0.878134 0.131985 0.000000
0.960605 0.128697 0.000000
1.000000 0.125426 0.000000
1.000000 0.122170 0.000000
1.000000 0.121240 0.000000
1.000000 0.121240 0.000000
0.000000 0.248253 0.009007
0.000186 0.246753 0.007506
0.093490 0.243033 0.003787
0.183906 0.239428 0.000182
0.272497 0.235897 0.000000
0.359754 0.232418 0.000000
0.445963 0.228981 0.000000
0.531309 0.225579 0.000000
0.615925 0.222206 0.000000
0.699907 0.218858 0.000000
0.783330 0.215532 0.000000
0.866253 0.212226 0.000000
0.948724 0.208938 0.000000
1.000000 0.205667 0.000000
1.000000 0.202411 0.000000
1.000000 0.201481 0.000000
1.000000 0.201481 0.000000
0.000000 0.327287 0.000000
0.000000 0.325786 0.000000
0.081788 0.322066 0.000000
0.172204 0.318462 0.000000
0.260795 0.314930 0.000000
0.348051 0.311451 0.000000
0.434260 0.308015 0.000000
0.519607 0.304612 0.000000
0.604223 0.301239 0.000000
0.688205 0.297891 0.000000
0.771628 0.294565 0.000000
0.854551 0.291259 0.000000
0.937022 0.287971 0.000000
1.000000 0.284700 0.000000
1.000000 0.281444 0.000000
1.000000 0.280515 0.000000
1.000000 0.280515 0.000000
0.000000 0.405371 0.000000
0.000000 0.403870 0.000000
0.070227 0.400150 0.000000
0.160643 0.396546 0.000000
0.249233 0.393014 0.000000
0.336490 0.389535 0.000000
0.422699 0.386099 0.000000
0.508046 0.382696 0.000000
0.592662 0.379323 0.000000
0.676644 0.375975 0.000000
0.760066 0.372649 0.000000
0.842989 0.369343 0.000000
0.925461 0.366056 0.000000
1.000000 0.362784 0.000000
1.000000 0.359528 0.000000
1.000000 0.358599 0.000000
1.000000 0.358599 0.000000
0.000000 0.482674 0.000000
0.000000 0.481173 0.000000
0.058781 0.477454 0.000000
0.149197 0.473849 0.000000
0.237787 0.470317 0.000000
0.325044 0.466839 0.000000
0.411253 0.463402 0.000000
0.496600 0.460000 0.000000
0.581216 0.456626 0.000000
0.665198 0.453278 0.000000
0.748620 0.449952 0.000000
0.831543 0.446647 0.000000
0.914014 0.443359 0.000000
0.996074 0.440087 0.000000
1.000000 0.436831 0.000000
1.000000 0.435902 0.000000
1.000000 0.435902 0.000000
0.000000 0.559315 0.000000
0.000000 0.557815 0.000000
0.047433 0.554095 0.000000
0.137849 0.550490 0.000000
0.226439 0.546959 0.000000
0.313696 0.543480 0.000000
0.399905 0.540043 0.000000
0.485252 0.536641 0.000000
0.569867 0.533267 0.000000
0.653850 0.529919 0.000000
0.737272 0.526594 0.000000
0.820195 0.523288 0.000000
0.902666 0.520000 0.000000
0.984726 0.516729 0.000000
1.000000 0.513472 0.000000
1.000000 0.512543 0.000000
1.000000 0.512543 0.000000
0.000000 0.635382 0.000000
0.000000 0.633882 0.000000
0.036170 0.630162 0.000000
0.126586 0.626557 0.000000
0.215176 0.623026 0.000000
0.302433 0.619547 0.000000
0.388642 0.616110 0.000000
0.473989 0.612708 0.000000
0.558604 0.609335 0.000000
0.642587 0.605987 0.000000
0.726009 0.602661 0.000000
0.808932 0.599355 0.000000
0.891403 0.596067 0.000000
0.973463 0.592796 0.000000
1.000000 0.589539 0.000000
1.000000 0.588610 0.000000
1.000000 0.588610 0.000000
0.000000 0.710943 0.000000
0.000000 0.709442 0.000000
0.024982 0.705723 0.000000
0.115398 0.702118 0.000000
0.203988 0.698586 0.000000
0.291245 0.695108 0.000000
0.377454 0.691671 0.000000
0.462801 0.688268 0.000000
0.547416 0.684895 0.000000
0.631399 0.681547 0.000000
0.714821 0.678221 0.000000
0.797744 0.674916 0.000000
0.880215 0.671628 0.000000
0.962275 0.668356 0.000000
1.000000 0.665100 0.000000
1.000000 0.664171 0.000000
1.000000 0.664171 0.000000
0.000000 0.786050 0.000000
0.000000 0.784550 0.000000
0.013861 0.780830 0.000000
0.104277 0.777226 0.000000
0.192867 0.773694 0.000000
0.280124 0.770215 0.000000
0.366333 0.766779 0.000000
0.451680 0.763376 0.000000
0.536296 0.760003 0.000000
0.620278 0.756655 0.000000
0.703700 0.753329 0.000000
0.786623 0.750023 0.000000
0.869094 0.746735 0.000000
0.951154 0.743464 0.000000
1.000000 0.740208 0.000000
1.000000 0.739278 0.000000
1.000000 0.739278 0.000000
0.000000 0.860749 0.000000
0.000000 0.859249 0.000000
0.002800 0.855529 0.000000
0.093216 0.851924 0.000000
0.181806 0.848393 0.000000
0.269063 0.844914 0.000000
0.355272 0.841477 0.000000
0.440619 0.838075 0.000000
0.525235 0.834702 0.000000
0.609217 0.831353 0.000000
0.692640 0.828028 0.000000
0.775563 0.824722 0.000000
0.858034 0.821434 0.000000
0.940093 0.818163 0.000000
1.000000 0.814906 0.000000
1.000000 0.813977 0.000000
1.000000 0.813977 0.000000
0.000000 0.935075 0.000000
0.000000 0.933574 0.000000
0.000000 0.929855 0.000000
0.082211 0.926250 0.000000
0.170801 0.922718 0.000000
0.258058 0.919240 0.000000
0.344267 0.915803 0.000000
0.429614 0.912400 0.000000
0.514230 0.909027 0.000000
0.598212 0.905679 0.000000
0.681635 0.902353 0.000000
0.764558 0.899048 0.000000
0.847029 0.895760 0.000000
0.929088 0.892488 0.000000
1.000000 0.889232 0.000000
1.000000 0.888303 0.000000
1.000000 0.888303 0.000000
0.000000 1.000000 0.000000
0.000000 1.000000 0.000000
0.000000 1.000000 0.000000
0.071257 1.000000 0.000000
0.159847 0.996701 0.000000
0.247104 0.993223 0.000000
0.333313 0.989786 0.000000
0.418660 0.986383 0.000000
0.503276 0.983010 0.000000
0.587258 0.979662 0.000000
0.670680 0.976336 0.000000
0.753603 0.973031 0.000000
0.836075 0.969743 0.000000
0.918134 0.966471 0.000000
0.999815 0.963215 0.000000
1.000000 0.962286 0.000000
1.000000 0.962286 0.000000
0.000000 1.000000 0.000000
0.000000 1.000000 0.000000
0.000000 1.000000 0.000000
0.063410 1.000000 0.000000
0.152000 1.000000 0.000000
0.239257 1.000000 0.000000
0.325466 1.000000 0.000000
0.410813 1.000000 0.000000
0.495429 1.000000 0.000000
0.579411 1.000000 0.000000
0.662834 1.000000 0.000000
0.745757 1.000000 0.000000
0.828228 1.000000 0.000000
0.910287 1.000000 0.000000
0.991969 1.000000 0.000000
1.000000 1.000000 0.000000
1.000000 1.000000 0.000000
0.000000 1.000000 0.000000
0.000000 1.000000 0.000000
0.000000 1.000000 0.000000
0.063410 1.000000 0.000000
0.152000 1.000000 0.000000
0.239257 1.000000 0.000000
0.325466 1.000000 0.000000
0.410813 1.000000 0.000000
0.495429 1.000000 0.000000
0.579411 1.000000 0.000000
0.662834 1.000000 0.000000
0.745757 1.000000 0.000000
0.828228 1.000000 0.000000
0.910287 1.000000 0.000000
0.991969 1.000000 0.000000
1.000000 1.000000 0.000000
1.000000 1.000000 0.000000
0.000000 0.000000 0.141615
0.035771 0.000000 0.140114
0.129075 0.000000 0.136395
0.219491 0.000000 0.132790
0.308081 0.000000 0.129259
0.395338 0.000000 0.125780
0.481547 0.000000 0.122343
0.566894 0.000000 0.118941
0.651510 0.000000 0.115567
0.735492 0.000000 0.112219
0.818915 0.000000 0.108894
0.901838 0.000000 0.105588
0.984309 0.000000 0.102300
1.000000 0.000000 0.099029
1.000000 0.000000 0.095772
1.000000 0.000000 0.094843
1.000000 0.000000 0.094843
0.000000 0.000344 0.141287
0.035443 0.000000 0.139787
0.128747 0.000000 0.136067
0.219163 0.000000 0.132463
0.307754 0.000000 0.128931
0.395011 0.000000 0.125452
0.481219 0.000000 0.122016
0.566566 0.000000 0.118613
0.651182 0.000000 0.115240
0.735164 0.000000 0.111892
0.818587 0.000000 0.108566
0.901510 0.000000 0.105260
0.983981 0.000000 0.101972
1.000000 0.000000 0.098701
1.000000 0.000000 0.095445
1.000000 0.000000 0.094515
1.000000 0.000000 0.094515
0.000000 0.084854 0.128774
0.022930 0.083354 0.127274
0.116234 0.079634 0.123554
0.206650 0.076030 0.119950
0.295240 0.072498 0.116418
0.382497 0.069019 0.112939
0.468706 0.065582 0.109502
0.554053 0.062180 0.106100
0.638669 0.058807 0.102727
0.722651 0.055459 0.099379
0.806074 0.052133 0.096053
0.888997 0.048827 0.092747
0.971468 0.045539 0.089459
1.000000 0.042268 0.086188
1.000000 0.039012 0.082932
1.000000 0.038082 0.082002
1.000000 0.038082 0.082002
0.000000 0.166749 0.116648
0.010804 0.165248 0.115148
0.104108 0.161529 0.111428
0.194524 0.157924 0.107824
0.283115 0.154393 0.104292
0.370371 0.150914 0.100813
0.456580 0.147477 0.097377
0.541927 0.144075 0.093974
0.626543 0.140701 0.090601
0.710525 0.137353 0.087253
0.793948 0.134028 0.083927
0.876871 0.130722 0.080621
0.959342 0.127434 0.077333
1.000000 0.124163 0.074062
1.000000 0.120906 0.070806
1.000000 0.119977 0.069876
1.000000 0.119977 0.069876
0.000000 0.246990 0.104767
0.000000 0.245489 0.103267
0.092227 0.241770 0.099547
0.182643 0.238165 0.095943
0.271234 0.234634 0.092411
0.358490 0.231155 0.088932
0.444699 0.227718 0.085496
0.530046 0.224316 0.082093
0.614662 0.220942 0.078720
0.698644 0.217594 0.075372
0.782067 0.214269 0.072046
0.864990 0.210963 0.068740
0.947461 0.207675 0.065452
1.000000 0.204404 0.062181
1.000000 0.201147 0.058925
1.000000 0.200218 0.057995
1.000000 0.200218 0.057995
0.000000 0.326023 0.093065
0.000000 0.324523 0.091565
0.080525 0.320803 0.087845
0.170941 0.317199 0.084240
0.259531 0.313667 0.080709
0.346788 0.310188 0.077230
0.432997 0.306751 0.073793
0.518344 0.303349 0.070391
0.602960 0.299976 0.067018
0.686942 0.296628 0.063670
0.770365 0.293302 0.060344
0.853288 0.289996 0.057038
0.935759 0.286708 0.053750
1.000000 0.283437 0.050479
1.000000 0.280181 0.047222
1.000000 0.279251 0.046293
1.000000 0.279251 0.046293
0.000000 0.404107 0.081504
0.000000 0.402607 0.080003
0.068963 0.398887 0.076283
0.159379 0.395283 0.072679
0.247970 0.391751 0.069147
0.335227 0.388272 0.065668
0.421435 0.384835 0.062232
0.506782 0.381433 0.058829
0.591398 0.378060 0.055456
0.675380 0.374712 0.052108
0.758803 0.371386 0.048782
0.841726 0.368080 0.045476
0.924197 0.364792 0.042189
1.000000 0.361521 0.038917
1.000000 0.358265 0.035661
1.000000 0.357335 0.034732
1.000000 0.357335 0.034732
0.000000 0.481411 0.070057
0.000000 0.479910 0.068557
0.057517 0.476190 0.064837
0.147933 0.472586 0.061233
0.236524 0.469054 0.057701
0.323781 0.465576 0.054222
0.409989 0.462139 0.050786
0.495336 0.458736 0.047383
0.579952 0.455363 0.044010
0.663934 0.452015 0.040662
0.747357 0.448689 0.037336
0.830280 0.445383 0.034030
0.912751 0.442096 0.030742
0.994811 0.438824 0.027471
1.000000 0.435568 0.024215
1.000000 0.434639 0.023285
1.000000 0.434639 0.023285
0.000000 0.558052 0.058709
0.000000 0.556551 0.057209
0.046169 0.552832 0.053489
0.136585 0.549227 0.049885
0.225176 0.545695 0.046353
0.312433 0.542217 0.042874
0.398641 0.538780 0.039438
0.483988 0.535378 0.036035
0.568604 0.532004 0.032662
0.652586 0.528656 0.029314
0.736009 0.525331 0.025988
0.818932 0.522025 0.022682
0.901403 0.518737 0.019394
0.983463 0.515466 0.016123
1.000000 0.512209 0.012867
1.000000 0.511280 0.011937
1.000000 0.511280 0.011937
0.000000 0.634119 0.047446
0.000000 0.632618 0.045946
0.034906 0.628899 0.042226
0.125322 0.625294 0.038622
0.213913 0.621762 0.035090
0.301170 0.618284 0.031611
0.387378 0.614847 0.028175
0.472725 0.611445 0.024772
0.557341 0.608071 0.021399
0.641323 0.604723 0.018051
0.724746 0.601398 0.014725
0.807669 0.598092 0.011419
0.890140 0.594804 0.008131
0.972200 0.591533 0.004860
1.000000 0.588276 0.001604
1.000000 0.587347 0.000674
1.000000 0.587347 0.000674
0.000000 0.709680 0.036258
0.000000 0.708179 0.034758
0.023718 0.704459 0.031038
0.114134 0.700855 0.027434
0.202725 0.697323 0.023902
0.289982 0.693844 0.020423
0.376190 0.690408 0.016987
0.461537 0.687005 0.013584
0.546153 0.683632 0.010211
0.630135 0.680284 0.006863
0.713558 0.676958 0.003537
0.796481 0.673652 0.000231
0.878952 0.670364 0.000000
0.961012 0.667093 0.000000
1.000000 0.663837 0.000000
1.000000 0.662908 0.000000
1.000000 0.662908 0.000000
0.000000 0.784787 0.025138
0.000000 0.783287 0.023637
0.012597 0.779567 0.019917
0.103013 0.775963 0.016313
0.191604 0.772431 0.012781
0.278861 0.768952 0.009302
0.365069 0.765515 0.005866
0.450416 0.762113 0.002463
0.535032 0.758740 0.000000
0.619014 0.755392 0.000000
0.702437 0.752066 0.000000
0.785360 0.748760 0.000000
0.867831 0.745472 0.000000
0.949891 0.742201 0.000000
1.000000 0.738945 0.000000
1.000000 0.738015 0.000000
1.000000 0.738015 0.000000
0.000000 0.859486 0.014077
0.000000 0.857985 0.012577
0.001537 0.854266 0.008857
0.091953 0.850661 0.005252
0.180543 0.847129 0.001721
0.267800 0.843651 0.000000
0.354009 0.840214 0.000000
0.439356 0.836812 0.000000
0.523972 0.833438 0.000000
0.607954 0.830090 0.000000
0.691377 0.826765 0.000000
0.774300 0.823459 0.000000
0.856771 0.820171 0.000000
0.938830 0.816900 0.000000
1.000000 0.813643 0.000000
1.000000 0.812714 0.000000
1.000000 0.812714 0.000000
0.000000 0.933812 0.003072
0.000000 0.932311 0.001571
0.000000 0.928591 0.000000
0.080948 0.924987 0.000000
0.169538 0.921455 0.000000
0.256795 0.917976 0.000000
0.343004 0.914540 0.000000
0.428351 0.911137 0.000000
0.512967 0.907764 0.000000
0.596949 0.904416 0.000000
0.680372 0.901090 0.000000
0.763295 0.897784 0.000000
0.845766 0.894497 0.000000
0.927825 0.891225 0.000000
1.000000 0.887969 0.000000
1.000000 0.887040 0.000000
1.000000 0.887040 0.000000
0.000000 1.000000 0.000000
0.000000 1.000000 0.000000
0.000000 1.000000 0.000000
0.069993 0.998970 0.000000
0.158584 0.995438 0.000000
0.245841 0.991959 0.000000
0.332049 0.988523 0.000000
0.417396 0.985120 0.000000
0.502012 0.981747 0.000000
0.585994 0.978399 0.000000
0.669417 0.975073 0.000000
0.752340 0.971767 0.000000
0.834811 0.968480 0.000000
0.916871 0.965208 0.000000
0.998552 0.961952 0.000000
1.000000 0.961023 0.000000
1.000000 0.961023 0.000000
0.000000 1.000000 0.000000
0.000000 1.000000 0.000000
0.000000 1.000000 0.000000
0.062147 1.000000 0.000000
0.150737 1.000000 0.000000
0.237994 1.000000 0.000000
0.324203 1.000000 0.000000
0.409550 1.000000 0.000000
0.494166 1.000000 0.000000
0.578148 1.000000 0.000000
0.661571 1.000000 0.000000
0.744494 1.000000 0.000000
0.826965 1.000000 0.000000
0.909024 1.000000 0.000000
0.990705 1.000000 0.000000
1.000000 1.000000 0.000000
1.000000 1.000000 0.000000
0.000000 1.000000 0.000000
0.000000 1.000000 0.000000
0.000000 1.000000 0.000000
0.062147 1.000000 0.000000
0.150737 1.000000 0.000000
0.237994 1.000000 0.000000
0.324203 1.000000 0.000000
0.409550 1.000000 0.000000
0.494166 1.000000 0.000000
0.578148 1.000000 0.000000
0.661571 1.000000 0.000000
0.744494 1.000000 0.000000
0.826965 1.000000 0.000000
0.909024 1.000000 0.000000
0.990705 1.000000 0.000000
1.000000 1.000000 0.000000
1.000000 1.000000 0.000000
0.000000 0.000000 0.234411
0.034547 0.000000 0.232911
0.127851 0.000000 0.229191
0.218267 0.000000 0.225587
0.306857 0.000000 0.222055
0.394114 0.000000 0.218576
0.480323 0.000000 0.215140
0.565670 0.000000 0.211737
0.650286 0.000000 0.208364
0.734268 0.000000 0.205016
0.817691 0.000000 0.201690
0.900613 0.000000 0.198384
0.983085 0.000000 0.195096
1.000000 0.000000 0.191825
1.000000 0.000000 0.188569
1.000000 0.000000 0.187639
1.000000 0.000000 0.187639
