installer/msi/cep-src/luts/worldwide_neon_dark.cube
TITLE "FlagshipEditor original preset: worldwide_neon_dark.cube"
LUT_3D_SIZE 17
DOMAIN_MIN 0.0 0.0 0.0
DOMAIN_MAX 1.0 1.0 1.0
0.000000 0.000000 0.000000
0.012052 0.000000 0.000000
0.098308 0.000000 0.000000
0.181456 0.000000 0.000000
0.262648 0.000000 0.000000
0.342417 0.000000 0.000000
0.421068 0.000000 0.000000
0.498803 0.000000 0.000000
0.575762 0.000000 0.000000
0.652049 0.000000 0.000000
0.727743 0.000000 0.000000
0.802908 0.000000 0.000000
0.877596 0.000000 0.000000
0.951849 0.000000 0.000000
1.000000 0.000000 0.000000
1.000000 0.000000 0.000000
1.000000 0.000000 0.000000
0.000000 0.000000 0.000000
0.012052 0.000000 0.000000
0.098308 0.000000 0.000000
0.181456 0.000000 0.000000
0.262648 0.000000 0.000000
0.342417 0.000000 0.000000
0.421068 0.000000 0.000000
0.498803 0.000000 0.000000
0.575762 0.000000 0.000000
0.652049 0.000000 0.000000
0.727743 0.000000 0.000000
0.802908 0.000000 0.000000
0.877596 0.000000 0.000000
0.951849 0.000000 0.000000
1.000000 0.000000 0.000000
1.000000 0.000000 0.000000
1.000000 0.000000 0.000000
0.000000 0.049874 0.000000
0.004039 0.049356 0.000000
0.090295 0.045655 0.000000
0.173443 0.042087 0.000000
0.254635 0.038602 0.000000
0.334404 0.035179 0.000000
0.413055 0.031804 0.000000
0.490790 0.028468 0.000000
0.567749 0.025165 0.000000
0.644036 0.021892 0.000000
0.719730 0.018643 0.000000
0.794895 0.015418 0.000000
0.869583 0.012212 0.000000
0.943836 0.009026 0.000000
1.000000 0.005856 0.000000
1.000000 0.002703 0.000000
1.000000 0.000000 0.000000
0.000000 0.124586 0.000000
0.000000 0.124069 0.000000
0.078291 0.120367 0.000000
0.161439 0.116799 0.000000
0.242632 0.113315 0.000000
0.322400 0.109892 0.000000
0.401052 0.106516 0.000000
0.478787 0.103180 0.000000
0.555745 0.099878 0.000000
0.632032 0.096604 0.000000
0.707726 0.093356 0.000000
0.782891 0.090130 0.000000
0.857579 0.086925 0.000000
0.931832 0.083738 0.000000
1.000000 0.080569 0.000000
1.000000 0.077415 0.000000
1.000000 0.074277 0.000000
0.000000 0.197541 0.000000
0.000000 0.197024 0.000000
0.066570 0.193323 0.000000
0.149718 0.189754 0.000000
0.230910 0.186270 0.000000
0.310678 0.182847 0.000000
0.389330 0.179472 0.000000
0.467065 0.176136 0.000000
0.544024 0.172833 0.000000
0.620310 0.169559 0.000000
0.696005 0.166311 0.000000
0.771170 0.163085 0.000000
0.845858 0.159880 0.000000
0.920111 0.156694 0.000000
0.993964 0.153524 0.000000
1.000000 0.150371 0.000000
1.000000 0.147232 0.000000
0.000000 0.269217 0.000000
0.000000 0.268700 0.000000
0.055054 0.264998 0.000000
0.138202 0.261430 0.000000
0.219394 0.257946 0.000000
0.299163 0.254523 0.000000
0.377814 0.251147 0.000000
0.455549 0.247811 0.000000
0.532508 0.244509 0.000000
0.608795 0.241235 0.000000
0.684489 0.237987 0.000000
0.759654 0.234761 0.000000
0.834342 0.231556 0.000000
0.908595 0.228369 0.000000
0.982449 0.225200 0.000000
1.000000 0.222046 0.000000
1.000000 0.218907 0.000000
0.000000 0.339889 0.000000
0.000000 0.339372 0.000000
0.043699 0.335671 0.000000
0.126847 0.332102 0.000000
0.208040 0.328618 0.000000
0.287808 0.325195 0.000000
0.366460 0.321820 0.000000
0.444195 0.318484 0.000000
0.521153 0.315181 0.000000
0.597440 0.311907 0.000000
0.673134 0.308659 0.000000
0.748299 0.305433 0.000000
0.822987 0.302228 0.000000
0.897240 0.299042 0.000000
0.971094 0.295872 0.000000
1.000000 0.292719 0.000000
1.000000 0.289580 0.000000
0.000000 0.409738 0.000000
0.000000 0.409221 0.000000
0.032477 0.405519 0.000000
0.115625 0.401951 0.000000
0.196817 0.398467 0.000000
0.276586 0.395044 0.000000
0.355237 0.391668 0.000000
0.432972 0.388332 0.000000
0.509931 0.385030 0.000000
0.586218 0.381756 0.000000
0.661912 0.378508 0.000000
0.737077 0.375282 0.000000
0.811765 0.372077 0.000000
0.886018 0.368890 0.000000
0.959872 0.365721 0.000000
1.000000 0.362567 0.000000
1.000000 0.359428 0.000000
0.000000 0.478889 0.000000
0.000000 0.478372 0.000000
0.021367 0.474670 0.000000
0.104515 0.471102 0.000000
0.185707 0.467618 0.000000
0.265475 0.464195 0.000000
0.344127 0.460819 0.000000
0.421862 0.457483 0.000000
0.498821 0.454181 0.000000
0.575107 0.450907 0.000000
0.650802 0.447659 0.000000
0.725967 0.444433 0.000000
0.800655 0.441228 0.000000
0.874908 0.438041 0.000000
0.948761 0.434872 0.000000
1.000000 0.431718 0.000000
1.000000 0.428580 0.000000
0.000000 0.547436 0.000000
0.000000 0.546919 0.000000
0.010353 0.543218 0.000000
0.093501 0.539649 0.000000
0.174694 0.536165 0.000000
0.254462 0.532742 0.000000
0.333114 0.529366 0.000000
0.410849 0.526031 0.000000
0.487808 0.522728 0.000000
0.564094 0.519454 0.000000
0.639788 0.516206 0.000000
0.714954 0.512980 0.000000
0.789642 0.509775 0.000000
0.863894 0.506588 0.000000
0.937748 0.503419 0.000000
1.000000 0.500266 0.000000
1.000000 0.497127 0.000000
0.000000 0.615451 0.000000
0.000000 0.614934 0.000000
0.000000 0.611232 0.000000
0.082574 0.607664 0.000000
0.163766 0.604180 0.000000
0.243534 0.600757 0.000000
0.322186 0.597381 0.000000
0.399921 0.594045 0.000000
0.476880 0.590743 0.000000
0.553166 0.587469 0.000000
0.628861 0.584221 0.000000
0.704026 0.580995 0.000000
0.778714 0.577790 0.000000
0.852967 0.574603 0.000000
0.926820 0.571434 0.000000
1.000000 0.568280 0.000000
1.000000 0.565142 0.000000
0.000000 0.682991 0.000000
0.000000 0.682474 0.000000
0.000000 0.678772 0.000000
0.071722 0.675204 0.000000
0.152915 0.671720 0.000000
0.232683 0.668296 0.000000
0.311335 0.664921 0.000000
0.389070 0.661585 0.000000
0.466029 0.658282 0.000000
0.542315 0.655009 0.000000
0.618009 0.651760 0.000000
0.693175 0.648535 0.000000
0.767862 0.645329 0.000000
0.842115 0.642143 0.000000
0.915969 0.638974 0.000000
0.989454 0.635820 0.000000
1.000000 0.632681 0.000000
0.000000 0.750101 0.000000
0.000000 0.749584 0.000000
0.000000 0.745883 0.000000
0.060940 0.742314 0.000000
0.142132 0.738830 0.000000
0.221901 0.735407 0.000000
0.300552 0.732032 0.000000
0.378287 0.728696 0.000000
0.455246 0.725393 0.000000
0.531533 0.722119 0.000000
0.607227 0.718871 0.000000
0.682392 0.715645 0.000000
0.757080 0.712440 0.000000
0.831333 0.709254 0.000000
0.905187 0.706084 0.000000
0.978672 0.702931 0.000000
1.000000 0.699792 0.000000
0.000000 0.816821 0.000000
0.000000 0.816304 0.000000
0.000000 0.812602 0.000000
0.050220 0.809034 0.000000
0.131413 0.805550 0.000000
0.211181 0.802127 0.000000
0.289833 0.798751 0.000000
0.367568 0.795415 0.000000
0.444527 0.792113 0.000000
0.520813 0.788839 0.000000
0.596507 0.785591 0.000000
0.671673 0.782365 0.000000
0.746360 0.779160 0.000000
0.820613 0.775973 0.000000
0.894467 0.772804 0.000000
0.967952 0.769650 0.000000
1.000000 0.766512 0.000000
0.000000 0.883182 0.000000
0.000000 0.882665 0.000000
0.000000 0.878964 0.000000
0.039558 0.875395 0.000000
0.120751 0.871911 0.000000
0.200519 0.868488 0.000000
0.279171 0.865113 0.000000
0.356906 0.861777 0.000000
0.433865 0.858474 0.000000
0.510151 0.855200 0.000000
0.585845 0.851952 0.000000
0.661011 0.848726 0.000000
0.735698 0.845521 0.000000
0.809951 0.842334 0.000000
0.883805 0.839165 0.000000
0.957290 0.836012 0.000000
1.000000 0.832873 0.000000
0.000000 0.949212 0.000000
0.000000 0.948695 0.000000
0.000000 0.944993 0.000000
0.028950 0.941425 0.000000
0.110142 0.937941 0.000000
0.189910 0.934518 0.000000
0.268562 0.931142 0.000000
0.346297 0.927806 0.000000
0.423256 0.924504 0.000000
0.499542 0.921230 0.000000
0.575237 0.917982 0.000000
0.650402 0.914756 0.000000
0.725090 0.911551 0.000000
0.799343 0.908364 0.000000
0.873196 0.905195 0.000000
0.946681 0.902041 0.000000
1.000000 0.898903 0.000000
0.000000 1.000000 0.000000
0.000000 1.000000 0.000000
0.000000 1.000000 0.000000
0.018390 1.000000 0.000000
0.099583 1.000000 0.000000
0.179351 1.000000 0.000000
0.258003 0.996865 0.000000
0.335738 0.993529 0.000000
0.412697 0.990226 0.000000
0.488983 0.986952 0.000000
0.564677 0.983704 0.000000
0.639843 0.980478 0.000000
0.714530 0.977273 0.000000
0.788783 0.974087 0.000000
0.862637 0.970917 0.000000
0.936122 0.967764 0.000000
1.000000 0.964625 0.000000
0.000000 0.000000 0.033179
0.011582 0.000000 0.032662
0.097838 0.000000 0.028961
0.180986 0.000000 0.025392
0.262178 0.000000 0.021908
0.341946 0.000000 0.018485
0.420598 0.000000 0.015110
0.498333 0.000000 0.011774
0.575292 0.000000 0.008471
0.651578 0.000000 0.005197
0.727273 0.000000 0.001949
0.802438 0.000000 0.000000
0.877126 0.000000 0.000000
0.951379 0.000000 0.000000
1.000000 0.000000 0.000000
1.000000 0.000000 0.000000
1.000000 0.000000 0.000000
0.000000 0.000000 0.033179
0.011582 0.000000 0.032662
0.097838 0.000000 0.028961
0.180986 0.000000 0.025392
0.262178 0.000000 0.021908
0.341946 0.000000 0.018485
0.420598 0.000000 0.015110
0.498333 0.000000 0.011774
0.575292 0.000000 0.008471
0.651578 0.000000 0.005197
0.727273 0.000000 0.001949
0.802438 0.000000 0.000000
0.877126 0.000000 0.000000
0.951379 0.000000 0.000000
1.000000 0.000000 0.000000
1.000000 0.000000 0.000000
1.000000 0.000000 0.000000
0.000000 0.049403 0.025166
0.003569 0.048886 0.024649
0.089825 0.045185 0.020948
0.172973 0.041616 0.017379
0.254165 0.038132 0.013895
0.333933 0.034709 0.010472
0.412585 0.031334 0.007097
0.490320 0.027998 0.003761
0.567279 0.024695 0.000458
0.643565 0.021421 0.000000
0.719260 0.018173 0.000000
0.794425 0.014947 0.000000
0.869113 0.011742 0.000000
0.943366 0.008556 0.000000
1.000000 0.005386 0.000000
1.000000 0.002233 0.000000
1.000000 0.000000 0.000000
0.000000 0.124116 0.013163
0.000000 0.123599 0.012645
0.077821 0.119897 0.008944
0.160969 0.116329 0.005376
0.242161 0.112845 0.001891
0.321930 0.109421 0.000000
0.400581 0.106046 0.000000
0.478316 0.102710 0.000000
0.555275 0.099408 0.000000
0.631562 0.096134 0.000000
0.707256 0.092885 0.000000
0.782421 0.089660 0.000000
0.857109 0.086455 0.000000
0.931362 0.083268 0.000000
1.000000 0.080099 0.000000
1.000000 0.076945 0.000000
1.000000 0.073806 0.000000
0.000000 0.197071 0.001441
0.000000 0.196554 0.000924
0.066099 0.192852 0.000000
0.149248 0.189284 0.000000
0.230440 0.185800 0.000000
0.310208 0.182377 0.000000
0.388860 0.179001 0.000000
0.466595 0.175665 0.000000
0.543554 0.172363 0.000000
0.619840 0.169089 0.000000
0.695534 0.165841 0.000000
0.770700 0.162615 0.000000
0.845388 0.159410 0.000000
0.919640 0.156223 0.000000
0.993494 0.153054 0.000000
1.000000 0.149900 0.000000
1.000000 0.146762 0.000000
0.000000 0.268747 0.000000
0.000000 0.268230 0.000000
0.054584 0.264528 0.000000
0.137732 0.260960 0.000000
0.218924 0.257476 0.000000
0.298692 0.254052 0.000000
0.377344 0.250677 0.000000
0.455079 0.247341 0.000000
0.532038 0.244039 0.000000
0.608324 0.240765 0.000000
0.684019 0.237516 0.000000
0.759184 0.234291 0.000000
0.833872 0.231086 0.000000
0.908125 0.227899 0.000000
0.981978 0.224730 0.000000
1.000000 0.221576 0.000000
1.000000 0.218437 0.000000
0.000000 0.339419 0.000000
0.000000 0.338902 0.000000
0.043229 0.335200 0.000000
0.126377 0.331632 0.000000
0.207569 0.328148 0.000000
0.287338 0.324725 0.000000
0.365989 0.321349 0.000000
0.443724 0.318013 0.000000
0.520683 0.314711 0.000000
0.596970 0.311437 0.000000
0.672664 0.308189 0.000000
0.747829 0.304963 0.000000
0.822517 0.301758 0.000000
0.896770 0.298571 0.000000
0.970624 0.295402 0.000000
1.000000 0.292248 0.000000
1.000000 0.289110 0.000000
0.000000 0.409268 0.000000
0.000000 0.408751 0.000000
0.032007 0.405049 0.000000
0.115155 0.401481 0.000000
0.196347 0.397996 0.000000
0.276115 0.394573 0.000000
0.354767 0.391198 0.000000
0.432502 0.387862 0.000000
0.509461 0.384559 0.000000
0.585747 0.381286 0.000000
0.661442 0.378037 0.000000
0.736607 0.374812 0.000000
0.811295 0.371606 0.000000
0.885548 0.368420 0.000000
0.959401 0.365251 0.000000
1.000000 0.362097 0.000000
1.000000 0.358958 0.000000
0.000000 0.478419 0.000000
0.000000 0.477902 0.000000
0.020896 0.474200 0.000000
0.104044 0.470632 0.000000
0.185237 0.467148 0.000000
0.265005 0.463724 0.000000
0.343657 0.460349 0.000000
0.421392 0.457013 0.000000
0.498351 0.453711 0.000000
0.574637 0.450437 0.000000
0.650331 0.447188 0.000000
0.725497 0.443963 0.000000
0.800184 0.440758 0.000000
0.874437 0.437571 0.000000
0.948291 0.434402 0.000000
1.000000 0.431248 0.000000
1.000000 0.428109 0.000000
0.000000 0.546966 0.000000
0.000000 0.546449 0.000000
0.009883 0.542747 0.000000
0.093031 0.539179 0.000000
0.174224 0.535695 0.000000
0.253992 0.532272 0.000000
0.332644 0.528896 0.000000
0.410379 0.525560 0.000000
0.487337 0.522258 0.000000
0.563624 0.518984 0.000000
0.639318 0.515736 0.000000
0.714483 0.512510 0.000000
0.789171 0.509305 0.000000
0.863424 0.506118 0.000000
0.937278 0.502949 0.000000
1.000000 0.499795 0.000000
1.000000 0.496656 0.000000
0.000000 0.614981 0.000000
0.000000 0.614464 0.000000
0.000000 0.610762 0.000000
0.082104 0.607194 0.000000
0.163296 0.603710 0.000000
0.243064 0.600286 0.000000
0.321716 0.596911 0.000000
0.399451 0.593575 0.000000
0.476410 0.590273 0.000000
0.552696 0.586999 0.000000
0.628390 0.583750 0.000000
0.703556 0.580525 0.000000
0.778244 0.577320 0.000000
0.852496 0.574133 0.000000
0.926350 0.570964 0.000000
0.999835 0.567810 0.000000
1.000000 0.564671 0.000000
0.000000 0.682521 0.000000
0.000000 0.682003 0.000000
0.000000 0.678302 0.000000
0.071252 0.674734 0.000000
0.152445 0.671249 0.000000
0.232213 0.667826 0.000000
0.310865 0.664451 0.000000
0.388600 0.661115 0.000000
0.465558 0.657812 0.000000
0.541845 0.654538 0.000000
0.617539 0.651290 0.000000
0.692704 0.648064 0.000000
0.767392 0.644859 0.000000
0.841645 0.641673 0.000000
0.915499 0.638503 0.000000
0.988984 0.635350 0.000000
1.000000 0.632211 0.000000
0.000000 0.749631 0.000000
0.000000 0.749114 0.000000
0.000000 0.745412 0.000000
0.060470 0.741844 0.000000
0.141662 0.738360 0.000000
0.221431 0.734937 0.000000
0.300082 0.731561 0.000000
0.377817 0.728225 0.000000
0.454776 0.724923 0.000000
0.531063 0.721649 0.000000
0.606757 0.718401 0.000000
0.681922 0.715175 0.000000
0.756610 0.711970 0.000000
0.830863 0.708783 0.000000
0.904716 0.705614 0.000000
0.978202 0.702460 0.000000
1.000000 0.699322 0.000000
0.000000 0.816351 0.000000
0.000000 0.815834 0.000000
0.000000 0.812132 0.000000
0.049750 0.808564 0.000000
0.130943 0.805080 0.000000
0.210711 0.801656 0.000000
0.289363 0.798281 0.000000
0.367098 0.794945 0.000000
0.444056 0.791643 0.000000
0.520343 0.788369 0.000000
0.596037 0.785120 0.000000
0.671202 0.781895 0.000000
0.745890 0.778690 0.000000
0.820143 0.775503 0.000000
0.893997 0.772334 0.000000
0.967482 0.769180 0.000000
1.000000 0.766041 0.000000
0.000000 0.882712 0.000000
0.000000 0.882195 0.000000
0.000000 0.878493 0.000000
0.039088 0.874925 0.000000
0.120281 0.871441 0.000000
0.200049 0.868018 0.000000
0.278701 0.864642 0.000000
0.356436 0.861306 0.000000
0.433394 0.858004 0.000000
0.509681 0.854730 0.000000
0.585375 0.851482 0.000000
0.660540 0.848256 0.000000
0.735228 0.845051 0.000000
0.809481 0.841864 0.000000
0.883335 0.838695 0.000000
0.956820 0.835541 0.000000
1.000000 0.832402 0.000000
0.000000 0.948742 0.000000
0.000000 0.948225 0.000000
0.000000 0.944523 0.000000
0.028479 0.940955 0.000000
0.109672 0.937471 0.000000
0.189440 0.934047 0.000000
0.268092 0.930672 0.000000
0.345827 0.927336 0.000000
0.422786 0.924034 0.000000
0.499072 0.920760 0.000000
0.574766 0.917511 0.000000
0.649932 0.914286 0.000000
0.724619 0.911081 0.000000
0.798872 0.907894 0.000000
0.872726 0.904725 0.000000
0.946211 0.901571 0.000000
1.000000 0.898432 0.000000
0.000000 1.000000 0.000000
0.000000 1.000000 0.000000
0.000000 1.000000 0.000000
0.017920 1.000000 0.000000
0.099112 1.000000 0.000000
0.178881 0.999770 0.000000
0.257533 0.996394 0.000000
0.335268 0.993058 0.000000
0.412226 0.989756 0.000000
0.488513 0.986482 0.000000
0.564207 0.983234 0.000000
0.639372 0.980008 0.000000
0.714060 0.976803 0.000000
0.788313 0.973616 0.000000
0.862167 0.970447 0.000000
0.935652 0.967293 0.000000
1.000000 0.964155 0.000000
0.000000 0.000000 0.121879
0.010325 0.000000 0.121362
0.096581 0.000000 0.117661
0.179729 0.000000 0.114092
0.260921 0.000000 0.110608
0.340689 0.000000 0.107185
0.419341 0.000000 0.103810
0.497076 0.000000 0.100474
0.574035 0.000000 0.097171
0.650321 0.000000 0.093897
0.726016 0.000000 0.090649
0.801181 0.000000 0.087423
0.875869 0.000000 0.084218
0.950122 0.000000 0.081032
1.000000 0.000000 0.077862
1.000000 0.000000 0.074709
1.000000 0.000000 0.071570
0.000000 0.000000 0.121879
0.010325 0.000000 0.121362
0.096581 0.000000 0.117661
0.179729 0.000000 0.114092
0.260921 0.000000 0.110608
0.340689 0.000000 0.107185
0.419341 0.000000 0.103810
0.497076 0.000000 0.100474
0.574035 0.000000 0.097171
0.650321 0.000000 0.093897
0.726016 0.000000 0.090649
0.801181 0.000000 0.087423
0.875869 0.000000 0.084218
0.950122 0.000000 0.081032
1.000000 0.000000 0.077862
1.000000 0.000000 0.074709
1.000000 0.000000 0.071570
0.000000 0.048146 0.113866
0.002312 0.047629 0.113349
0.088568 0.043928 0.109648
0.171716 0.040359 0.106079
0.252908 0.036875 0.102595
0.332676 0.033452 0.099172
0.411328 0.030077 0.095797
0.489063 0.026741 0.092461
0.566022 0.023438 0.089158
0.642308 0.020164 0.085884
0.718003 0.016916 0.082636
0.793168 0.013690 0.079410
0.867856 0.010485 0.076205
0.942109 0.007299 0.073019
1.000000 0.004129 0.069849
1.000000 0.000976 0.066696
1.000000 0.000000 0.063557
0.000000 0.122859 0.101863
0.000000 0.122342 0.101345
0.076564 0.118640 0.097644
0.159712 0.115072 0.094076
0.240904 0.111588 0.090591
0.320673 0.108164 0.087168
0.399324 0.104789 0.083793
0.477059 0.101453 0.080457
0.554018 0.098151 0.077154
0.630305 0.094877 0.073880
0.705999 0.091628 0.070632
0.781164 0.088403 0.067406
0.855852 0.085198 0.064201
0.930105 0.082011 0.061015
1.000000 0.078842 0.057845
1.000000 0.075688 0.054692
1.000000 0.072549 0.051553
0.000000 0.195814 0.090141
0.000000 0.195297 0.089624
0.064842 0.191595 0.085922
0.147990 0.188027 0.082354
0.229183 0.184543 0.078870
0.308951 0.181120 0.075447
0.387603 0.177744 0.072071
0.465338 0.174408 0.068735
0.542297 0.171106 0.065433
0.618583 0.167832 0.062159
0.694277 0.164584 0.058911
0.769443 0.161358 0.055685
0.844130 0.158153 0.052480
0.918383 0.154966 0.049293
0.992237 0.151797 0.046124
1.000000 0.148643 0.042970
1.000000 0.145504 0.039832
0.000000 0.267490 0.078625
0.000000 0.266973 0.078108
0.053327 0.263271 0.074407
0.136475 0.259703 0.070838
0.217667 0.256218 0.067354
0.297435 0.252795 0.063931
0.376087 0.249420 0.060556
0.453822 0.246084 0.057220
0.530781 0.242781 0.053917
0.607067 0.239508 0.050643
0.682761 0.236259 0.047395
0.757927 0.233034 0.044169
0.832615 0.229828 0.040964
0.906867 0.226642 0.037777
0.980721 0.223473 0.034608
1.000000 0.220319 0.031455
1.000000 0.217180 0.028316
0.000000 0.338162 0.067271
0.000000 0.337645 0.066753
0.041972 0.333943 0.063052
0.125120 0.330375 0.059484
0.206312 0.326891 0.055999
0.286081 0.323468 0.052576
0.364732 0.320092 0.049201
0.442467 0.316756 0.045865
0.519426 0.313454 0.042562
0.595713 0.310180 0.039289
0.671407 0.306932 0.036040
0.746572 0.303706 0.032814
0.821260 0.300501 0.029609
0.895513 0.297314 0.026423
0.969367 0.294145 0.023253
1.000000 0.290991 0.020100
1.000000 0.287852 0.016961
0.000000 0.408011 0.056048
0.000000 0.407494 0.055531
0.030750 0.403792 0.051830
0.113898 0.400224 0.048261
0.195090 0.396739 0.044777
0.274858 0.393316 0.041354
0.353510 0.389941 0.037979
0.431245 0.386605 0.034643
0.508204 0.383302 0.031340
0.584490 0.380029 0.028066
0.660185 0.376780 0.024818
0.735350 0.373555 0.021592
0.810038 0.370349 0.018387
0.884291 0.367163 0.015201
0.958144 0.363994 0.012031
1.000000 0.360840 0.008878
1.000000 0.357701 0.005739
0.000000 0.477162 0.044938
0.000000 0.476645 0.044421
0.019639 0.472943 0.040719
0.102787 0.469375 0.037151
0.183980 0.465891 0.033667
0.263748 0.462467 0.030244
0.342400 0.459092 0.026868
0.420135 0.455756 0.023532
0.497094 0.452454 0.020230
0.573380 0.449180 0.016956
0.649074 0.445931 0.013708
0.724240 0.442706 0.010482
0.798927 0.439501 0.007277
0.873180 0.436314 0.004090
0.947034 0.433145 0.000921
1.000000 0.429991 0.000000
1.000000 0.426852 0.000000
0.000000 0.545709 0.033925
0.000000 0.545192 0.033408
0.008626 0.541490 0.029706
0.091774 0.537922 0.026138
0.172967 0.534438 0.022654
0.252735 0.531014 0.019230
0.331387 0.527639 0.015855
0.409122 0.524303 0.012519
0.486080 0.521001 0.009217
0.562367 0.517727 0.005943
0.638061 0.514478 0.002694
0.713226 0.511253 0.000000
0.787914 0.508048 0.000000
0.862167 0.504861 0.000000
0.936021 0.501692 0.000000
1.000000 0.498538 0.000000
1.000000 0.495399 0.000000
0.000000 0.613724 0.022997
0.000000 0.613207 0.022480
0.000000 0.609505 0.018778
0.080847 0.605937 0.015210
0.162039 0.602453 0.011726
0.241807 0.599029 0.008303
0.320459 0.595654 0.004927
0.398194 0.592318 0.001591
0.475153 0.589016 0.000000
0.551439 0.585742 0.000000
0.627133 0.582493 0.000000
0.702299 0.579268 0.000000
0.776987 0.576063 0.000000
0.851239 0.572876 0.000000
0.925093 0.569707 0.000000
0.998578 0.566553 0.000000
1.000000 0.563414 0.000000
0.000000 0.681264 0.012146
0.000000 0.680746 0.011629
0.000000 0.677045 0.007927
0.069995 0.673477 0.004359
0.151187 0.669992 0.000875
0.230956 0.666569 0.000000
0.309608 0.663194 0.000000
0.387343 0.659858 0.000000
0.464301 0.656555 0.000000
0.540588 0.653281 0.000000
0.616282 0.650033 0.000000
0.691447 0.646807 0.000000
0.766135 0.643602 0.000000
0.840388 0.640416 0.000000
0.914242 0.637246 0.000000
0.987727 0.634093 0.000000
1.000000 0.630954 0.000000
0.000000 0.748374 0.001364
0.000000 0.747857 0.000846
0.000000 0.744155 0.000000
0.059213 0.740587 0.000000
0.140405 0.737103 0.000000
0.220173 0.733680 0.000000
0.298825 0.730304 0.000000
0.376560 0.726968 0.000000
0.453519 0.723666 0.000000
0.529805 0.720392 0.000000
0.605500 0.717144 0.000000
0.680665 0.713918 0.000000
0.755353 0.710713 0.000000
0.829606 0.707526 0.000000
0.903459 0.704357 0.000000
0.976944 0.701203 0.000000
1.000000 0.698064 0.000000
0.000000 0.815094 0.000000
0.000000 0.814577 0.000000
0.000000 0.810875 0.000000
0.048493 0.807307 0.000000
0.129685 0.803823 0.000000
0.209454 0.800399 0.000000
0.288106 0.797024 0.000000
0.365841 0.793688 0.000000
0.442799 0.790386 0.000000
0.519086 0.787112 0.000000
0.594780 0.783863 0.000000
0.669945 0.780638 0.000000
0.744633 0.777433 0.000000
0.818886 0.774246 0.000000
0.892740 0.771077 0.000000
0.966225 0.767923 0.000000
1.000000 0.764784 0.000000
0.000000 0.881455 0.000000
0.000000 0.880938 0.000000
0.000000 0.877236 0.000000
0.037831 0.873668 0.000000
0.119023 0.870184 0.000000
0.198792 0.866760 0.000000
0.277444 0.863385 0.000000
0.355179 0.860049 0.000000
0.432137 0.856747 0.000000
0.508424 0.853473 0.000000
0.584118 0.850225 0.000000
0.659283 0.846999 0.000000
0.733971 0.843794 0.000000
0.808224 0.840607 0.000000
0.882078 0.837438 0.000000
0.955563 0.834284 0.000000
1.000000 0.831145 0.000000
0.000000 0.947485 0.000000
0.000000 0.946968 0.000000
0.000000 0.943266 0.000000
0.027222 0.939698 0.000000
0.108415 0.936214 0.000000
0.188183 0.932790 0.000000
0.266835 0.929415 0.000000
0.344570 0.926079 0.000000
0.421529 0.922777 0.000000
0.497815 0.919503 0.000000
0.573509 0.916254 0.000000
0.648675 0.913029 0.000000
0.723362 0.909824 0.000000
0.797615 0.906637 0.000000
0.871469 0.903468 0.000000
0.944954 0.900314 0.000000
1.000000 0.897175 0.000000
0.000000 1.000000 0.000000
0.000000 1.000000 0.000000
0.000000 1.000000 0.000000
0.016663 1.000000 0.000000
0.097855 1.000000 0.000000
0.177624 0.998513 0.000000
0.256275 0.995137 0.000000
0.334010 0.991801 0.000000
0.410969 0.988499 0.000000
0.487256 0.985225 0.000000
0.562950 0.981977 0.000000
0.638115 0.978751 0.000000
0.712803 0.975546 0.000000
0.787056 0.972359 0.000000
0.860910 0.969190 0.000000
0.934395 0.966036 0.000000
1.000000 0.962897 0.000000
0.000000 0.000000 0.207384
0.009113 0.000000 0.206867
0.095369 0.000000 0.203165
0.178517 0.000000 0.199597
0.259709 0.000000 0.196113
0.339478 0.000000 0.192689
0.418129 0.000000 0.189314
0.495864 0.000000 0.185978
0.572823 0.000000 0.182676
0.649110 0.000000 0.179402
0.724804 0.000000 0.176153
0.799969 0.000000 0.172928
0.874657 0.000000 0.169723
0.948910 0.000000 0.166536
1.000000 0.000000 0.163367
1.000000 0.000000 0.160213
1.000000 0.000000 0.157074
