installer/msi/cep-src/luts/worldwide_dark.cube
TITLE "FlagshipEditor original preset: worldwide_dark.cube"
LUT_3D_SIZE 17
DOMAIN_MIN 0.0 0.0 0.0
DOMAIN_MAX 1.0 1.0 1.0
0.000000 0.000000 0.000000
0.000000 0.000000 0.000000
0.034599 0.000000 0.000000
0.087454 0.000000 0.000000
0.139950 0.000000 0.000000
0.192182 0.000000 0.000000
0.244203 0.000000 0.000000
0.296051 0.000000 0.000000
0.347750 0.000000 0.000000
0.399320 0.000000 0.000000
0.450776 0.000000 0.000000
0.502128 0.000000 0.000000
0.553387 0.000000 0.000000
0.604560 0.000000 0.000000
0.655655 0.000000 0.000000
0.706676 0.000000 0.000000
0.757630 0.000000 0.000000
0.000000 0.000000 0.000000
0.000000 0.000000 0.000000
0.041790 0.000000 0.000000
0.094645 0.000000 0.000000
0.147141 0.000000 0.000000
0.199372 0.000000 0.000000
0.251394 0.000000 0.000000
0.303242 0.000000 0.000000
0.354941 0.000000 0.000000
0.406511 0.001293 0.000000
0.457966 0.003295 0.000000
0.509319 0.005294 0.000000
0.560577 0.007289 0.000000
0.611751 0.009281 0.000000
0.662845 0.011269 0.000000
0.713867 0.013255 0.000000
0.764821 0.015238 0.000000
0.000000 0.041207 0.000000
0.000000 0.043344 0.000000
0.048783 0.045423 0.000000
0.101637 0.047480 0.000000
0.154134 0.049523 0.000000
0.206365 0.051556 0.000000
0.258387 0.053581 0.000000
0.310235 0.055599 0.000000
0.361934 0.057611 0.000000
0.413504 0.059618 0.000000
0.464959 0.061620 0.000000
0.516312 0.063619 0.000000
0.567570 0.065614 0.000000
0.618744 0.067605 0.000000
0.669838 0.069594 0.000000
0.720860 0.071580 0.000000
0.771813 0.073563 0.000000
0.000000 0.098924 0.000000
0.002292 0.101062 0.000000
0.055703 0.103140 0.000000
0.108557 0.105197 0.000000
0.161054 0.107241 0.000000
0.213285 0.109273 0.000000
0.265307 0.111298 0.000000
0.317155 0.113316 0.000000
0.368854 0.115328 0.000000
0.420424 0.117335 0.000000
0.471879 0.119338 0.000000
0.523232 0.121336 0.000000
0.574490 0.123331 0.000000
0.625664 0.125323 0.000000
0.676758 0.127311 0.000000
0.727780 0.129297 0.001262
0.778734 0.131280 0.003246
0.000000 0.156250 0.000000
0.009166 0.158388 0.000000
0.062576 0.160467 0.000000
0.115431 0.162524 0.000000
0.167927 0.164567 0.000000
0.220159 0.166600 0.000000
0.272180 0.168624 0.000000
0.324028 0.170642 0.000000
0.375727 0.172654 0.000000
0.427297 0.174661 0.000000
0.478753 0.176664 0.000000
0.530105 0.178663 0.000175
0.581364 0.180658 0.002170
0.632537 0.182649 0.004161
0.683632 0.184638 0.006150
0.734653 0.186623 0.008136
0.785607 0.188607 0.010119
0.000000 0.213288 0.000000
0.016004 0.215425 0.000000
0.069415 0.217504 0.000000
0.122269 0.219561 0.000000
0.174765 0.221604 0.000000
0.226997 0.223637 0.000000
0.279019 0.225662 0.000000
0.330867 0.227680 0.000000
0.382566 0.229692 0.001005
0.434136 0.231699 0.003012
0.485591 0.233701 0.005015
0.536943 0.235700 0.007013
0.588202 0.237695 0.009008
0.639375 0.239687 0.011000
0.690470 0.241675 0.012988
0.741492 0.243661 0.014974
0.792445 0.245644 0.016957
0.000000 0.270096 0.000000
0.022815 0.272233 0.000000
0.076226 0.274312 0.000000
0.129080 0.276369 0.000000
0.181576 0.278412 0.000000
0.233808 0.280445 0.001761
0.285830 0.282470 0.003786
0.337678 0.284488 0.005804
0.389377 0.286500 0.007816
0.440947 0.288507 0.009823
0.492402 0.290509 0.011826
0.543754 0.292508 0.013824
0.595013 0.294503 0.015819
0.646186 0.296495 0.017811
0.697281 0.298483 0.019799
0.748303 0.300469 0.021785
0.799256 0.302452 0.023768
0.000000 0.326714 0.000000
0.029603 0.328852 0.000338
0.083014 0.330930 0.002417
0.135868 0.332987 0.004474
0.188365 0.335031 0.006517
0.240596 0.337063 0.008550
0.292618 0.339088 0.010574
0.344466 0.341106 0.012592
0.396165 0.343118 0.014604
0.447735 0.345125 0.016611
0.499190 0.347128 0.018614
0.550543 0.349126 0.020613
0.601801 0.351121 0.022608
0.652975 0.353113 0.024599
0.704069 0.355101 0.026588
0.755091 0.357087 0.028573
0.806045 0.359070 0.030557
0.000000 0.383170 0.004969
0.036372 0.385308 0.007107
0.089783 0.387386 0.009186
0.142637 0.389443 0.011243
0.195134 0.391487 0.013286
0.247365 0.393519 0.015319
0.299387 0.395544 0.017343
0.351235 0.397562 0.019361
0.402934 0.399574 0.021373
0.454504 0.401581 0.023380
0.505959 0.403584 0.025383
0.557311 0.405582 0.027381
0.608570 0.407577 0.029376
0.659744 0.409569 0.031368
0.710838 0.411557 0.033357
0.761860 0.413543 0.035342
0.812813 0.415526 0.037325
0.000000 0.439485 0.011721
0.043124 0.441622 0.013859
0.096535 0.443701 0.015937
0.149389 0.445758 0.017994
0.201885 0.447801 0.020038
0.254117 0.449834 0.022070
0.306139 0.451859 0.024095
0.357987 0.453877 0.026113
0.409686 0.455889 0.028125
0.461256 0.457896 0.030132
0.512711 0.459898 0.032135
0.564063 0.461897 0.034133
0.615322 0.463892 0.036128
0.666495 0.465884 0.038120
0.717590 0.467872 0.040108
0.768612 0.469858 0.042094
0.819565 0.471841 0.044077
0.000000 0.495674 0.018458
0.049861 0.497812 0.020596
0.103272 0.499891 0.022674
0.156126 0.501948 0.024731
0.208622 0.503991 0.026774
0.260854 0.506024 0.028807
0.312876 0.508048 0.030832
0.364723 0.510066 0.032850
0.416423 0.512078 0.034862
0.467993 0.514085 0.036869
0.519448 0.516088 0.038872
0.570800 0.518086 0.040870
0.622059 0.520081 0.042865
0.673232 0.522073 0.044857
0.724327 0.524062 0.046845
0.775349 0.526047 0.048831
0.826302 0.528030 0.050814
0.001661 0.551751 0.025181
0.056584 0.553889 0.027319
0.109995 0.555968 0.029398
0.162849 0.558025 0.031455
0.215346 0.560068 0.033498
0.267577 0.562101 0.035531
0.319599 0.564125 0.037555
0.371447 0.566143 0.039573
0.423146 0.568155 0.041585
0.474716 0.570162 0.043592
0.526171 0.572165 0.045595
0.577523 0.574163 0.047594
0.628782 0.576158 0.049588
0.679956 0.578150 0.051580
0.731050 0.580139 0.053569
0.782072 0.582124 0.055554
0.833025 0.584107 0.057537
0.008373 0.607726 0.031893
0.063295 0.609864 0.034030
0.116706 0.611943 0.036109
0.169560 0.614000 0.038166
0.222057 0.616043 0.040209
0.274288 0.618076 0.042242
0.326310 0.620100 0.044266
0.378158 0.622118 0.046284
0.429857 0.624130 0.048296
0.481427 0.626137 0.050303
0.532882 0.628140 0.052306
0.584235 0.630139 0.054305
0.635493 0.632133 0.056300
0.686667 0.634125 0.058291
0.737761 0.636114 0.060280
0.788783 0.638099 0.062266
0.839737 0.640082 0.064249
0.015073 0.663608 0.038593
0.069995 0.665746 0.040730
0.123406 0.667824 0.042809
0.176260 0.669881 0.044866
0.228757 0.671925 0.046909
0.280988 0.673957 0.048942
0.333010 0.675982 0.050966
0.384858 0.678000 0.052984
0.436557 0.680012 0.054996
0.488127 0.682019 0.057003
0.539582 0.684022 0.059006
0.590935 0.686020 0.061005
0.642193 0.688015 0.063000
0.693367 0.690007 0.064991
0.744461 0.691995 0.066980
0.795483 0.693981 0.068965
0.846437 0.695964 0.070949
0.021762 0.719404 0.045282
0.076685 0.721541 0.047420
0.130096 0.723620 0.049498
0.182950 0.725677 0.051555
0.235446 0.727720 0.053599
0.287678 0.729753 0.055631
0.339700 0.731778 0.057656
0.391548 0.733796 0.059674
0.443247 0.735808 0.061686
0.494817 0.737815 0.063693
0.546272 0.739817 0.065696
0.597624 0.741816 0.067694
0.648883 0.743811 0.069689
0.700056 0.745802 0.071681
0.751151 0.747791 0.073669
0.802173 0.749777 0.075655
0.853126 0.751760 0.077638
0.028442 0.775120 0.051962
0.083365 0.777257 0.054100
0.136776 0.779336 0.056179
0.189630 0.781393 0.058236
0.242126 0.783436 0.060279
0.294358 0.785469 0.062311
0.346380 0.787494 0.064336
0.398228 0.789512 0.066354
0.449927 0.791524 0.068366
0.501497 0.793531 0.070373
0.552952 0.795533 0.072376
0.604304 0.797532 0.074374
0.655563 0.799527 0.076369
0.706737 0.801518 0.078361
0.757831 0.803507 0.080349
0.808853 0.805493 0.082335
0.859806 0.807476 0.084318
0.035113 0.830761 0.058633
0.090036 0.832899 0.060771
0.143447 0.834978 0.062850
0.196301 0.837035 0.064907
0.248798 0.839078 0.066950
0.301029 0.841111 0.068983
0.353051 0.843135 0.071007
0.404899 0.845153 0.073025
0.456598 0.847165 0.075037
0.508168 0.849172 0.077044
0.559623 0.851175 0.079047
0.610976 0.853174 0.081046
0.662234 0.855168 0.083040
0.713408 0.857160 0.085032
0.764502 0.859149 0.087021
0.815524 0.861134 0.089006
0.866477 0.863117 0.090989
0.000000 0.000000 0.003297
0.000000 0.000000 0.005435
0.035325 0.000000 0.007513
0.088180 0.000000 0.009570
0.140676 0.000000 0.011613
0.192908 0.000000 0.013646
0.244929 0.000000 0.015671
0.296777 0.000000 0.017689
0.348476 0.000000 0.019701
0.400046 0.000000 0.021708
0.451501 0.000000 0.023711
0.502854 0.000000 0.025709
0.554113 0.000000 0.027704
0.605286 0.000000 0.029696
0.656380 0.000000 0.031684
0.707402 0.000000 0.033670
0.758356 0.000000 0.035653
0.000000 0.000000 0.010488
0.000000 0.000000 0.012625
0.042516 0.000000 0.014704
0.095370 0.000000 0.016761
0.147867 0.000000 0.018804
0.200098 0.000000 0.020837
0.252120 0.000000 0.022862
0.303968 0.000000 0.024880
0.355667 0.000012 0.026892
0.407237 0.002019 0.028899
0.458692 0.004021 0.030901
0.510045 0.006020 0.032900
0.561303 0.008015 0.034895
0.612477 0.010007 0.036887
0.663571 0.011995 0.038875
0.714593 0.013981 0.040861
0.765547 0.015964 0.042844
0.000000 0.041933 0.017481
0.000000 0.044070 0.019618
0.049509 0.046149 0.021697
0.102363 0.048206 0.023754
0.154860 0.050249 0.025797
0.207091 0.052282 0.027830
0.259113 0.054307 0.029855
0.310961 0.056324 0.031873
0.362660 0.058337 0.033885
0.414230 0.060344 0.035892
0.465685 0.062346 0.037894
0.517037 0.064345 0.039893
0.568296 0.066340 0.041888
0.619470 0.068331 0.043879
0.670564 0.070320 0.045868
0.721586 0.072306 0.047854
0.772539 0.074289 0.049837
0.000000 0.099650 0.024401
0.003018 0.101788 0.026538
0.056429 0.103866 0.028617
0.109283 0.105923 0.030674
0.161780 0.107966 0.032717
0.214011 0.109999 0.034750
0.266033 0.112024 0.036775
0.317881 0.114042 0.038793
0.369580 0.116054 0.040805
0.421150 0.118061 0.042812
0.472605 0.120064 0.044814
0.523958 0.122062 0.046813
0.575216 0.124057 0.048808
0.626390 0.126049 0.050799
0.677484 0.128037 0.052788
0.728506 0.130023 0.054774
0.779459 0.132006 0.056757
0.000000 0.156976 0.031274
0.009892 0.159114 0.033412
0.063302 0.161193 0.035490
0.116157 0.163250 0.037547
0.168653 0.165293 0.039590
0.220884 0.167326 0.041623
0.272906 0.169350 0.043648
0.324754 0.171368 0.045666
0.376453 0.173380 0.047678
0.428023 0.175387 0.049685
0.479478 0.177390 0.051687
0.530831 0.179388 0.053686
0.582089 0.181383 0.055681
0.633263 0.183375 0.057673
0.684357 0.185364 0.059661
0.735379 0.187349 0.061647
0.786333 0.189332 0.063630
0.000000 0.214014 0.038112
0.016730 0.216151 0.040250
0.070141 0.218230 0.042329
0.122995 0.220287 0.044386
0.175491 0.222330 0.046429
0.227723 0.224363 0.048462
0.279745 0.226388 0.050486
0.331592 0.228406 0.052504
0.383292 0.230418 0.054516
0.434862 0.232425 0.056523
0.486317 0.234427 0.058526
0.537669 0.236426 0.060525
0.588928 0.238421 0.062520
0.640101 0.240412 0.064511
0.691196 0.242401 0.066500
0.742218 0.244387 0.068485
0.793171 0.246370 0.070469
0.000000 0.270822 0.044924
0.023541 0.272959 0.047061
0.076952 0.275038 0.049140
0.129806 0.277095 0.051197
0.182302 0.279138 0.053240
0.234534 0.281171 0.055273
0.286556 0.283196 0.057297
0.338404 0.285214 0.059315
0.390103 0.287226 0.061327
0.441673 0.289233 0.063334
0.493128 0.291235 0.065337
0.544480 0.293234 0.067336
0.595739 0.295229 0.069331
0.646912 0.297221 0.071322
0.698007 0.299209 0.073311
0.749029 0.301195 0.075296
0.799982 0.303178 0.077280
0.000000 0.327440 0.051712
0.030329 0.329578 0.053849
0.083740 0.331656 0.055928
0.136594 0.333713 0.057985
0.189091 0.335756 0.060028
0.241322 0.337789 0.062061
0.293344 0.339814 0.064086
0.345192 0.341832 0.066104
0.396891 0.343844 0.068116
0.448461 0.345851 0.070123
0.499916 0.347854 0.072125
0.551268 0.349852 0.074124
0.602527 0.351847 0.076119
0.653701 0.353839 0.078110
0.704795 0.355827 0.080099
0.755817 0.357813 0.082085
0.806770 0.359796 0.084068
0.000000 0.383896 0.058481
0.037098 0.386034 0.060618
0.090509 0.388112 0.062697
0.143363 0.390169 0.064754
0.195859 0.392213 0.066797
0.248091 0.394245 0.068830
0.300113 0.396270 0.070854
0.351961 0.398288 0.072872
0.403660 0.400300 0.074884
0.455230 0.402307 0.076892
0.506685 0.404310 0.078894
0.558037 0.406308 0.080893
0.609296 0.408303 0.082888
0.660469 0.410295 0.084879
0.711564 0.412283 0.086868
0.762586 0.414269 0.088854
0.813539 0.416252 0.090837
0.000000 0.440211 0.065232
0.043850 0.442348 0.067370
0.097261 0.444427 0.069449
0.150115 0.446484 0.071506
0.202611 0.448527 0.073549
0.254843 0.450560 0.075582
0.306865 0.452585 0.077606
0.358712 0.454603 0.079624
0.410412 0.456615 0.081636
0.461982 0.458622 0.083643
0.513437 0.460624 0.085646
0.564789 0.462623 0.087645
0.616048 0.464618 0.089640
0.667221 0.466610 0.091631
0.718316 0.468598 0.093620
0.769338 0.470584 0.095605
0.820291 0.472567 0.097589
0.000000 0.496400 0.071969
0.050587 0.498538 0.074107
0.103998 0.500617 0.076186
0.156852 0.502674 0.078243
0.209348 0.504717 0.080286
0.261580 0.506750 0.082319
0.313602 0.508774 0.084343
0.365449 0.510792 0.086361
0.417149 0.512804 0.088373
0.468719 0.514811 0.090380
0.520174 0.516814 0.092383
0.571526 0.518812 0.094381
0.622785 0.520807 0.096376
0.673958 0.522799 0.098368
0.725053 0.524788 0.100357
0.776074 0.526773 0.102342
0.827028 0.528756 0.104325
0.002387 0.552477 0.078693
0.057310 0.554615 0.080830
0.110721 0.556694 0.082909
0.163575 0.558751 0.084966
0.216072 0.560794 0.087009
0.268303 0.562827 0.089042
0.320325 0.564851 0.091067
0.372173 0.566869 0.093084
0.423872 0.568881 0.095097
0.475442 0.570888 0.097104
0.526897 0.572891 0.099106
0.578249 0.574889 0.101105
0.629508 0.576884 0.103100
0.680682 0.578876 0.105091
0.731776 0.580865 0.107080
0.782798 0.582850 0.109066
0.833751 0.584833 0.111049
0.009098 0.608452 0.085404
0.064021 0.610590 0.087541
0.117432 0.612669 0.089620
0.170286 0.614726 0.091677
0.222783 0.616769 0.093720
0.275014 0.618802 0.095753
0.327036 0.620826 0.097778
0.378884 0.622844 0.099796
0.430583 0.624856 0.101808
0.482153 0.626863 0.103815
0.533608 0.628866 0.105817
0.584961 0.630864 0.107816
0.636219 0.632859 0.109811
0.687393 0.634851 0.111803
0.738487 0.636840 0.113791
0.789509 0.638825 0.115777
0.840463 0.640808 0.117760
0.015798 0.664334 0.092104
0.070721 0.666472 0.094241
0.124132 0.668550 0.096320
0.176986 0.670607 0.098377
0.229483 0.672650 0.100420
0.281714 0.674683 0.102453
0.333736 0.676708 0.104478
0.385584 0.678726 0.106496
0.437283 0.680738 0.108508
0.488853 0.682745 0.110515
0.540308 0.684748 0.112517
0.591661 0.686746 0.114516
0.642919 0.688741 0.116511
0.694093 0.690733 0.118502
0.745187 0.692721 0.120491
0.796209 0.694707 0.122477
0.847162 0.696690 0.124460
0.022488 0.720130 0.098793
0.077411 0.722267 0.100931
0.130822 0.724346 0.103010
0.183676 0.726403 0.105067
0.236172 0.728446 0.107110
0.288404 0.730479 0.109143
0.340426 0.732504 0.111167
0.392273 0.734521 0.113185
0.443973 0.736534 0.115197
0.495543 0.738541 0.117204
0.546998 0.740543 0.119207
0.598350 0.742542 0.121206
0.649609 0.744537 0.123201
0.700782 0.746528 0.125192
0.751877 0.748517 0.127181
0.802899 0.750503 0.129166
0.853852 0.752486 0.131149
0.029168 0.775846 0.105474
0.084091 0.777983 0.107611
0.137502 0.780062 0.109690
0.190356 0.782119 0.111747
0.242852 0.784162 0.113790
0.295084 0.786195 0.115823
0.347106 0.788220 0.117847
0.398954 0.790237 0.119865
0.450653 0.792250 0.121877
0.502223 0.794257 0.123884
0.553678 0.796259 0.125887
0.605030 0.798258 0.127886
0.656289 0.800253 0.129881
0.707462 0.802244 0.131872
0.758557 0.804233 0.133861
0.809579 0.806219 0.135847
0.860532 0.808202 0.137830
0.035839 0.831487 0.112145
0.090762 0.833625 0.114282
0.144173 0.835704 0.116361
0.197027 0.837761 0.118418
0.249524 0.839804 0.120461
0.301755 0.841837 0.122494
0.353777 0.843861 0.124519
0.405625 0.845879 0.126536
0.457324 0.847891 0.128549
0.508894 0.849898 0.130556
0.560349 0.851901 0.132558
0.611701 0.853899 0.134557
0.662960 0.855894 0.136552
0.714134 0.857886 0.138543
0.765228 0.859875 0.140532
0.816250 0.861860 0.142518
0.867203 0.863843 0.144501
0.000000 0.000000 0.055335
0.000000 0.000000 0.057472
0.036031 0.000000 0.059551
0.088886 0.000000 0.061608
0.141382 0.000000 0.063651
0.193613 0.000000 0.065684
0.245635 0.000000 0.067709
0.297483 0.000000 0.069727
0.349182 0.000000 0.071739
0.400752 0.000000 0.073746
0.452207 0.000000 0.075748
0.503560 0.000000 0.077747
0.554818 0.000000 0.079742
0.605992 0.000000 0.081734
0.657086 0.000000 0.083722
0.708108 0.000000 0.085708
0.759062 0.000000 0.087691
0.000000 0.000000 0.062526
0.000000 0.000000 0.064663
0.043222 0.000000 0.066742
0.096076 0.000000 0.068799
0.148573 0.000000 0.070842
0.200804 0.000000 0.072875
0.252826 0.000000 0.074900
0.304674 0.000000 0.076918
0.356373 0.000718 0.078930
0.407943 0.002725 0.080937
0.459398 0.004727 0.082939
0.510751 0.006726 0.084938
0.562009 0.008721 0.086933
0.613183 0.010712 0.088924
0.664277 0.012701 0.090913
0.715299 0.014687 0.092899
0.766252 0.016670 0.094882
0.000000 0.042639 0.069519
0.000000 0.044776 0.071656
0.050215 0.046855 0.073735
0.103069 0.048912 0.075792
0.155566 0.050955 0.077835
0.207797 0.052988 0.079868
0.259819 0.055013 0.081893
0.311667 0.057030 0.083910
0.363366 0.059042 0.085922
0.414936 0.061050 0.087930
0.466391 0.063052 0.089932
0.517743 0.065051 0.091931
0.569002 0.067046 0.093926
0.620176 0.069037 0.095917
0.671270 0.071026 0.097906
0.722292 0.073012 0.099892
0.773245 0.074995 0.101875
0.000000 0.100356 0.076439
0.003724 0.102494 0.078576
0.057135 0.104572 0.080655
0.109989 0.106629 0.082712
0.162486 0.108672 0.084755
0.214717 0.110705 0.086788
0.266739 0.112730 0.088813
0.318587 0.114748 0.090830
0.370286 0.116760 0.092843
0.421856 0.118767 0.094850
0.473311 0.120769 0.096852
0.524663 0.122768 0.098851
0.575922 0.124763 0.100846
0.627096 0.126755 0.102837
0.678190 0.128743 0.104826
0.729212 0.130729 0.106812
0.780165 0.132712 0.108795
0.000000 0.157682 0.083312
0.010597 0.159820 0.085449
0.064008 0.161899 0.087528
0.116862 0.163956 0.089585
0.169359 0.165999 0.091628
0.221590 0.168032 0.093661
0.273612 0.170056 0.095686
0.325460 0.172074 0.097704
0.377159 0.174086 0.099716
0.428729 0.176093 0.101723
0.480184 0.178096 0.103725
0.531537 0.180094 0.105724
0.582795 0.182089 0.107719
0.633969 0.184081 0.109711
0.685063 0.186070 0.111699
0.736085 0.188055 0.113685
0.787039 0.190038 0.115668
0.000000 0.214720 0.090150
0.017436 0.216857 0.092288
0.070847 0.218936 0.094367
0.123701 0.220993 0.096424
0.176197 0.223036 0.098467
0.228429 0.225069 0.100500
0.280451 0.227094 0.102524
0.332298 0.229111 0.104542
0.383998 0.231124 0.106554
0.435568 0.233131 0.108561
0.487023 0.235133 0.110564
0.538375 0.237132 0.112562
0.589634 0.239127 0.114557
0.640807 0.241118 0.116549
0.691902 0.243107 0.118538
0.742924 0.245093 0.120523
0.793877 0.247076 0.122506
0.000000 0.271528 0.096961
0.024247 0.273665 0.099099
0.077658 0.275744 0.101178
0.130512 0.277801 0.103235
0.183008 0.279844 0.105278
0.235240 0.281877 0.107311
0.287262 0.283902 0.109335
0.339109 0.285920 0.111353
0.390809 0.287932 0.113365
0.442379 0.289939 0.115372
0.493834 0.291941 0.117375
0.545186 0.293940 0.119373
0.596445 0.295935 0.121368
0.647618 0.297926 0.123360
0.698713 0.299915 0.125349
0.749735 0.301901 0.127334
0.800688 0.303884 0.129317
0.000000 0.328146 0.103750
0.031035 0.330284 0.105887
0.084446 0.332362 0.107966
0.137300 0.334419 0.110023
0.189797 0.336462 0.112066
0.242028 0.338495 0.114099
0.294050 0.340520 0.116124
0.345898 0.342538 0.118141
0.397597 0.344550 0.120154
0.449167 0.346557 0.122161
0.500622 0.348559 0.124163
0.551974 0.350558 0.126162
0.603233 0.352553 0.128157
0.654407 0.354545 0.130148
0.705501 0.356533 0.132137
0.756523 0.358519 0.134123
0.807476 0.360502 0.136106
0.000000 0.384602 0.110518
0.037804 0.386740 0.112656
0.091215 0.388818 0.114735
0.144069 0.390875 0.116792
0.196565 0.392918 0.118835
0.248797 0.394951 0.120868
0.300819 0.396976 0.122892
0.352667 0.398994 0.124910
0.404366 0.401006 0.126922
0.455936 0.403013 0.128929
0.507391 0.405016 0.130932
0.558743 0.407014 0.132931
0.610002 0.409009 0.134926
0.661175 0.411001 0.136917
0.712270 0.412989 0.138906
0.763292 0.414975 0.140891
0.814245 0.416958 0.142875
0.000000 0.440917 0.117270
0.044556 0.443054 0.119408
0.097967 0.445133 0.121487
0.150821 0.447190 0.123544
0.203317 0.449233 0.125587
0.255549 0.451266 0.127620
0.307571 0.453291 0.129644
0.359418 0.455309 0.131662
0.411118 0.457321 0.133674
0.462688 0.459328 0.135681
0.514143 0.461330 0.137684
0.565495 0.463329 0.139682
0.616754 0.465324 0.141677
0.667927 0.467315 0.143669
0.719022 0.469304 0.145658
0.770044 0.471290 0.147643
0.820997 0.473273 0.149626
0.000000 0.497106 0.124007
0.051293 0.499244 0.126145
0.104703 0.501323 0.128223
0.157558 0.503380 0.130281
0.210054 0.505423 0.132324
0.262286 0.507455 0.134356
0.314307 0.509480 0.136381
0.366155 0.511498 0.138399
0.417855 0.513510 0.140411
0.469425 0.515517 0.142418
0.520880 0.517520 0.144421
0.572232 0.519518 0.146419
0.623491 0.521513 0.148414
0.674664 0.523505 0.150406
0.725759 0.525493 0.152394
0.776780 0.527479 0.154380
0.827734 0.529462 0.156363
0.003093 0.553183 0.130731
0.058016 0.555321 0.132868
0.111427 0.557400 0.134947
0.164281 0.559457 0.137004
0.216777 0.561500 0.139047
0.269009 0.563533 0.141080
0.321031 0.565557 0.143104
0.372879 0.567575 0.145122
0.424578 0.569587 0.147134
0.476148 0.571594 0.149142
0.527603 0.573597 0.151144
0.578955 0.575595 0.153143
0.630214 0.577590 0.155138
0.681388 0.579582 0.157129
0.732482 0.581570 0.159118
0.783504 0.583556 0.161104
0.834457 0.585539 0.163087
0.009804 0.609158 0.137442
0.064727 0.611296 0.139579
0.118138 0.613375 0.141658
0.170992 0.615432 0.143715
0.223489 0.617475 0.145758
0.275720 0.619508 0.147791
0.327742 0.621532 0.149816
0.379590 0.623550 0.151833
0.431289 0.625562 0.153846
0.482859 0.627569 0.155853
0.534314 0.629572 0.157855
0.585667 0.631570 0.159854
0.636925 0.633565 0.161849
0.688099 0.635557 0.163840
0.739193 0.637546 0.165829
0.790215 0.639531 0.167815
0.841168 0.641514 0.169798
0.016504 0.665040 0.144142
0.071427 0.667178 0.146279
0.124838 0.669256 0.148358
0.177692 0.671313 0.150415
0.230189 0.673356 0.152458
0.282420 0.675389 0.154491
0.334442 0.677414 0.156516
0.386290 0.679432 0.158533
0.437989 0.681444 0.160546
0.489559 0.683451 0.162553
0.541014 0.685453 0.164555
0.592366 0.687452 0.166554
0.643625 0.689447 0.168549
0.694799 0.691439 0.170540
0.745893 0.693427 0.172529
0.796915 0.695413 0.174515
0.847868 0.697396 0.176498
0.023194 0.720836 0.150831
0.078117 0.722973 0.152969
0.131528 0.725052 0.155048
0.184382 0.727109 0.157105
0.236878 0.729152 0.159148
0.289110 0.731185 0.161181
0.341132 0.733210 0.163205
0.392979 0.735227 0.165223
0.444679 0.737240 0.167235
0.496249 0.739247 0.169242
0.547704 0.741249 0.171245
0.599056 0.743248 0.173243
0.650315 0.745243 0.175238
0.701488 0.747234 0.177230
0.752583 0.749223 0.179219
0.803604 0.751209 0.181204
0.854558 0.753192 0.183187
0.029874 0.776552 0.157511
0.084797 0.778689 0.159649
0.138208 0.780768 0.161728
0.191062 0.782825 0.163785
0.243558 0.784868 0.165828
0.295790 0.786901 0.167861
0.347812 0.788926 0.169885
0.399659 0.790943 0.171903
0.451359 0.792955 0.173915
0.502929 0.794963 0.175922
0.554384 0.796965 0.177925
0.605736 0.798964 0.179924
0.656995 0.800959 0.181918
0.708168 0.802950 0.183910
0.759263 0.804939 0.185899
0.810285 0.806925 0.187884
0.861238 0.808908 0.189867
0.036545 0.832193 0.164183
0.091468 0.834331 0.166320
0.144879 0.836410 0.168399
0.197733 0.838467 0.170456
0.250230 0.840510 0.172499
0.302461 0.842543 0.174532
0.354483 0.844567 0.176556
0.406331 0.846585 0.178574
0.458030 0.848597 0.180586
0.509600 0.850604 0.182594
0.561055 0.852607 0.184596
0.612407 0.854605 0.186595
0.663666 0.856600 0.188590
0.714840 0.858592 0.190581
0.765934 0.860581 0.192570
0.816956 0.862566 0.194556
0.867909 0.864549 0.196539
0.000000 0.000000 0.106831
0.000000 0.000000 0.108968
0.036730 0.000000 0.111047
0.089584 0.000000 0.113104
0.142080 0.000000 0.115147
0.194312 0.000000 0.117180
0.246334 0.000000 0.119205
0.298182 0.000000 0.121223
0.349881 0.000000 0.123235
0.401451 0.000000 0.125242
0.452906 0.000000 0.127244
0.504258 0.000000 0.129243
0.555517 0.000000 0.131238
0.606690 0.000000 0.133229
0.657785 0.000000 0.135218
0.708807 0.000000 0.137204
0.759760 0.000000 0.139187
