installer/msi/cep-src/luts/worldwide_dark.cube
TITLE "FlagshipEditor original preset: worldwide_dark.cube"
LUT_3D_SIZE 5
DOMAIN_MIN 0.0 0.0 0.0
DOMAIN_MAX 1.0 1.0 1.0
0.000000 0.000000 0.000000
0.139950 0.000000 0.000000
0.347750 0.000000 0.000000
0.553387 0.000000 0.000000
0.757630 0.000000 0.000000
0.000000 0.156250 0.000000
0.167927 0.164567 0.000000
0.375727 0.172654 0.000000
0.581364 0.180658 0.002170
0.785607 0.188607 0.010119
0.000000 0.383170 0.004969
0.195134 0.391487 0.013286
0.402934 0.399574 0.021373
0.608570 0.407577 0.029376
0.812813 0.415526 0.037325
0.008373 0.607726 0.031893
0.222057 0.616043 0.040209
0.429857 0.624130 0.048296
0.635493 0.632133 0.056300
0.839737 0.640082 0.064249
0.035113 0.830761 0.058633
0.248798 0.839078 0.066950
0.456598 0.847165 0.075037
0.662234 0.855168 0.083040
0.866477 0.863117 0.090989
0.000000 0.000000 0.157978
0.142774 0.000000 0.166294
0.350575 0.000000 0.174382
0.556211 0.000000 0.182385
0.760454 0.000000 0.190334
0.000000 0.159075 0.185955
0.170751 0.167391 0.194271
0.378552 0.175479 0.202359
0.584188 0.183482 0.210362
0.788431 0.191431 0.218311
0.000000 0.385994 0.213161
0.197958 0.394311 0.221478
0.405758 0.402398 0.229565
0.611394 0.410402 0.237568
0.815638 0.418350 0.245517
0.011197 0.610551 0.240085
0.224881 0.618867 0.248401
0.432682 0.626955 0.256489
0.638318 0.634958 0.264492
0.842561 0.642907 0.272441
0.037938 0.833586 0.266826
0.251622 0.841902 0.275142
0.459422 0.849990 0.283229
0.665059 0.857993 0.291233
0.869302 0.865942 0.299182
0.000000 0.000000 0.360437
0.145521 0.000000 0.368754
0.353321 0.000000 0.376841
0.558957 0.000000 0.384844
0.763201 0.000000 0.392793
0.000000 0.161821 0.388414
0.173498 0.170138 0.396731
0.381298 0.178225 0.404818
0.586934 0.186228 0.412821
0.791178 0.194177 0.420770
0.000000 0.388741 0.415621
0.200704 0.397057 0.423937
0.408505 0.405145 0.432025
0.614141 0.413148 0.440028
0.818384 0.421097 0.447977
0.013943 0.613297 0.442544
0.227628 0.621614 0.450861
0.435428 0.629701 0.458948
0.641064 0.637704 0.466951
0.845307 0.645653 0.474900
0.040684 0.836332 0.469285
0.254368 0.844649 0.477602
0.462169 0.852736 0.485689
0.667805 0.860739 0.493692
0.872048 0.868688 0.501641
0.000000 0.000000 0.560788
0.148239 0.000000 0.569105
0.356039 0.000000 0.577192
0.561675 0.000000 0.585195
0.765918 0.000000 0.593144
0.000000 0.164539 0.588765
0.176216 0.172856 0.597082
0.384016 0.180943 0.605169
0.589652 0.188946 0.613172
0.793895 0.196895 0.621121
0.000000 0.391459 0.615972
0.203422 0.399775 0.624288
0.411223 0.407863 0.632376
0.616859 0.415866 0.640379
0.821102 0.423815 0.648328
0.016661 0.616015 0.642895
0.230346 0.624332 0.651212
0.438146 0.632419 0.659299
0.643782 0.640422 0.667302
0.848025 0.648371 0.675251
0.043402 0.839050 0.669636
0.257086 0.847367 0.677952
0.464887 0.855454 0.686040
0.670523 0.863457 0.694043
0.874766 0.871406 0.701992
0.000000 0.000000 0.759782
0.150938 0.000000 0.768098
0.358739 0.000000 0.776186
0.564375 0.000000 0.784189
0.768618 0.000000 0.792138
0.000000 0.167239 0.787759
0.178915 0.175555 0.796075
0.386716 0.183643 0.804163
0.592352 0.191646 0.812166
0.796595 0.199595 0.820115
0.000000 0.394158 0.814966
0.206122 0.402475 0.823282
0.413922 0.410562 0.831369
0.619558 0.418565 0.839373
0.823802 0.426514 0.847322
0.019361 0.618715 0.841889
0.233045 0.627031 0.850205
0.440846 0.635119 0.858293
0.646482 0.643122 0.866296
0.850725 0.651071 0.874245
0.046102 0.841750 0.868630
0.259786 0.850066 0.876946
0.467586 0.858154 0.885034
0.673223 0.866157 0.893037
0.877466 0.874106 0.900986
