installer/msi/cep-src/luts/worldwide_dark.cube
TITLE "FlagshipEditor original preset: worldwide_dark.cube"
LUT_3D_SIZE 9
DOMAIN_MIN 0.0 0.0 0.0
DOMAIN_MAX 1.0 1.0 1.0
0.000000 0.000000 0.000000
0.034599 0.000000 0.000000
0.139950 0.000000 0.000000
0.244203 0.000000 0.000000
0.347750 0.000000 0.000000
0.450776 0.000000 0.000000
0.553387 0.000000 0.000000
0.655655 0.000000 0.000000
0.757630 0.000000 0.000000
0.000000 0.041207 0.000000
0.048783 0.045423 0.000000
0.154134 0.049523 0.000000
0.258387 0.053581 0.000000
0.361934 0.057611 0.000000
0.464959 0.061620 0.000000
0.567570 0.065614 0.000000
0.669838 0.069594 0.000000
0.771813 0.073563 0.000000
0.000000 0.156250 0.000000
0.062576 0.160467 0.000000
0.167927 0.164567 0.000000
0.272180 0.168624 0.000000
0.375727 0.172654 0.000000
0.478753 0.176664 0.000000
0.581364 0.180658 0.002170
0.683632 0.184638 0.006150
0.785607 0.188607 0.010119
0.000000 0.270096 0.000000
0.076226 0.274312 0.000000
0.181576 0.278412 0.000000
0.285830 0.282470 0.003786
0.389377 0.286500 0.007816
0.492402 0.290509 0.011826
0.595013 0.294503 0.015819
0.697281 0.298483 0.019799
0.799256 0.302452 0.023768
0.000000 0.383170 0.004969
0.089783 0.387386 0.009186
0.195134 0.391487 0.013286
0.299387 0.395544 0.017343
0.402934 0.399574 0.021373
0.505959 0.403584 0.025383
0.608570 0.407577 0.029376
0.710838 0.411557 0.033357
0.812813 0.415526 0.037325
0.000000 0.495674 0.018458
0.103272 0.499891 0.022674
0.208622 0.503991 0.026774
0.312876 0.508048 0.030832
0.416423 0.512078 0.034862
0.519448 0.516088 0.038872
0.622059 0.520081 0.042865
0.724327 0.524062 0.046845
0.826302 0.528030 0.050814
0.008373 0.607726 0.031893
0.116706 0.611943 0.036109
0.222057 0.616043 0.040209
0.326310 0.620100 0.044266
0.429857 0.624130 0.048296
0.532882 0.628140 0.052306
0.635493 0.632133 0.056300
0.737761 0.636114 0.060280
0.839737 0.640082 0.064249
0.021762 0.719404 0.045282
0.130096 0.723620 0.049498
0.235446 0.727720 0.053599
0.339700 0.731778 0.057656
0.443247 0.735808 0.061686
0.546272 0.739817 0.065696
0.648883 0.743811 0.069689
0.751151 0.747791 0.073669
0.853126 0.751760 0.077638
0.035113 0.830761 0.058633
0.143447 0.834978 0.062850
0.248798 0.839078 0.066950
0.353051 0.843135 0.071007
0.456598 0.847165 0.075037
0.559623 0.851175 0.079047
0.662234 0.855168 0.083040
0.764502 0.859149 0.087021
0.866477 0.863117 0.090989
0.000000 0.000000 0.055335
0.036031 0.000000 0.059551
0.141382 0.000000 0.063651
0.245635 0.000000 0.067709
0.349182 0.000000 0.071739
0.452207 0.000000 0.075748
0.554818 0.000000 0.079742
0.657086 0.000000 0.083722
0.759062 0.000000 0.087691
0.000000 0.042639 0.069519
0.050215 0.046855 0.073735
0.155566 0.050955 0.077835
0.259819 0.055013 0.081893
0.363366 0.059042 0.085922
0.466391 0.063052 0.089932
0.569002 0.067046 0.093926
0.671270 0.071026 0.097906
0.773245 0.074995 0.101875
0.000000 0.157682 0.083312
0.064008 0.161899 0.087528
0.169359 0.165999 0.091628
0.273612 0.170056 0.095686
0.377159 0.174086 0.099716
0.480184 0.178096 0.103725
0.582795 0.182089 0.107719
0.685063 0.186070 0.111699
0.787039 0.190038 0.115668
0.000000 0.271528 0.096961
0.077658 0.275744 0.101178
0.183008 0.279844 0.105278
0.287262 0.283902 0.109335
0.390809 0.287932 0.113365
0.493834 0.291941 0.117375
0.596445 0.295935 0.121368
0.698713 0.299915 0.125349
0.800688 0.303884 0.129317
0.000000 0.384602 0.110518
0.091215 0.388818 0.114735
0.196565 0.392918 0.118835
0.300819 0.396976 0.122892
0.404366 0.401006 0.126922
0.507391 0.405016 0.130932
0.610002 0.409009 0.134926
0.712270 0.412989 0.138906
0.814245 0.416958 0.142875
0.000000 0.497106 0.124007
0.104703 0.501323 0.128223
0.210054 0.505423 0.132324
0.314307 0.509480 0.136381
0.417855 0.513510 0.140411
0.520880 0.517520 0.144421
0.623491 0.521513 0.148414
0.725759 0.525493 0.152394
0.827734 0.529462 0.156363
0.009804 0.609158 0.137442
0.118138 0.613375 0.141658
0.223489 0.617475 0.145758
0.327742 0.621532 0.149816
0.431289 0.625562 0.153846
0.534314 0.629572 0.157855
0.636925 0.633565 0.161849
0.739193 0.637546 0.165829
0.841168 0.641514 0.169798
0.023194 0.720836 0.150831
0.131528 0.725052 0.155048
0.236878 0.729152 0.159148
0.341132 0.733210 0.163205
0.444679 0.737240 0.167235
0.547704 0.741249 0.171245
0.650315 0.745243 0.175238
0.752583 0.749223 0.179219
0.854558 0.753192 0.183187
0.036545 0.832193 0.164183
0.144879 0.836410 0.168399
0.250230 0.840510 0.172499
0.354483 0.844567 0.176556
0.458030 0.848597 0.180586
0.561055 0.852607 0.184596
0.663666 0.856600 0.188590
0.765934 0.860581 0.192570
0.867909 0.864549 0.196539
0.000000 0.000000 0.157978
0.037424 0.000000 0.162194
0.142774 0.000000 0.166294
0.247028 0.000000 0.170352
0.350575 0.000000 0.174382
0.453600 0.000000 0.178391
0.556211 0.000000 0.182385
0.658479 0.000000 0.186365
0.760454 0.000000 0.190334
0.000000 0.044031 0.172162
0.051607 0.048247 0.176378
0.156958 0.052348 0.180478
0.261211 0.056405 0.184535
0.364758 0.060435 0.188565
0.467784 0.064445 0.192575
0.570395 0.068438 0.196569
0.672663 0.072418 0.200549
0.774638 0.076387 0.204518
0.000000 0.159075 0.185955
0.065401 0.163291 0.190171
0.170751 0.167391 0.194271
0.275005 0.171449 0.198329
0.378552 0.175479 0.202359
0.481577 0.179488 0.206368
0.584188 0.183482 0.210362
0.686456 0.187462 0.214342
0.788431 0.191431 0.218311
0.000000 0.272920 0.199604
0.079050 0.277136 0.203821
0.184401 0.281237 0.207921
0.288654 0.285294 0.211978
0.392201 0.289324 0.216008
0.495226 0.293334 0.220018
0.597837 0.297327 0.224011
0.700105 0.301307 0.227992
0.802081 0.305276 0.231960
0.000000 0.385994 0.213161
0.092607 0.390211 0.217378
0.197958 0.394311 0.221478
0.302211 0.398368 0.225535
0.405758 0.402398 0.229565
0.508783 0.406408 0.233575
0.611394 0.410402 0.237568
0.713662 0.414382 0.241549
0.815638 0.418350 0.245517
0.000000 0.498499 0.226650
0.106096 0.502715 0.230866
0.211447 0.506815 0.234967
0.315700 0.510873 0.239024
0.419247 0.514903 0.243054
0.522272 0.518912 0.247064
0.624883 0.522906 0.251057
0.727151 0.526886 0.255037
0.829126 0.530855 0.259006
0.011197 0.610551 0.240085
0.119530 0.614767 0.244301
0.224881 0.618867 0.248401
0.329134 0.622925 0.252459
0.432682 0.626955 0.256489
0.535707 0.630964 0.260498
0.638318 0.634958 0.264492
0.740586 0.638938 0.268472
0.842561 0.642907 0.272441
0.024586 0.722228 0.253474
0.132920 0.726444 0.257691
0.238271 0.730545 0.261791
0.342524 0.734602 0.265848
0.446071 0.738632 0.269878
0.549096 0.742642 0.273888
0.651707 0.746635 0.277881
0.753975 0.750615 0.281861
0.855950 0.754584 0.285830
0.037938 0.833586 0.266826
0.146271 0.837802 0.271042
0.251622 0.841902 0.275142
0.355875 0.845960 0.279199
0.459422 0.849990 0.283229
0.562448 0.853999 0.287239
0.665059 0.857993 0.291233
0.767327 0.861973 0.295213
0.869302 0.865942 0.299182
0.000000 0.000000 0.259552
0.038802 0.000000 0.263768
0.144152 0.000000 0.267868
0.248406 0.000000 0.271926
0.351953 0.000000 0.275956
0.454978 0.000000 0.279965
0.557589 0.000000 0.283959
0.659857 0.000000 0.287939
0.761832 0.000000 0.291908
0.000000 0.045409 0.273735
0.052985 0.049625 0.277952
0.158336 0.053725 0.282052
0.262589 0.057783 0.286109
0.366136 0.061813 0.290139
0.469162 0.065823 0.294149
0.571773 0.069816 0.298142
0.674041 0.073796 0.302123
0.776016 0.077765 0.306091
0.000000 0.160453 0.287529
0.066778 0.164669 0.291745
0.172129 0.168769 0.295845
0.276382 0.172827 0.299902
0.379930 0.176857 0.303932
0.482955 0.180866 0.307942
0.585566 0.184860 0.311936
0.687834 0.188840 0.315916
0.789809 0.192809 0.319885
0.000000 0.274298 0.301178
0.080428 0.278514 0.305394
0.185779 0.282615 0.309495
0.290032 0.286672 0.313552
0.393579 0.290702 0.317582
0.496604 0.294712 0.321592
0.599215 0.298705 0.325585
0.701483 0.302685 0.329565
0.803458 0.306654 0.333534
0.000000 0.387372 0.314735
0.093985 0.391589 0.318952
0.199336 0.395689 0.323052
0.303589 0.399746 0.327109
0.407136 0.403776 0.331139
0.510161 0.407786 0.335149
0.612772 0.411779 0.339142
0.715040 0.415760 0.343122
0.817016 0.419728 0.347091
0.000000 0.499877 0.328224
0.107474 0.504093 0.332440
0.212824 0.508193 0.336540
0.317078 0.512250 0.340598
0.420625 0.516280 0.344628
0.523650 0.520290 0.348637
0.626261 0.524284 0.352631
0.728529 0.528264 0.356611
0.830504 0.532233 0.360580
0.012575 0.611929 0.341659
0.120908 0.616145 0.345875
0.226259 0.620245 0.349975
0.330512 0.624303 0.354032
0.434060 0.628332 0.358062
0.537085 0.632342 0.362072
0.639696 0.636336 0.366066
0.741964 0.640316 0.370046
0.843939 0.644285 0.374015
0.025964 0.723606 0.355048
0.134298 0.727822 0.359264
0.239649 0.731922 0.363365
0.343902 0.735980 0.367422
0.447449 0.740010 0.371452
0.550474 0.744020 0.375462
0.653085 0.748013 0.379455
0.755353 0.751993 0.383435
0.857328 0.755962 0.387404
0.039316 0.834964 0.368399
0.147649 0.839180 0.372616
0.253000 0.843280 0.376716
0.357253 0.847338 0.380773
0.460800 0.851368 0.384803
0.563826 0.855377 0.388813
0.666437 0.859371 0.392806
0.768705 0.863351 0.396787
0.870680 0.867320 0.400755
0.000000 0.000000 0.360437
0.040170 0.000000 0.364654
0.145521 0.000000 0.368754
0.249774 0.000000 0.372811
0.353321 0.000000 0.376841
0.456346 0.000000 0.380851
0.558957 0.000000 0.384844
0.661225 0.000000 0.388825
0.763201 0.000000 0.392793
0.000000 0.046778 0.374621
0.054354 0.050994 0.378837
0.159705 0.055094 0.382938
0.263958 0.059151 0.386995
0.367505 0.063181 0.391025
0.470530 0.067191 0.395035
0.573141 0.071185 0.399028
0.675409 0.075165 0.403008
0.777384 0.079134 0.406977
0.000000 0.161821 0.388414
0.068147 0.166038 0.392631
0.173498 0.170138 0.396731
0.277751 0.174195 0.400788
0.381298 0.178225 0.404818
0.484323 0.182235 0.408828
0.586934 0.186228 0.412821
0.689202 0.190209 0.416802
0.791178 0.194177 0.420770
0.000000 0.275667 0.402064
0.081797 0.279883 0.406280
0.187147 0.283983 0.410380
0.291401 0.288041 0.414438
0.394948 0.292071 0.418468
0.497973 0.296080 0.422477
0.600584 0.300074 0.426471
0.702852 0.304054 0.430451
0.804827 0.308023 0.434420
0.000000 0.388741 0.415621
0.095354 0.392957 0.419837
0.200704 0.397057 0.423937
0.304958 0.401115 0.427995
0.408505 0.405145 0.432025
0.511530 0.409155 0.436035
0.614141 0.413148 0.440028
0.716409 0.417128 0.444008
0.818384 0.421097 0.447977
0.000509 0.501245 0.429110
0.108842 0.505461 0.433326
0.214193 0.509562 0.437426
0.318446 0.513619 0.441484
0.421994 0.517649 0.445514
0.525019 0.521659 0.449523
0.627630 0.525652 0.453517
0.729898 0.529632 0.457497
0.831873 0.533601 0.461466
0.013943 0.613297 0.442544
0.122277 0.617513 0.446761
0.227628 0.621614 0.450861
0.331881 0.625671 0.454918
0.435428 0.629701 0.458948
0.538453 0.633711 0.462958
0.641064 0.637704 0.466951
0.743332 0.641684 0.470931
0.845307 0.645653 0.474900
0.027333 0.724975 0.455934
0.135667 0.729191 0.460150
0.241017 0.733291 0.464250
0.345271 0.737348 0.468308
0.448818 0.741378 0.472338
0.551843 0.745388 0.476347
0.654454 0.749382 0.480341
0.756722 0.753362 0.484321
0.858697 0.757331 0.488290
0.040684 0.836332 0.469285
0.149018 0.840549 0.473501
0.254368 0.844649 0.477602
0.358622 0.848706 0.481659
0.462169 0.852736 0.485689
0.565194 0.856746 0.489699
0.667805 0.860739 0.493692
0.770073 0.864720 0.497672
0.872048 0.868688 0.501641
0.000000 0.000000 0.460815
0.041532 0.000000 0.465031
0.146882 0.000000 0.469131
0.251136 0.000000 0.473188
0.354683 0.000000 0.477218
0.457708 0.000000 0.481228
0.560319 0.000000 0.485222
0.662587 0.000000 0.489202
0.764562 0.000000 0.493171
0.000000 0.048139 0.474998
0.055716 0.052356 0.479215
0.161066 0.056456 0.483315
0.265320 0.060513 0.487372
0.368867 0.064543 0.491402
0.471892 0.068553 0.495412
0.574503 0.072546 0.499405
0.676771 0.076527 0.503386
0.778746 0.080495 0.507354
0.000000 0.163183 0.488792
0.069509 0.167399 0.493008
0.174859 0.171499 0.497108
0.279113 0.175557 0.501165
0.382660 0.179587 0.505195
0.485685 0.183597 0.509205
0.588296 0.187590 0.513199
0.690564 0.191570 0.517179
0.792539 0.195539 0.521148
0.000000 0.277028 0.502441
0.083158 0.281245 0.506657
0.188509 0.285345 0.510758
0.292762 0.289402 0.514815
0.396309 0.293432 0.518845
0.499335 0.297442 0.522855
0.601946 0.301436 0.526848
0.704214 0.305416 0.530828
0.806189 0.309384 0.534797
0.000000 0.390103 0.515998
0.096715 0.394319 0.520214
0.202066 0.398419 0.524315
0.306319 0.402477 0.528372
0.409867 0.406507 0.532402
0.512892 0.410516 0.536412
0.615503 0.414510 0.540405
0.717771 0.418490 0.544385
0.819746 0.422459 0.548354
0.001871 0.502607 0.529487
0.110204 0.506823 0.533703
0.215555 0.510923 0.537803
0.319808 0.514981 0.541861
0.423355 0.519011 0.545891
0.526380 0.523020 0.549900
0.628991 0.527014 0.553894
0.731259 0.530994 0.557874
0.833235 0.534963 0.561843
0.015305 0.614659 0.542921
0.123639 0.618875 0.547138
0.228989 0.622975 0.551238
0.333243 0.627033 0.555295
0.436790 0.631063 0.559325
0.539815 0.635072 0.563335
0.642426 0.639066 0.567328
0.744694 0.643046 0.571309
0.846669 0.647015 0.575277
0.028695 0.726336 0.556311
0.137028 0.730553 0.560527
0.242379 0.734653 0.564627
0.346632 0.738710 0.568685
0.450179 0.742740 0.572715
0.553205 0.746750 0.576725
0.655816 0.750743 0.580718
0.758084 0.754724 0.584698
0.860059 0.758692 0.588667
0.042046 0.837694 0.569662
0.150380 0.841910 0.573879
0.255730 0.846010 0.577979
0.359984 0.850068 0.582036
0.463531 0.854098 0.586066
0.566556 0.858107 0.590076
0.669167 0.862101 0.594069
0.771435 0.866081 0.598050
0.873410 0.870050 0.602018
0.000000 0.000000 0.560788
0.042888 0.000000 0.565005
0.148239 0.000000 0.569105
0.252492 0.000000 0.573162
0.356039 0.000000 0.577192
0.459064 0.000000 0.581202
0.561675 0.000000 0.585195
0.663943 0.000000 0.589176
0.765918 0.000000 0.593144
0.000000 0.049496 0.574972
0.057072 0.053712 0.579188
0.162422 0.057812 0.583288
0.266676 0.061869 0.587346
0.370223 0.065899 0.591376
0.473248 0.069909 0.595386
0.575859 0.073903 0.599379
0.678127 0.077883 0.603359
0.780102 0.081852 0.607328
0.000000 0.164539 0.588765
0.070865 0.168755 0.592982
0.176216 0.172856 0.597082
0.280469 0.176913 0.601139
0.384016 0.180943 0.605169
0.487041 0.184953 0.609179
0.589652 0.188946 0.613172
0.691920 0.192926 0.617153
0.793895 0.196895 0.621121
0.000000 0.278385 0.602415
0.084515 0.282601 0.606631
0.189865 0.286701 0.610731
0.294119 0.290759 0.614789
0.397666 0.294789 0.618819
0.500691 0.298798 0.622828
0.603302 0.302792 0.626822
0.705570 0.306772 0.630802
0.807545 0.310741 0.634771
0.000000 0.391459 0.615972
0.098072 0.395675 0.620188
0.203422 0.399775 0.624288
0.307676 0.403833 0.628346
0.411223 0.407863 0.632376
0.514248 0.411872 0.636385
0.616859 0.415866 0.640379
0.719127 0.419846 0.644359
0.821102 0.423815 0.648328
0.003227 0.503963 0.629461
0.111560 0.508179 0.633677
0.216911 0.512280 0.637777
0.321164 0.516337 0.641835
0.424712 0.520367 0.645864
0.527737 0.524377 0.649874
0.630348 0.528370 0.653868
0.732616 0.532350 0.657848
0.834591 0.536319 0.661817
0.016661 0.616015 0.642895
0.124995 0.620231 0.647111
0.230346 0.624332 0.651212
0.334599 0.628389 0.655269
0.438146 0.632419 0.659299
0.541171 0.636429 0.663309
0.643782 0.640422 0.667302
0.746050 0.644402 0.671282
0.848025 0.648371 0.675251
0.030051 0.727693 0.656285
0.138384 0.731909 0.660501
0.243735 0.736009 0.664601
0.347989 0.740066 0.668659
0.451536 0.744096 0.672689
0.554561 0.748106 0.676698
0.657172 0.752100 0.680692
0.759440 0.756080 0.684672
0.861415 0.760049 0.688641
0.043402 0.839050 0.669636
0.151736 0.843266 0.673852
0.257086 0.847367 0.677952
0.361340 0.851424 0.682010
0.464887 0.855454 0.686040
0.567912 0.859464 0.690050
0.670523 0.863457 0.694043
0.772791 0.867437 0.698023
0.874766 0.871406 0.701992
0.000000 0.000000 0.660428
0.044240 0.000000 0.664644
0.149590 0.000000 0.668744
0.253844 0.000000 0.672802
0.357391 0.000000 0.676832
0.460416 0.000000 0.680841
0.563027 0.000000 0.684835
0.665295 0.000000 0.688815
0.767270 0.000000 0.692784
0.000000 0.050847 0.674612
0.058423 0.055063 0.678828
0.163774 0.059164 0.682928
0.268028 0.063221 0.686985
0.371575 0.067251 0.691015
0.474600 0.071261 0.695025
0.577211 0.075254 0.699019
0.679479 0.079234 0.702999
0.781454 0.083203 0.706968
0.000000 0.165891 0.688405
0.072217 0.170107 0.692621
0.177567 0.174207 0.696721
0.281821 0.178265 0.700779
0.385368 0.182295 0.704809
0.488393 0.186304 0.708818
0.591004 0.190298 0.712812
0.693272 0.194278 0.716792
0.795247 0.198247 0.720761
0.000000 0.279736 0.702054
0.085866 0.283953 0.706271
0.191217 0.288053 0.710371
0.295470 0.292110 0.714428
0.399017 0.296140 0.718458
0.502043 0.300150 0.722468
0.604654 0.304143 0.726461
0.706922 0.308124 0.730442
0.808897 0.312092 0.734410
0.000000 0.392811 0.715611
0.099423 0.397027 0.719828
0.204774 0.401127 0.723928
0.309027 0.405185 0.727985
0.412574 0.409214 0.732015
0.515600 0.413224 0.736025
0.618211 0.417218 0.740018
0.720479 0.421198 0.743999
0.822454 0.425167 0.747967
0.004578 0.505315 0.729100
0.112912 0.509531 0.733316
0.218263 0.513631 0.737417
0.322516 0.517689 0.741474
0.426063 0.521719 0.745504
0.529088 0.525728 0.749514
0.631699 0.529722 0.753507
0.733967 0.533702 0.757487
0.835943 0.537671 0.761456
0.018013 0.617367 0.742535
0.126347 0.621583 0.746751
0.231697 0.625683 0.750851
0.335951 0.629741 0.754909
0.439498 0.633771 0.758938
0.542523 0.637780 0.762948
0.645134 0.641774 0.766942
0.747402 0.645754 0.770922
0.849377 0.649723 0.774891
0.031403 0.729044 0.755924
0.139736 0.733260 0.760140
0.245087 0.737361 0.764241
0.349340 0.741418 0.768298
0.452887 0.745448 0.772328
0.555912 0.749458 0.776338
0.658524 0.753451 0.780331
0.760791 0.757431 0.784311
0.862767 0.761400 0.788280
0.044754 0.840402 0.769276
0.153087 0.844618 0.773492
0.258438 0.848718 0.777592
0.362691 0.852776 0.781649
0.466239 0.856806 0.785679
0.569264 0.860815 0.789689
0.671875 0.864809 0.793683
0.774143 0.868789 0.797663
0.876118 0.872758 0.801632
0.000000 0.000000 0.759782
0.045588 0.000000 0.763998
0.150938 0.000000 0.768098
0.255192 0.000000 0.772156
0.358739 0.000000 0.776186
0.461764 0.000000 0.780195
0.564375 0.000000 0.784189
0.666643 0.000000 0.788169
0.768618 0.000000 0.792138
0.000000 0.052195 0.773966
0.059771 0.056411 0.778182
0.165122 0.060511 0.782282
0.269375 0.064569 0.786340
0.372922 0.068599 0.790370
0.475948 0.072609 0.794379
0.578559 0.076602 0.798373
0.680827 0.080582 0.802353
0.782802 0.084551 0.806322
0.000000 0.167239 0.787759
0.073565 0.171455 0.791975
0.178915 0.175555 0.796075
0.283169 0.179613 0.800133
0.386716 0.183643 0.804163
0.489741 0.187652 0.808172
0.592352 0.191646 0.812166
0.694620 0.195626 0.816146
0.796595 0.199595 0.820115
0.000000 0.281084 0.801408
0.087214 0.285300 0.805625
0.192565 0.289401 0.809725
0.296818 0.293458 0.813782
0.400365 0.297488 0.817812
0.503390 0.301498 0.821822
0.606001 0.305491 0.825816
0.708269 0.309471 0.829796
0.810245 0.313440 0.833765
0.000000 0.394158 0.814966
0.100771 0.398375 0.819182
0.206122 0.402475 0.823282
0.310375 0.406532 0.827339
0.413922 0.410562 0.831369
0.516947 0.414572 0.835379
0.619558 0.418565 0.839373
0.721826 0.422546 0.843353
0.823802 0.426514 0.847322
0.005926 0.506663 0.828454
0.114260 0.510879 0.832671
0.219611 0.514979 0.836771
0.323864 0.519037 0.840828
0.427411 0.523067 0.844858
0.530436 0.527076 0.848868
0.633047 0.531070 0.852861
0.735315 0.535050 0.856842
0.837290 0.539019 0.860810
0.019361 0.618715 0.841889
0.127694 0.622931 0.846105
0.233045 0.627031 0.850205
0.337298 0.631089 0.854263
0.440846 0.635119 0.858293
0.543871 0.639128 0.862302
0.646482 0.643122 0.866296
0.748750 0.647102 0.870276
0.850725 0.651071 0.874245
0.032750 0.730392 0.855278
0.141084 0.734608 0.859495
0.246435 0.738708 0.863595
0.350688 0.742766 0.867652
0.454235 0.746796 0.871682
0.557260 0.750806 0.875692
0.659871 0.754799 0.879685
0.762139 0.758779 0.883666
0.864114 0.762748 0.887634
0.046102 0.841750 0.868630
0.154435 0.845966 0.872846
0.259786 0.850066 0.876946
0.364039 0.854124 0.881004
0.467586 0.858154 0.885034
0.570612 0.862163 0.889043
0.673223 0.866157 0.893037
0.775491 0.870137 0.897017
0.877466 0.874106 0.900986
