installer/msi/cep-src/luts/worldwide_neon_dark.cube
TITLE "FlagshipEditor original preset: worldwide_neon_dark.cube"
LUT_3D_SIZE 5
DOMAIN_MIN 0.0 0.0 0.0
DOMAIN_MAX 1.0 1.0 1.0
0.000000 0.000000 0.000000
0.262648 0.000000 0.000000
0.575762 0.000000 0.000000
0.877596 0.000000 0.000000
1.000000 0.000000 0.000000
0.000000 0.197541 0.000000
0.230910 0.186270 0.000000
0.544024 0.172833 0.000000
0.845858 0.159880 0.000000
1.000000 0.147232 0.000000
0.000000 0.478889 0.000000
0.185707 0.467618 0.000000
0.498821 0.454181 0.000000
0.800655 0.441228 0.000000
1.000000 0.428580 0.000000
0.000000 0.750101 0.000000
0.142132 0.738830 0.000000
0.455246 0.725393 0.000000
0.757080 0.712440 0.000000
1.000000 0.699792 0.000000
0.000000 1.000000 0.000000
0.099583 1.000000 0.000000
0.412697 0.990226 0.000000
0.714530 0.977273 0.000000
1.000000 0.964625 0.000000
0.000000 0.000000 0.290877
0.258526 0.000000 0.279606
0.571640 0.000000 0.266169
0.873474 0.000000 0.253216
1.000000 0.000000 0.240568
0.000000 0.193419 0.259139
0.226788 0.182148 0.247868
0.539902 0.168711 0.234431
0.841735 0.155758 0.221478
1.000000 0.143109 0.208829
0.000000 0.474767 0.213936
0.181585 0.463495 0.202665
0.494698 0.450058 0.189228
0.796532 0.437105 0.176275
1.000000 0.424457 0.163626
0.000000 0.745979 0.170361
0.138010 0.734708 0.159090
0.451124 0.721271 0.145653
0.752958 0.708318 0.132700
1.000000 0.695669 0.120052
0.000000 1.000000 0.127812
0.095460 0.999541 0.116540
0.408574 0.986104 0.103103
0.710408 0.973151 0.090150
1.000000 0.960502 0.077502
0.000000 0.000000 0.612865
0.253963 0.000000 0.601593
0.567076 0.000000 0.588156
0.868910 0.000000 0.575203
1.000000 0.000000 0.562555
0.000000 0.188856 0.581127
0.222224 0.177584 0.569855
0.535338 0.164147 0.556418
0.837172 0.151194 0.543465
1.000000 0.138546 0.530817
0.000000 0.470204 0.535924
0.177021 0.458932 0.524652
0.490135 0.445495 0.511215
0.791969 0.432542 0.498262
1.000000 0.419894 0.485614
0.000000 0.741416 0.492349
0.133447 0.730144 0.481078
0.446561 0.716707 0.467641
0.748394 0.703754 0.454688
1.000000 0.691106 0.442039
0.000000 1.000000 0.449799
0.090897 0.994977 0.438528
0.404011 0.981540 0.425091
0.705845 0.968587 0.412138
1.000000 0.955939 0.399490
0.000000 0.000000 0.923253
0.249564 0.000000 0.911981
0.562678 0.000000 0.898544
0.864511 0.000000 0.885591
1.000000 0.000000 0.872943
0.000000 0.184457 0.891515
0.217826 0.173186 0.880243
0.530939 0.159748 0.866806
0.832773 0.146796 0.853853
1.000000 0.134147 0.841205
0.000000 0.465805 0.846312
0.172622 0.454533 0.835040
0.485736 0.441096 0.821603
0.787570 0.428143 0.808650
1.000000 0.415495 0.796002
0.000000 0.737017 0.802737
0.129048 0.725746 0.791466
0.442162 0.712308 0.778028
0.743996 0.699356 0.765076
1.000000 0.686707 0.752427
0.000000 1.000000 0.760187
0.086498 0.990578 0.748916
0.399612 0.977141 0.735479
0.701446 0.964188 0.722526
0.996180 0.951540 0.709878
0.000000 0.000000 1.000000
0.245320 0.000000 1.000000
0.558434 0.000000 1.000000
0.860268 0.000000 1.000000
1.000000 0.000000 1.000000
0.000000 0.180213 1.000000
0.213582 0.168942 1.000000
0.526696 0.155505 1.000000
0.828530 0.142552 1.000000
1.000000 0.129904 1.000000
0.000000 0.461561 1.000000
0.168379 0.450290 1.000000
0.481493 0.436853 1.000000
0.783327 0.423900 1.000000
1.000000 0.411252 1.000000
0.000000 0.732773 1.000000
0.124804 0.721502 1.000000
0.437918 0.708065 1.000000
0.739752 0.695112 1.000000
1.000000 0.682464 1.000000
0.000000 0.997606 1.000000
0.082255 0.986335 1.000000
0.395369 0.972898 1.000000
0.697202 0.959945 1.000000
0.991937 0.947297 1.000000
