installer/msi/cep-src/luts/worldwide_neon_dark.cube
TITLE "FlagshipEditor original preset: worldwide_neon_dark.cube"
LUT_3D_SIZE 9
DOMAIN_MIN 0.0 0.0 0.0
DOMAIN_MAX 1.0 1.0 1.0
0.000000 0.000000 0.000000
0.098308 0.000000 0.000000
0.262648 0.000000 0.000000
0.421068 0.000000 0.000000
0.575762 0.000000 0.000000
0.727743 0.000000 0.000000
0.877596 0.000000 0.000000
1.000000 0.000000 0.000000
1.000000 0.000000 0.000000
0.000000 0.049874 0.000000
0.090295 0.045655 0.000000
0.254635 0.038602 0.000000
0.413055 0.031804 0.000000
0.567749 0.025165 0.000000
0.719730 0.018643 0.000000
0.869583 0.012212 0.000000
1.000000 0.005856 0.000000
1.000000 0.000000 0.000000
0.000000 0.197541 0.000000
0.066570 0.193323 0.000000
0.230910 0.186270 0.000000
0.389330 0.179472 0.000000
0.544024 0.172833 0.000000
0.696005 0.166311 0.000000
0.845858 0.159880 0.000000
0.993964 0.153524 0.000000
1.000000 0.147232 0.000000
0.000000 0.339889 0.000000
0.043699 0.335671 0.000000
0.208040 0.328618 0.000000
0.366460 0.321820 0.000000
0.521153 0.315181 0.000000
0.673134 0.308659 0.000000
0.822987 0.302228 0.000000
0.971094 0.295872 0.000000
1.000000 0.289580 0.000000
0.000000 0.478889 0.000000
0.021367 0.474670 0.000000
0.185707 0.467618 0.000000
0.344127 0.460819 0.000000
0.498821 0.454181 0.000000
0.650802 0.447659 0.000000
0.800655 0.441228 0.000000
0.948761 0.434872 0.000000
1.000000 0.428580 0.000000
0.000000 0.615451 0.000000
0.000000 0.611232 0.000000
0.163766 0.604180 0.000000
0.322186 0.597381 0.000000
0.476880 0.590743 0.000000
0.628861 0.584221 0.000000
0.778714 0.577790 0.000000
0.926820 0.571434 0.000000
1.000000 0.565142 0.000000
0.000000 0.750101 0.000000
0.000000 0.745883 0.000000
0.142132 0.738830 0.000000
0.300552 0.732032 0.000000
0.455246 0.725393 0.000000
0.607227 0.718871 0.000000
0.757080 0.712440 0.000000
0.905187 0.706084 0.000000
1.000000 0.699792 0.000000
0.000000 0.883182 0.000000
0.000000 0.878964 0.000000
0.120751 0.871911 0.000000
0.279171 0.865113 0.000000
0.433865 0.858474 0.000000
0.585845 0.851952 0.000000
0.735698 0.845521 0.000000
0.883805 0.839165 0.000000
1.000000 0.832873 0.000000
0.000000 1.000000 0.000000
0.000000 1.000000 0.000000
0.099583 1.000000 0.000000
0.258003 0.996865 0.000000
0.412697 0.990226 0.000000
0.564677 0.983704 0.000000
0.714530 0.977273 0.000000
0.862637 0.970917 0.000000
1.000000 0.964625 0.000000
0.000000 0.000000 0.121879
0.096581 0.000000 0.117661
0.260921 0.000000 0.110608
0.419341 0.000000 0.103810
0.574035 0.000000 0.097171
0.726016 0.000000 0.090649
0.875869 0.000000 0.084218
1.000000 0.000000 0.077862
1.000000 0.000000 0.071570
0.000000 0.048146 0.113866
0.088568 0.043928 0.109648
0.252908 0.036875 0.102595
0.411328 0.030077 0.095797
0.566022 0.023438 0.089158
0.718003 0.016916 0.082636
0.867856 0.010485 0.076205
1.000000 0.004129 0.069849
1.000000 0.000000 0.063557
0.000000 0.195814 0.090141
0.064842 0.191595 0.085922
0.229183 0.184543 0.078870
0.387603 0.177744 0.072071
0.542297 0.171106 0.065433
0.694277 0.164584 0.058911
0.844130 0.158153 0.052480
0.992237 0.151797 0.046124
1.000000 0.145504 0.039832
0.000000 0.338162 0.067271
0.041972 0.333943 0.063052
0.206312 0.326891 0.055999
0.364732 0.320092 0.049201
0.519426 0.313454 0.042562
0.671407 0.306932 0.036040
0.821260 0.300501 0.029609
0.969367 0.294145 0.023253
1.000000 0.287852 0.016961
0.000000 0.477162 0.044938
0.019639 0.472943 0.040719
0.183980 0.465891 0.033667
0.342400 0.459092 0.026868
0.497094 0.452454 0.020230
0.649074 0.445931 0.013708
0.798927 0.439501 0.007277
0.947034 0.433145 0.000921
1.000000 0.426852 0.000000
0.000000 0.613724 0.022997
0.000000 0.609505 0.018778
0.162039 0.602453 0.011726
0.320459 0.595654 0.004927
0.475153 0.589016 0.000000
0.627133 0.582493 0.000000
0.776987 0.576063 0.000000
0.925093 0.569707 0.000000
1.000000 0.563414 0.000000
0.000000 0.748374 0.001364
0.000000 0.744155 0.000000
0.140405 0.737103 0.000000
0.298825 0.730304 0.000000
0.453519 0.723666 0.000000
0.605500 0.717144 0.000000
0.755353 0.710713 0.000000
0.903459 0.704357 0.000000
1.000000 0.698064 0.000000
0.000000 0.881455 0.000000
0.000000 0.877236 0.000000
0.119023 0.870184 0.000000
0.277444 0.863385 0.000000
0.432137 0.856747 0.000000
0.584118 0.850225 0.000000
0.733971 0.843794 0.000000
0.882078 0.837438 0.000000
1.000000 0.831145 0.000000
0.000000 1.000000 0.000000
0.000000 1.000000 0.000000
0.097855 1.000000 0.000000
0.256275 0.995137 0.000000
0.410969 0.988499 0.000000
0.562950 0.981977 0.000000
0.712803 0.975546 0.000000
0.860910 0.969190 0.000000
1.000000 0.962897 0.000000
0.000000 0.000000 0.290877
0.094186 0.000000 0.286658
0.258526 0.000000 0.279606
0.416946 0.000000 0.272807
0.571640 0.000000 0.266169
0.723620 0.000000 0.259647
0.873474 0.000000 0.253216
1.000000 0.000000 0.246860
1.000000 0.000000 0.240568
0.000000 0.045751 0.282864
0.086173 0.041533 0.278645
0.250513 0.034480 0.271593
0.408933 0.027681 0.264794
0.563627 0.021043 0.258156
0.715607 0.014521 0.251634
0.865461 0.008090 0.245203
1.000000 0.001734 0.238847
1.000000 0.000000 0.232555
0.000000 0.193419 0.259139
0.062447 0.189200 0.254920
0.226788 0.182148 0.247868
0.385208 0.175349 0.241069
0.539902 0.168711 0.234431
0.691882 0.162189 0.227909
0.841735 0.155758 0.221478
0.989842 0.149402 0.215122
1.000000 0.143109 0.208829
0.000000 0.335767 0.236269
0.039577 0.331548 0.232050
0.203917 0.324496 0.224997
0.362337 0.317697 0.218199
0.517031 0.311059 0.211560
0.669012 0.304537 0.205038
0.818865 0.298106 0.198607
0.966971 0.291750 0.192251
1.000000 0.285457 0.185959
0.000000 0.474767 0.213936
0.017244 0.470548 0.209717
0.181585 0.463495 0.202665
0.340005 0.456697 0.195866
0.494698 0.450058 0.189228
0.646679 0.443536 0.182705
0.796532 0.437105 0.176275
0.944639 0.430750 0.169919
1.000000 0.424457 0.163626
0.000000 0.611329 0.191995
0.000000 0.607110 0.187776
0.159644 0.600057 0.180724
0.318064 0.593259 0.173925
0.472758 0.586620 0.167287
0.624738 0.580098 0.160765
0.774591 0.573667 0.154334
0.922698 0.567312 0.147978
1.000000 0.561019 0.141685
0.000000 0.745979 0.170361
0.000000 0.741760 0.166143
0.138010 0.734708 0.159090
0.296430 0.727909 0.152292
0.451124 0.721271 0.145653
0.603105 0.714749 0.139131
0.752958 0.708318 0.132700
0.901064 0.701962 0.126344
1.000000 0.695669 0.120052
0.000000 0.879060 0.148980
0.000000 0.874841 0.144761
0.116628 0.867789 0.137708
0.275048 0.860990 0.130910
0.429742 0.854352 0.124271
0.581723 0.847829 0.117749
0.731576 0.841399 0.111318
0.879683 0.835043 0.104963
1.000000 0.828750 0.098670
0.000000 1.000000 0.127812
0.000000 1.000000 0.123593
0.095460 0.999541 0.116540
0.253880 0.992742 0.109742
0.408574 0.986104 0.103103
0.560555 0.979581 0.096581
0.710408 0.973151 0.090150
0.858515 0.966795 0.083794
1.000000 0.960502 0.077502
0.000000 0.000000 0.453787
0.091877 0.000000 0.449568
0.256217 0.000000 0.442516
0.414637 0.000000 0.435717
0.569331 0.000000 0.429079
0.721312 0.000000 0.422556
0.871165 0.000000 0.416126
1.000000 0.000000 0.409770
1.000000 0.000000 0.403477
0.000000 0.043443 0.445774
0.083864 0.039224 0.441555
0.248204 0.032171 0.434503
0.406624 0.025373 0.427704
0.561318 0.018734 0.421066
0.713299 0.012212 0.414543
0.863152 0.005781 0.408113
1.000000 0.000000 0.401757
1.000000 0.000000 0.395464
0.000000 0.191110 0.422049
0.060139 0.186891 0.417830
0.224479 0.179839 0.410777
0.382899 0.173040 0.403979
0.537593 0.166402 0.397340
0.689573 0.159880 0.390818
0.839427 0.153449 0.384387
0.987533 0.147093 0.378032
1.000000 0.140801 0.371739
0.000000 0.333458 0.399178
0.037268 0.329239 0.394959
0.201608 0.322187 0.387907
0.360028 0.315388 0.381108
0.514722 0.308750 0.374470
0.666703 0.302228 0.367948
0.816556 0.295797 0.361517
0.964663 0.289441 0.355161
1.000000 0.283149 0.348869
0.000000 0.472458 0.376846
0.014935 0.468239 0.372627
0.179276 0.461187 0.365574
0.337696 0.454388 0.358776
0.492390 0.447750 0.352137
0.644370 0.441228 0.345615
0.794224 0.434797 0.339184
0.942330 0.428441 0.332828
1.000000 0.422148 0.326536
0.000000 0.609020 0.354905
0.000000 0.604801 0.350686
0.157335 0.597749 0.343633
0.315755 0.590950 0.336835
0.470449 0.584312 0.330196
0.622430 0.577790 0.323674
0.772283 0.571359 0.317243
0.920389 0.565003 0.310888
1.000000 0.558710 0.304595
0.000000 0.743670 0.333271
0.000000 0.739451 0.329052
0.135701 0.732399 0.322000
0.294121 0.725600 0.315201
0.448815 0.718962 0.308563
0.600796 0.712440 0.302041
0.750649 0.706009 0.295610
0.898756 0.699653 0.289254
1.000000 0.693361 0.282961
0.000000 0.876751 0.311889
0.000000 0.872532 0.307671
0.114320 0.865480 0.300618
0.272740 0.858681 0.293820
0.427433 0.852043 0.287181
0.579414 0.845521 0.280659
0.729267 0.839090 0.274228
0.877374 0.832734 0.267872
1.000000 0.826442 0.261580
0.000000 1.000000 0.290721
0.000000 1.000000 0.286503
0.093152 0.997232 0.279450
0.251572 0.990433 0.272652
0.406265 0.983795 0.266013
0.558246 0.977273 0.259491
0.708099 0.970842 0.253060
0.856206 0.964486 0.246704
1.000000 0.958194 0.240412
0.000000 0.000000 0.612865
0.089622 0.000000 0.608646
0.253963 0.000000 0.601593
0.412383 0.000000 0.594795
0.567076 0.000000 0.588156
0.719057 0.000000 0.581634
0.868910 0.000000 0.575203
1.000000 0.000000 0.568848
1.000000 0.000000 0.562555
0.000000 0.041188 0.604852
0.081609 0.036969 0.600633
0.245950 0.029917 0.593580
0.404370 0.023118 0.586782
0.559063 0.016480 0.580143
0.711044 0.009958 0.573621
0.860897 0.003527 0.567190
1.000000 0.000000 0.560835
1.000000 0.000000 0.554542
0.000000 0.188856 0.581127
0.057884 0.184637 0.576908
0.222224 0.177584 0.569855
0.380644 0.170786 0.563057
0.535338 0.164147 0.556418
0.687319 0.157625 0.549896
0.837172 0.151194 0.543465
0.985279 0.144839 0.537109
1.000000 0.138546 0.530817
0.000000 0.331204 0.558256
0.035014 0.326985 0.554037
0.199354 0.319932 0.546985
0.357774 0.313134 0.540186
0.512468 0.306495 0.533548
0.664448 0.299973 0.527026
0.814302 0.293542 0.520595
0.962408 0.287187 0.514239
1.000000 0.280894 0.507946
0.000000 0.470204 0.535924
0.012681 0.465985 0.531705
0.177021 0.458932 0.524652
0.335441 0.452134 0.517854
0.490135 0.445495 0.511215
0.642116 0.438973 0.504693
0.791969 0.432542 0.498262
0.940076 0.426186 0.491906
1.000000 0.419894 0.485614
0.000000 0.606766 0.513983
0.000000 0.602547 0.509764
0.155080 0.595494 0.502711
0.313500 0.588696 0.495913
0.468194 0.582057 0.489274
0.620175 0.575535 0.482752
0.770028 0.569104 0.476321
0.918135 0.562748 0.469965
1.000000 0.556456 0.463673
0.000000 0.741416 0.492349
0.000000 0.737197 0.488130
0.133447 0.730144 0.481078
0.291867 0.723346 0.474279
0.446561 0.716707 0.467641
0.598541 0.710185 0.461118
0.748394 0.703754 0.454688
0.896501 0.697399 0.448332
1.000000 0.691106 0.442039
0.000000 0.874497 0.470967
0.000000 0.870278 0.466749
0.112065 0.863225 0.459696
0.270485 0.856427 0.452898
0.425179 0.849788 0.446259
0.577160 0.843266 0.439737
0.727013 0.836835 0.433306
0.875119 0.830479 0.426950
1.000000 0.824187 0.420658
0.000000 1.000000 0.449799
0.000000 1.000000 0.445580
0.090897 0.994977 0.438528
0.249317 0.988179 0.431729
0.404011 0.981540 0.425091
0.555992 0.975018 0.418569
0.705845 0.968587 0.412138
0.853951 0.962231 0.405782
1.000000 0.955939 0.399490
0.000000 0.000000 0.769153
0.087407 0.000000 0.764934
0.251748 0.000000 0.757881
0.410168 0.000000 0.751083
0.564861 0.000000 0.744444
0.716842 0.000000 0.737922
0.866695 0.000000 0.731491
1.000000 0.000000 0.725136
1.000000 0.000000 0.718843
0.000000 0.038973 0.761140
0.079394 0.034754 0.756921
0.243735 0.027702 0.749868
0.402155 0.020903 0.743070
0.556848 0.014265 0.736431
0.708829 0.007743 0.729909
0.858682 0.001312 0.723478
1.000000 0.000000 0.717123
1.000000 0.000000 0.710830
0.000000 0.186641 0.737415
0.055669 0.182422 0.733196
0.220009 0.175369 0.726143
0.378429 0.168571 0.719345
0.533123 0.161932 0.712706
0.685104 0.155410 0.706184
0.834957 0.148979 0.699753
0.983064 0.142624 0.693397
1.000000 0.136331 0.687105
0.000000 0.328989 0.714544
0.032799 0.324770 0.710325
0.197139 0.317717 0.703273
0.355559 0.310919 0.696474
0.510253 0.304280 0.689836
0.662234 0.297758 0.683314
0.812087 0.291327 0.676883
0.960193 0.284972 0.670527
1.000000 0.278679 0.664234
0.000000 0.467989 0.692211
0.010466 0.463770 0.687993
0.174806 0.456717 0.680940
0.333226 0.449919 0.674142
0.487920 0.443280 0.667503
0.639901 0.436758 0.660981
0.789754 0.430327 0.654550
0.937861 0.423971 0.648194
1.000000 0.417679 0.641902
0.000000 0.604551 0.670271
0.000000 0.600332 0.666052
0.152866 0.593279 0.658999
0.311286 0.586481 0.652201
0.465979 0.579842 0.645562
0.617960 0.573320 0.639040
0.767813 0.566889 0.632609
0.915920 0.560533 0.626253
1.000000 0.554241 0.619961
0.000000 0.739201 0.648637
0.000000 0.734982 0.644418
0.131232 0.727929 0.637366
0.289652 0.721131 0.630567
0.444346 0.714492 0.623928
0.596326 0.707970 0.617406
0.746179 0.701539 0.610976
0.894286 0.695184 0.604620
1.000000 0.688891 0.598327
0.000000 0.872282 0.627255
0.000000 0.868063 0.623036
0.109850 0.861010 0.615984
0.268270 0.854212 0.609185
0.422964 0.847573 0.602547
0.574945 0.841051 0.596025
0.724798 0.834620 0.589594
0.872904 0.828264 0.583238
1.000000 0.821972 0.576946
0.000000 1.000000 0.606087
0.000000 0.999815 0.601868
0.088682 0.992762 0.594816
0.247102 0.985964 0.588017
0.401796 0.979325 0.581379
0.553777 0.972803 0.574857
0.703630 0.966372 0.568426
0.851736 0.960017 0.562070
0.998364 0.953724 0.555778
0.000000 0.000000 0.923253
0.085223 0.000000 0.919034
0.249564 0.000000 0.911981
0.407984 0.000000 0.905183
0.562678 0.000000 0.898544
0.714658 0.000000 0.892022
0.864511 0.000000 0.885591
1.000000 0.000000 0.879236
1.000000 0.000000 0.872943
0.000000 0.036789 0.915240
0.077210 0.032570 0.911021
0.241551 0.025518 0.903968
0.399971 0.018719 0.897170
0.554665 0.012081 0.890531
0.706645 0.005559 0.884009
0.856498 0.000000 0.877578
1.000000 0.000000 0.871223
1.000000 0.000000 0.864930
0.000000 0.184457 0.891515
0.053485 0.180238 0.887296
0.217826 0.173186 0.880243
0.376246 0.166387 0.873445
0.530939 0.159748 0.866806
0.682920 0.153226 0.860284
0.832773 0.146796 0.853853
0.980880 0.140440 0.847497
1.000000 0.134147 0.841205
0.000000 0.326805 0.868644
0.030615 0.322586 0.864425
0.194955 0.315534 0.857373
0.353375 0.308735 0.850574
0.508069 0.302096 0.843936
0.660050 0.295574 0.837414
0.809903 0.289144 0.830983
0.958009 0.282788 0.824627
1.000000 0.276495 0.818334
0.000000 0.465805 0.846312
0.008282 0.461586 0.842093
0.172622 0.454533 0.835040
0.331042 0.447735 0.828242
0.485736 0.441096 0.821603
0.637717 0.434574 0.815081
0.787570 0.428143 0.808650
0.935677 0.421787 0.802294
1.000000 0.415495 0.796002
0.000000 0.602367 0.824371
0.000000 0.598148 0.820152
0.150682 0.591095 0.813099
0.309102 0.584297 0.806301
0.463795 0.577658 0.799662
0.615776 0.571136 0.793140
0.765629 0.564705 0.786709
0.913736 0.558349 0.780353
1.000000 0.552057 0.774061
0.000000 0.737017 0.802737
0.000000 0.732798 0.798518
0.129048 0.725746 0.791466
0.287468 0.718947 0.784667
0.442162 0.712308 0.778028
0.594142 0.705786 0.771506
0.743996 0.699356 0.765076
0.892102 0.693000 0.758720
1.000000 0.686707 0.752427
0.000000 0.870098 0.781355
0.000000 0.865879 0.777136
0.107666 0.858826 0.770084
0.266086 0.852028 0.763285
0.420780 0.845389 0.756647
0.572761 0.838867 0.750125
0.722614 0.832436 0.743694
0.870721 0.826081 0.737338
1.000000 0.819788 0.731046
0.000000 1.000000 0.760187
0.000000 0.997631 0.755968
0.086498 0.990578 0.748916
0.244918 0.983780 0.742117
0.399612 0.977141 0.735479
0.551593 0.970619 0.728957
0.701446 0.964188 0.722526
0.849552 0.957833 0.716170
0.996180 0.951540 0.709878
0.000000 0.000000 1.000000
0.083065 0.000000 1.000000
0.247405 0.000000 1.000000
0.405825 0.000000 1.000000
0.560519 0.000000 1.000000
0.712500 0.000000 1.000000
0.862353 0.000000 1.000000
1.000000 0.000000 1.000000
1.000000 0.000000 1.000000
0.000000 0.034631 1.000000
0.075052 0.030412 1.000000
0.239392 0.023359 1.000000
0.397812 0.016561 1.000000
0.552506 0.009922 1.000000
0.704487 0.003400 1.000000
0.854340 0.000000 1.000000
1.000000 0.000000 1.000000
1.000000 0.000000 1.000000
0.000000 0.182298 1.000000
0.051327 0.178080 1.000000
0.215667 0.171027 1.000000
0.374087 0.164229 1.000000
0.528781 0.157590 1.000000
0.680762 0.151068 1.000000
0.830615 0.144637 1.000000
0.978721 0.138281 0.999801
1.000000 0.131989 0.993509
0.000000 0.324646 1.000000
0.028456 0.320428 1.000000
0.192797 0.313375 1.000000
0.351217 0.306577 1.000000
0.505910 0.299938 0.996240
0.657891 0.293416 0.989718
0.807744 0.286985 0.983287
0.955851 0.280629 0.976931
1.000000 0.274337 0.970638
0.000000 0.463646 0.998616
0.006124 0.459427 0.994397
0.170464 0.452375 0.987344
0.328884 0.445576 0.980546
0.483578 0.438938 0.973907
0.635559 0.432416 0.967385
0.785412 0.425985 0.960954
0.933518 0.419629 0.954598
1.000000 0.413337 0.948306
0.000000 0.600208 0.976675
0.000000 0.595989 0.972456
0.148523 0.588937 0.965403
0.306943 0.582138 0.958605
0.461637 0.575500 0.951966
0.613618 0.568978 0.945444
0.763471 0.562547 0.939013
0.911577 0.556191 0.932657
1.000000 0.549899 0.926365
0.000000 0.734858 0.955041
0.000000 0.730640 0.950822
0.126889 0.723587 0.943770
0.285309 0.716789 0.936971
0.440003 0.710150 0.930333
0.591984 0.703628 0.923810
0.741837 0.697197 0.917380
0.889944 0.690841 0.911024
1.000000 0.684549 0.904731
0.000000 0.867939 0.933659
0.000000 0.863720 0.929440
0.105508 0.856668 0.922388
0.263928 0.849869 0.915589
0.418622 0.843231 0.908951
0.570602 0.836709 0.902429
0.720455 0.830278 0.895998
0.868562 0.823922 0.889642
1.000000 0.817630 0.883350
0.000000 0.999691 0.912491
0.000000 0.995473 0.908272
0.084340 0.988420 0.901220
0.242760 0.981622 0.894421
0.397453 0.974983 0.887783
0.549434 0.968461 0.881261
0.699287 0.962030 0.874830
0.847394 0.955674 0.868474
0.994022 0.949382 0.862182
0.000000 0.000000 1.000000
0.080980 0.000000 1.000000
0.245320 0.000000 1.000000
0.403740 0.000000 1.000000
0.558434 0.000000 1.000000
0.710415 0.000000 1.000000
0.860268 0.000000 1.000000
1.000000 0.000000 1.000000
1.000000 0.000000 1.000000
0.000000 0.032546 1.000000
0.072967 0.028327 1.000000
0.237307 0.021274 1.000000
0.395727 0.014476 1.000000
0.550421 0.007837 1.000000
0.702402 0.001315 1.000000
0.852255 0.000000 1.000000
1.000000 0.000000 1.000000
1.000000 0.000000 1.000000
0.000000 0.180213 1.000000
0.049242 0.175995 1.000000
0.213582 0.168942 1.000000
0.372002 0.162144 1.000000
0.526696 0.155505 1.000000
0.678677 0.148983 1.000000
0.828530 0.142552 1.000000
0.976636 0.136196 1.000000
1.000000 0.129904 1.000000
0.000000 0.322561 1.000000
0.026371 0.318343 1.000000
0.190712 0.311290 1.000000
0.349132 0.304492 1.000000
0.503825 0.297853 1.000000
0.655806 0.291331 1.000000
0.805659 0.284900 1.000000
0.953766 0.278544 1.000000
1.000000 0.272252 1.000000
0.000000 0.461561 1.000000
0.004039 0.457342 1.000000
0.168379 0.450290 1.000000
0.326799 0.443491 1.000000
0.481493 0.436853 1.000000
0.633474 0.430331 1.000000
0.783327 0.423900 1.000000
0.931433 0.417544 1.000000
1.000000 0.411252 1.000000
0.000000 0.598123 1.000000
0.000000 0.593904 1.000000
0.146438 0.586852 1.000000
0.304858 0.580053 1.000000
0.459552 0.573415 1.000000
0.611533 0.566893 1.000000
0.761386 0.560462 1.000000
0.909492 0.554106 1.000000
1.000000 0.547814 1.000000
0.000000 0.732773 1.000000
0.000000 0.728555 1.000000
0.124804 0.721502 1.000000
0.283224 0.714704 1.000000
0.437918 0.708065 1.000000
0.589899 0.701543 1.000000
0.739752 0.695112 1.000000
0.887859 0.688756 1.000000
1.000000 0.682464 1.000000
0.000000 0.865854 1.000000
0.000000 0.861636 1.000000
0.103423 0.854583 1.000000
0.261843 0.847785 1.000000
0.416537 0.841146 1.000000
0.568517 0.834624 1.000000
0.718370 0.828193 1.000000
0.866477 0.821837 1.000000
1.000000 0.815545 1.000000
0.000000 0.997606 1.000000
0.000000 0.993388 1.000000
0.082255 0.986335 1.000000
0.240675 0.979537 1.000000
0.395369 0.972898 1.000000
0.547349 0.966376 1.000000
0.697202 0.959945 1.000000
0.845309 0.953589 1.000000
0.991937 0.947297 1.000000
