luts/lyrical_lemonade_neon.cube
TITLE "FlagshipEditor original preset: lyrical_lemonade_neon.cube"
LUT_3D_SIZE 5
DOMAIN_MIN 0.0 0.0 0.0
DOMAIN_MAX 1.0 1.0 1.0
0.000000 0.000000 0.000000
0.324015 0.000000 0.000000
0.667444 0.000000 0.000000
1.000000 0.000000 0.000000
1.000000 0.000000 0.000000
0.000000 0.252178 0.000000
0.273872 0.237272 0.000000
0.617301 0.223581 0.000000
0.950100 0.210313 0.000000
1.000000 0.197314 0.000000
0.000000 0.563239 0.000000
0.227814 0.548334 0.000000
0.571243 0.534643 0.000000
0.904042 0.521375 0.000000
1.000000 0.508376 0.000000
0.000000 0.864673 0.000000
0.183182 0.849768 0.000000
0.526610 0.836077 0.000000
0.859409 0.822809 0.000000
1.000000 0.809810 0.000000
0.000000 1.000000 0.000000
0.139451 1.000000 0.000000
0.482879 1.000000 0.000000
0.815678 1.000000 0.000000
1.000000 1.000000 0.000000
0.000000 0.000000 0.341179
0.318953 0.000000 0.326273
0.662382 0.000000 0.312582
0.995181 0.000000 0.299315
1.000000 0.000000 0.286315
0.000000 0.247116 0.291036
0.268810 0.232210 0.276130
0.612239 0.218519 0.262439
0.945038 0.205251 0.249171
1.000000 0.192252 0.236172
0.000000 0.558177 0.244978
0.222752 0.543272 0.230072
0.566181 0.529581 0.216381
0.898980 0.516313 0.203114
1.000000 0.503314 0.190114
0.000000 0.859611 0.200345
0.178120 0.844706 0.185440
0.521548 0.831015 0.171749
0.854347 0.817747 0.158481
1.000000 0.804748 0.145482
0.000000 1.000000 0.156614
0.134389 1.000000 0.141709
0.477817 1.000000 0.128018
0.810616 1.000000 0.114750
1.000000 1.000000 0.101751
0.000000 0.000000 0.693649
0.314304 0.000000 0.678743
0.657732 0.000000 0.665052
0.990531 0.000000 0.651785
1.000000 0.000000 0.638785
0.000000 0.242466 0.643506
0.264160 0.227560 0.628600
0.607589 0.213869 0.614909
0.940388 0.200602 0.601642
1.000000 0.187602 0.588642
0.000000 0.553528 0.597448
0.218103 0.538622 0.582542
0.561531 0.524931 0.568851
0.894330 0.511664 0.555584
1.000000 0.498664 0.542584
0.000000 0.854962 0.552816
0.173470 0.840056 0.537910
0.516899 0.826365 0.524219
0.849698 0.813098 0.510951
1.000000 0.800098 0.497952
0.000000 1.000000 0.509084
0.129739 1.000000 0.494179
0.473168 1.000000 0.480488
0.805967 1.000000 0.467220
1.000000 1.000000 0.454221
0.000000 0.000000 1.000000
0.309798 0.000000 1.000000
0.653227 0.000000 1.000000
0.986026 0.000000 0.993346
1.000000 0.000000 0.980346
0.000000 0.237960 0.985066
0.259655 0.223055 0.970161
0.603083 0.209364 0.956470
0.935882 0.196096 0.943202
1.000000 0.183097 0.930203
0.000000 0.549022 0.939009
0.213597 0.534117 0.924103
0.557026 0.520426 0.910412
0.889824 0.507158 0.897144
1.000000 0.494159 0.884145
0.000000 0.850456 0.894376
0.168964 0.835551 0.879471
0.512393 0.821860 0.865780
0.845192 0.808592 0.852512
1.000000 0.795593 0.839513
0.000000 1.000000 0.850645
0.125233 1.000000 0.835740
0.468662 1.000000 0.822048
0.801461 1.000000 0.808781
1.000000 1.000000 0.795782
0.000000 0.000000 1.000000
0.305383 0.000000 1.000000
0.648812 0.000000 1.000000
0.981611 0.000000 1.000000
1.000000 0.000000 1.000000
0.000000 0.233546 1.000000
0.255240 0.218640 1.000000
0.598669 0.204949 1.000000
0.931468 0.191682 1.000000
1.000000 0.178682 1.000000
0.000000 0.544608 1.000000
0.209182 0.529702 1.000000
0.552611 0.516011 1.000000
0.885410 0.502743 1.000000
1.000000 0.489744 1.000000
0.000000 0.846042 1.000000
0.164550 0.831136 1.000000
0.507978 0.817445 1.000000
0.840777 0.804177 1.000000
1.000000 0.791178 1.000000
0.000000 1.000000 1.000000
0.120819 1.000000 1.000000
0.464247 1.000000 1.000000
0.797046 1.000000 1.000000
1.000000 1.000000 1.000000
