luts/lyrical_lemonade_neon.cube
TITLE "FlagshipEditor original preset: lyrical_lemonade_neon.cube"
LUT_3D_SIZE 17
DOMAIN_MIN 0.0 0.0 0.0
DOMAIN_MAX 1.0 1.0 1.0
0.000000 0.000000 0.000000
0.051705 0.000000 0.000000
0.145009 0.000000 0.000000
0.235425 0.000000 0.000000
0.324015 0.000000 0.000000
0.411272 0.000000 0.000000
0.497481 0.000000 0.000000
0.582828 0.000000 0.000000
0.667444 0.000000 0.000000
0.751426 0.000000 0.000000
0.834849 0.000000 0.000000
0.917772 0.000000 0.000000
1.000000 0.000000 0.000000
1.000000 0.000000 0.000000
1.000000 0.000000 0.000000
1.000000 0.000000 0.000000
1.000000 0.000000 0.000000
0.000000 0.005531 0.000000
0.038082 0.001482 0.000000
0.131386 0.000000 0.000000
0.221802 0.000000 0.000000
0.310392 0.000000 0.000000
0.397649 0.000000 0.000000
0.483858 0.000000 0.000000
0.569205 0.000000 0.000000
0.653821 0.000000 0.000000
0.737803 0.000000 0.000000
0.821226 0.000000 0.000000
0.904149 0.000000 0.000000
0.986620 0.000000 0.000000
1.000000 0.000000 0.000000
1.000000 0.000000 0.000000
1.000000 0.000000 0.000000
1.000000 0.000000 0.000000
0.000000 0.090042 0.000000
0.025569 0.085992 0.000000
0.118873 0.082273 0.000000
0.209289 0.078668 0.000000
0.297879 0.075136 0.000000
0.385136 0.071658 0.000000
0.471345 0.068221 0.000000
0.556692 0.064818 0.000000
0.641308 0.061445 0.000000
0.725290 0.058097 0.000000
0.808712 0.054771 0.000000
0.891635 0.051466 0.000000
0.974107 0.048178 0.000000
1.000000 0.044906 0.000000
1.000000 0.041650 0.000000
1.000000 0.038408 0.000000
1.000000 0.035178 0.000000
0.000000 0.171937 0.000000
0.013443 0.167887 0.000000
0.106747 0.164167 0.000000
0.197163 0.160563 0.000000
0.285753 0.157031 0.000000
0.373010 0.153552 0.000000
0.459219 0.150116 0.000000
0.544566 0.146713 0.000000
0.629182 0.143340 0.000000
0.713164 0.139992 0.000000
0.796587 0.136666 0.000000
0.879509 0.133360 0.000000
0.961981 0.130072 0.000000
1.000000 0.126801 0.000000
1.000000 0.123545 0.000000
1.000000 0.120302 0.000000
1.000000 0.117073 0.000000
0.000000 0.252178 0.000000
0.001562 0.248128 0.000000
0.094866 0.244408 0.000000
0.185282 0.240804 0.000000
0.273872 0.237272 0.000000
0.361129 0.233793 0.000000
0.447338 0.230357 0.000000
0.532685 0.226954 0.000000
0.617301 0.223581 0.000000
0.701283 0.220233 0.000000
0.784706 0.216907 0.000000
0.867628 0.213601 0.000000
0.950100 0.210313 0.000000
1.000000 0.207042 0.000000
1.000000 0.203786 0.000000
1.000000 0.200543 0.000000
1.000000 0.197314 0.000000
0.000000 0.331211 0.000000
0.000000 0.327161 0.000000
0.083163 0.323442 0.000000
0.173580 0.319837 0.000000
0.262170 0.316305 0.000000
0.349427 0.312827 0.000000
0.435636 0.309390 0.000000
0.520983 0.305987 0.000000
0.605598 0.302614 0.000000
0.689580 0.299266 0.000000
0.773003 0.295940 0.000000
0.855926 0.292635 0.000000
0.938397 0.289347 0.000000
1.000000 0.286075 0.000000
1.000000 0.282819 0.000000
1.000000 0.279577 0.000000
1.000000 0.276347 0.000000
0.000000 0.409295 0.000000
0.000000 0.405245 0.000000
0.071602 0.401526 0.000000
0.162018 0.397921 0.000000
0.250608 0.394389 0.000000
0.337865 0.390911 0.000000
0.424074 0.387474 0.000000
0.509421 0.384071 0.000000
0.594037 0.380698 0.000000
0.678019 0.377350 0.000000
0.761442 0.374024 0.000000
0.844365 0.370719 0.000000
0.926836 0.367431 0.000000
1.000000 0.364159 0.000000
1.000000 0.360903 0.000000
1.000000 0.357661 0.000000
1.000000 0.354431 0.000000
0.000000 0.486598 0.000000
0.000000 0.482549 0.000000
0.060156 0.478829 0.000000
0.150572 0.475224 0.000000
0.239162 0.471693 0.000000
0.326419 0.468214 0.000000
0.412628 0.464777 0.000000
0.497975 0.461375 0.000000
0.582591 0.458002 0.000000
0.666573 0.454653 0.000000
0.749996 0.451328 0.000000
0.832919 0.448022 0.000000
0.915390 0.444734 0.000000
0.997449 0.441463 0.000000
1.000000 0.438206 0.000000
1.000000 0.434964 0.000000
1.000000 0.431735 0.000000
0.000000 0.563239 0.000000
0.000000 0.559190 0.000000
0.048808 0.555470 0.000000
0.139224 0.551866 0.000000
0.227814 0.548334 0.000000
0.315071 0.544855 0.000000
0.401280 0.541419 0.000000
0.486627 0.538016 0.000000
0.571243 0.534643 0.000000
0.655225 0.531295 0.000000
0.738648 0.527969 0.000000
0.821571 0.524663 0.000000
0.904042 0.521375 0.000000
0.986101 0.518104 0.000000
1.000000 0.514848 0.000000
1.000000 0.511605 0.000000
1.000000 0.508376 0.000000
0.000000 0.639307 0.000000
0.000000 0.635257 0.000000
0.037545 0.631537 0.000000
0.127961 0.627933 0.000000
0.216551 0.624401 0.000000
0.303808 0.620922 0.000000
0.390017 0.617486 0.000000
0.475364 0.614083 0.000000
0.559980 0.610710 0.000000
0.643962 0.607362 0.000000
0.727385 0.604036 0.000000
0.810308 0.600730 0.000000
0.892779 0.597442 0.000000
0.974838 0.594171 0.000000
1.000000 0.590915 0.000000
1.000000 0.587672 0.000000
1.000000 0.584443 0.000000
0.000000 0.714867 0.000000
0.000000 0.710817 0.000000
0.026357 0.707098 0.000000
0.116773 0.703493 0.000000
0.205363 0.699962 0.000000
0.292620 0.696483 0.000000
0.378829 0.693046 0.000000
0.464176 0.689644 0.000000
0.548792 0.686270 0.000000
0.632774 0.682922 0.000000
0.716197 0.679597 0.000000
0.799120 0.676291 0.000000
0.881591 0.673003 0.000000
0.963650 0.669732 0.000000
1.000000 0.666475 0.000000
1.000000 0.663233 0.000000
1.000000 0.660003 0.000000
0.000000 0.789975 0.000000
0.000000 0.785925 0.000000
0.015236 0.782206 0.000000
0.105652 0.778601 0.000000
0.194242 0.775069 0.000000
0.281499 0.771591 0.000000
0.367708 0.768154 0.000000
0.453055 0.764751 0.000000
0.537671 0.761378 0.000000
0.621653 0.758030 0.000000
0.705076 0.754704 0.000000
0.787999 0.751399 0.000000
0.870470 0.748111 0.000000
0.952529 0.744839 0.000000
1.000000 0.741583 0.000000
1.000000 0.738341 0.000000
1.000000 0.735111 0.000000
0.000000 0.864673 0.000000
0.000000 0.860624 0.000000
0.004175 0.856904 0.000000
0.094591 0.853300 0.000000
0.183182 0.849768 0.000000
0.270439 0.846289 0.000000
0.356648 0.842853 0.000000
0.441994 0.839450 0.000000
0.526610 0.836077 0.000000
0.610592 0.832729 0.000000
0.694015 0.829403 0.000000
0.776938 0.826097 0.000000
0.859409 0.822809 0.000000
0.941469 0.819538 0.000000
1.000000 0.816282 0.000000
1.000000 0.813039 0.000000
1.000000 0.809810 0.000000
0.000000 0.938999 0.000000
0.000000 0.934949 0.000000
0.000000 0.931230 0.000000
0.083586 0.927625 0.000000
0.172177 0.924094 0.000000
0.259433 0.920615 0.000000
0.345642 0.917178 0.000000
0.430989 0.913776 0.000000
0.515605 0.910402 0.000000
0.599587 0.907054 0.000000
0.683010 0.903729 0.000000
0.765933 0.900423 0.000000
0.848404 0.897135 0.000000
0.930464 0.893864 0.000000
1.000000 0.890607 0.000000
1.000000 0.887365 0.000000
1.000000 0.884136 0.000000
0.000000 1.000000 0.000000
0.000000 1.000000 0.000000
0.000000 1.000000 0.000000
0.072632 1.000000 0.000000
0.161222 0.998077 0.000000
0.248479 0.994598 0.000000
0.334688 0.991161 0.000000
0.420035 0.987759 0.000000
0.504651 0.984385 0.000000
0.588633 0.981037 0.000000
0.672056 0.977712 0.000000
0.754979 0.974406 0.000000
0.837450 0.971118 0.000000
0.919509 0.967847 0.000000
1.000000 0.964590 0.000000
1.000000 0.961348 0.000000
1.000000 0.958119 0.000000
0.000000 1.000000 0.000000
0.000000 1.000000 0.000000
0.000000 1.000000 0.000000
0.061724 1.000000 0.000000
0.150315 1.000000 0.000000
0.237572 1.000000 0.000000
0.323780 1.000000 0.000000
0.409127 1.000000 0.000000
0.493743 1.000000 0.000000
0.577725 1.000000 0.000000
0.661148 1.000000 0.000000
0.744071 1.000000 0.000000
0.826542 1.000000 0.000000
0.908602 1.000000 0.000000
0.990283 1.000000 0.000000
1.000000 1.000000 0.000000
1.000000 1.000000 0.000000
0.000000 1.000000 0.000000
0.000000 1.000000 0.000000
0.000000 1.000000 0.000000
0.050860 1.000000 0.000000
0.139451 1.000000 0.000000
0.226708 1.000000 0.000000
0.312916 1.000000 0.000000
0.398263 1.000000 0.000000
0.482879 1.000000 0.000000
0.566861 1.000000 0.000000
0.650284 1.000000 0.000000
0.733207 1.000000 0.000000
0.815678 1.000000 0.000000
0.897738 1.000000 0.000000
0.979419 1.000000 0.000000
1.000000 1.000000 0.000000
1.000000 1.000000 0.000000
0.000000 0.000000 0.061699
0.050330 0.000000 0.057650
0.143634 0.000000 0.053930
0.234050 0.000000 0.050325
0.322640 0.000000 0.046794
0.409897 0.000000 0.043315
0.496106 0.000000 0.039878
0.581453 0.000000 0.036476
0.666069 0.000000 0.033103
0.750051 0.000000 0.029754
0.833473 0.000000 0.026429
0.916396 0.000000 0.023123
0.998868 0.000000 0.019835
1.000000 0.000000 0.016564
1.000000 0.000000 0.013307
1.000000 0.000000 0.010065
1.000000 0.000000 0.006836
0.000000 0.004156 0.048076
0.036707 0.000107 0.044027
0.130011 0.000000 0.040307
0.220427 0.000000 0.036702
0.309017 0.000000 0.033171
0.396274 0.000000 0.029692
0.482483 0.000000 0.026255
0.567830 0.000000 0.022853
0.652446 0.000000 0.019479
0.736428 0.000000 0.016131
0.819850 0.000000 0.012806
0.902773 0.000000 0.009500
0.985244 0.000000 0.006212
1.000000 0.000000 0.002941
1.000000 0.000000 0.000000
1.000000 0.000000 0.000000
1.000000 0.000000 0.000000
0.000000 0.088667 0.035563
0.024193 0.084617 0.031513
0.117497 0.080897 0.027794
0.207913 0.077293 0.024189
0.296504 0.073761 0.020657
0.383761 0.070282 0.017179
0.469969 0.066846 0.013742
0.555316 0.063443 0.010340
0.639932 0.060070 0.006966
0.723914 0.056722 0.003618
0.807337 0.053396 0.000292
0.890260 0.050090 0.000000
0.972731 0.046803 0.000000
1.000000 0.043531 0.000000
1.000000 0.040275 0.000000
1.000000 0.037032 0.000000
1.000000 0.033803 0.000000
0.000000 0.170561 0.023437
0.012067 0.166512 0.019387
0.105371 0.162792 0.015668
0.195788 0.159188 0.012063
0.284378 0.155656 0.008532
0.371635 0.152177 0.005053
0.457844 0.148740 0.001616
0.543190 0.145338 0.000000
0.627806 0.141965 0.000000
0.711788 0.138617 0.000000
0.795211 0.135291 0.000000
0.878134 0.131985 0.000000
0.960605 0.128697 0.000000
1.000000 0.125426 0.000000
1.000000 0.122170 0.000000
1.000000 0.118927 0.000000
1.000000 0.115698 0.000000
0.000000 0.250802 0.011556
0.000186 0.246753 0.007506
0.093490 0.243033 0.003787
0.183906 0.239428 0.000182
0.272497 0.235897 0.000000
0.359754 0.232418 0.000000
0.445963 0.228981 0.000000
0.531309 0.225579 0.000000
0.615925 0.222206 0.000000
0.699907 0.218858 0.000000
0.783330 0.215532 0.000000
0.866253 0.212226 0.000000
0.948724 0.208938 0.000000
1.000000 0.205667 0.000000
1.000000 0.202411 0.000000
1.000000 0.199168 0.000000
1.000000 0.195939 0.000000
0.000000 0.329836 0.000000
0.000000 0.325786 0.000000
0.081788 0.322066 0.000000
0.172204 0.318462 0.000000
0.260795 0.314930 0.000000
0.348051 0.311451 0.000000
0.434260 0.308015 0.000000
0.519607 0.304612 0.000000
0.604223 0.301239 0.000000
0.688205 0.297891 0.000000
0.771628 0.294565 0.000000
0.854551 0.291259 0.000000
0.937022 0.287971 0.000000
1.000000 0.284700 0.000000
1.000000 0.281444 0.000000
1.000000 0.278201 0.000000
1.000000 0.274972 0.000000
0.000000 0.407920 0.000000
0.000000 0.403870 0.000000
0.070227 0.400150 0.000000
0.160643 0.396546 0.000000
0.249233 0.393014 0.000000
0.336490 0.389535 0.000000
0.422699 0.386099 0.000000
0.508046 0.382696 0.000000
0.592662 0.379323 0.000000
0.676644 0.375975 0.000000
0.760066 0.372649 0.000000
0.842989 0.369343 0.000000
0.925461 0.366056 0.000000
1.000000 0.362784 0.000000
1.000000 0.359528 0.000000
1.000000 0.356285 0.000000
1.000000 0.353056 0.000000
0.000000 0.485223 0.000000
0.000000 0.481173 0.000000
0.058781 0.477454 0.000000
0.149197 0.473849 0.000000
0.237787 0.470317 0.000000
0.325044 0.466839 0.000000
0.411253 0.463402 0.000000
0.496600 0.460000 0.000000
0.581216 0.456626 0.000000
0.665198 0.453278 0.000000
0.748620 0.449952 0.000000
0.831543 0.446647 0.000000
0.914014 0.443359 0.000000
0.996074 0.440087 0.000000
1.000000 0.436831 0.000000
1.000000 0.433589 0.000000
1.000000 0.430359 0.000000
0.000000 0.561864 0.000000
0.000000 0.557815 0.000000
0.047433 0.554095 0.000000
0.137849 0.550490 0.000000
0.226439 0.546959 0.000000
0.313696 0.543480 0.000000
0.399905 0.540043 0.000000
0.485252 0.536641 0.000000
0.569867 0.533267 0.000000
0.653850 0.529919 0.000000
0.737272 0.526594 0.000000
0.820195 0.523288 0.000000
0.902666 0.520000 0.000000
0.984726 0.516729 0.000000
1.000000 0.513472 0.000000
1.000000 0.510230 0.000000
1.000000 0.507001 0.000000
0.000000 0.637931 0.000000
0.000000 0.633882 0.000000
0.036170 0.630162 0.000000
0.126586 0.626557 0.000000
0.215176 0.623026 0.000000
0.302433 0.619547 0.000000
0.388642 0.616110 0.000000
0.473989 0.612708 0.000000
0.558604 0.609335 0.000000
0.642587 0.605987 0.000000
0.726009 0.602661 0.000000
0.808932 0.599355 0.000000
0.891403 0.596067 0.000000
0.973463 0.592796 0.000000
1.000000 0.589539 0.000000
1.000000 0.586297 0.000000
1.000000 0.583068 0.000000
0.000000 0.713492 0.000000
0.000000 0.709442 0.000000
0.024982 0.705723 0.000000
0.115398 0.702118 0.000000
0.203988 0.698586 0.000000
0.291245 0.695108 0.000000
0.377454 0.691671 0.000000
0.462801 0.688268 0.000000
0.547416 0.684895 0.000000
0.631399 0.681547 0.000000
0.714821 0.678221 0.000000
0.797744 0.674916 0.000000
0.880215 0.671628 0.000000
0.962275 0.668356 0.000000
1.000000 0.665100 0.000000
1.000000 0.661858 0.000000
1.000000 0.658628 0.000000
0.000000 0.788600 0.000000
0.000000 0.784550 0.000000
0.013861 0.780830 0.000000
0.104277 0.777226 0.000000
0.192867 0.773694 0.000000
0.280124 0.770215 0.000000
0.366333 0.766779 0.000000
0.451680 0.763376 0.000000
0.536296 0.760003 0.000000
0.620278 0.756655 0.000000
0.703700 0.753329 0.000000
0.786623 0.750023 0.000000
0.869094 0.746735 0.000000
0.951154 0.743464 0.000000
1.000000 0.740208 0.000000
1.000000 0.736965 0.000000
1.000000 0.733736 0.000000
0.000000 0.863298 0.000000
0.000000 0.859249 0.000000
0.002800 0.855529 0.000000
0.093216 0.851924 0.000000
0.181806 0.848393 0.000000
0.269063 0.844914 0.000000
0.355272 0.841477 0.000000
0.440619 0.838075 0.000000
0.525235 0.834702 0.000000
0.609217 0.831353 0.000000
0.692640 0.828028 0.000000
0.775563 0.824722 0.000000
0.858034 0.821434 0.000000
0.940093 0.818163 0.000000
1.000000 0.814906 0.000000
1.000000 0.811664 0.000000
1.000000 0.808435 0.000000
0.000000 0.937624 0.000000
0.000000 0.933574 0.000000
0.000000 0.929855 0.000000
0.082211 0.926250 0.000000
0.170801 0.922718 0.000000
0.258058 0.919240 0.000000
0.344267 0.915803 0.000000
0.429614 0.912400 0.000000
0.514230 0.909027 0.000000
0.598212 0.905679 0.000000
0.681635 0.902353 0.000000
0.764558 0.899048 0.000000
0.847029 0.895760 0.000000
0.929088 0.892488 0.000000
1.000000 0.889232 0.000000
1.000000 0.885990 0.000000
1.000000 0.882760 0.000000
0.000000 1.000000 0.000000
0.000000 1.000000 0.000000
0.000000 1.000000 0.000000
0.071257 1.000000 0.000000
0.159847 0.996701 0.000000
0.247104 0.993223 0.000000
0.333313 0.989786 0.000000
0.418660 0.986383 0.000000
0.503276 0.983010 0.000000
0.587258 0.979662 0.000000
0.670680 0.976336 0.000000
0.753603 0.973031 0.000000
0.836075 0.969743 0.000000
0.918134 0.966471 0.000000
0.999815 0.963215 0.000000
1.000000 0.959973 0.000000
1.000000 0.956743 0.000000
0.000000 1.000000 0.000000
0.000000 1.000000 0.000000
0.000000 1.000000 0.000000
0.060349 1.000000 0.000000
0.148939 1.000000 0.000000
0.236196 1.000000 0.000000
0.322405 1.000000 0.000000
0.407752 1.000000 0.000000
0.492368 1.000000 0.000000
0.576350 1.000000 0.000000
0.659773 1.000000 0.000000
0.742696 1.000000 0.000000
0.825167 1.000000 0.000000
0.907226 1.000000 0.000000
0.988908 1.000000 0.000000
1.000000 1.000000 0.000000
1.000000 1.000000 0.000000
0.000000 1.000000 0.000000
0.000000 1.000000 0.000000
0.000000 1.000000 0.000000
0.049485 1.000000 0.000000
0.138075 1.000000 0.000000
0.225332 1.000000 0.000000
0.311541 1.000000 0.000000
0.396888 1.000000 0.000000
0.481504 1.000000 0.000000
0.565486 1.000000 0.000000
0.648909 1.000000 0.000000
0.731832 1.000000 0.000000
0.814303 1.000000 0.000000
0.896362 1.000000 0.000000
0.978044 1.000000 0.000000
1.000000 1.000000 0.000000
1.000000 1.000000 0.000000
0.000000 0.000000 0.157460
0.049066 0.000000 0.153410
0.142370 0.000000 0.149690
0.232786 0.000000 0.146086
0.321377 0.000000 0.142554
0.408634 0.000000 0.139076
0.494842 0.000000 0.135639
0.580189 0.000000 0.132236
0.664805 0.000000 0.128863
0.748787 0.000000 0.125515
0.832210 0.000000 0.122189
0.915133 0.000000 0.118883
0.997604 0.000000 0.115596
1.000000 0.000000 0.112324
1.000000 0.000000 0.109068
1.000000 0.000000 0.105826
1.000000 0.000000 0.102596
0.000000 0.002893 0.143837
0.035443 0.000000 0.139787
0.128747 0.000000 0.136067
0.219163 0.000000 0.132463
0.307754 0.000000 0.128931
0.395011 0.000000 0.125452
0.481219 0.000000 0.122016
0.566566 0.000000 0.118613
0.651182 0.000000 0.115240
0.735164 0.000000 0.111892
0.818587 0.000000 0.108566
0.901510 0.000000 0.105260
0.983981 0.000000 0.101972
1.000000 0.000000 0.098701
1.000000 0.000000 0.095445
1.000000 0.000000 0.092202
1.000000 0.000000 0.088973
0.000000 0.087403 0.131323
0.022930 0.083354 0.127274
0.116234 0.079634 0.123554
0.206650 0.076030 0.119950
0.295240 0.072498 0.116418
0.382497 0.069019 0.112939
0.468706 0.065582 0.109502
0.554053 0.062180 0.106100
0.638669 0.058807 0.102727
0.722651 0.055459 0.099379
0.806074 0.052133 0.096053
0.888997 0.048827 0.092747
0.971468 0.045539 0.089459
1.000000 0.042268 0.086188
1.000000 0.039012 0.082932
1.000000 0.035769 0.079689
1.000000 0.032540 0.076460
0.000000 0.169298 0.119197
0.010804 0.165248 0.115148
0.104108 0.161529 0.111428
0.194524 0.157924 0.107824
0.283115 0.154393 0.104292
0.370371 0.150914 0.100813
0.456580 0.147477 0.097377
0.541927 0.144075 0.093974
0.626543 0.140701 0.090601
0.710525 0.137353 0.087253
0.793948 0.134028 0.083927
0.876871 0.130722 0.080621
0.959342 0.127434 0.077333
1.000000 0.124163 0.074062
1.000000 0.120906 0.070806
1.000000 0.117664 0.067563
1.000000 0.114435 0.064334
0.000000 0.249539 0.107316
0.000000 0.245489 0.103267
0.092227 0.241770 0.099547
0.182643 0.238165 0.095943
0.271234 0.234634 0.092411
0.358490 0.231155 0.088932
0.444699 0.227718 0.085496
0.530046 0.224316 0.082093
0.614662 0.220942 0.078720
0.698644 0.217594 0.075372
0.782067 0.214269 0.072046
0.864990 0.210963 0.068740
0.947461 0.207675 0.065452
1.000000 0.204404 0.062181
1.000000 0.201147 0.058925
1.000000 0.197905 0.055682
1.000000 0.194676 0.052453
0.000000 0.328572 0.095614
0.000000 0.324523 0.091565
0.080525 0.320803 0.087845
0.170941 0.317199 0.084240
0.259531 0.313667 0.080709
0.346788 0.310188 0.077230
0.432997 0.306751 0.073793
0.518344 0.303349 0.070391
0.602960 0.299976 0.067018
0.686942 0.296628 0.063670
0.770365 0.293302 0.060344
0.853288 0.289996 0.057038
0.935759 0.286708 0.053750
1.000000 0.283437 0.050479
1.000000 0.280181 0.047222
1.000000 0.276938 0.043980
1.000000 0.273709 0.040751
0.000000 0.406656 0.084053
0.000000 0.402607 0.080003
0.068963 0.398887 0.076283
0.159379 0.395283 0.072679
0.247970 0.391751 0.069147
0.335227 0.388272 0.065668
0.421435 0.384835 0.062232
0.506782 0.381433 0.058829
0.591398 0.378060 0.055456
0.675380 0.374712 0.052108
0.758803 0.371386 0.048782
0.841726 0.368080 0.045476
0.924197 0.364792 0.042189
1.000000 0.361521 0.038917
1.000000 0.358265 0.035661
1.000000 0.355022 0.032418
1.000000 0.351793 0.029189
0.000000 0.483960 0.072607
0.000000 0.479910 0.068557
0.057517 0.476190 0.064837
0.147933 0.472586 0.061233
0.236524 0.469054 0.057701
0.323781 0.465576 0.054222
0.409989 0.462139 0.050786
0.495336 0.458736 0.047383
0.579952 0.455363 0.044010
0.663934 0.452015 0.040662
0.747357 0.448689 0.037336
0.830280 0.445383 0.034030
0.912751 0.442096 0.030742
0.994811 0.438824 0.027471
1.000000 0.435568 0.024215
1.000000 0.432326 0.020972
1.000000 0.429096 0.017743
0.000000 0.560601 0.061259
0.000000 0.556551 0.057209
0.046169 0.552832 0.053489
0.136585 0.549227 0.049885
0.225176 0.545695 0.046353
0.312433 0.542217 0.042874
0.398641 0.538780 0.039438
0.483988 0.535378 0.036035
0.568604 0.532004 0.032662
0.652586 0.528656 0.029314
0.736009 0.525331 0.025988
0.818932 0.522025 0.022682
0.901403 0.518737 0.019394
0.983463 0.515466 0.016123
1.000000 0.512209 0.012867
1.000000 0.508967 0.009624
1.000000 0.505737 0.006395
0.000000 0.636668 0.049996
0.000000 0.632618 0.045946
0.034906 0.628899 0.042226
0.125322 0.625294 0.038622
0.213913 0.621762 0.035090
0.301170 0.618284 0.031611
0.387378 0.614847 0.028175
0.472725 0.611445 0.024772
0.557341 0.608071 0.021399
0.641323 0.604723 0.018051
0.724746 0.601398 0.014725
0.807669 0.598092 0.011419
0.890140 0.594804 0.008131
0.972200 0.591533 0.004860
1.000000 0.588276 0.001604
1.000000 0.585034 0.000000
1.000000 0.581804 0.000000
0.000000 0.712229 0.038808
0.000000 0.708179 0.034758
0.023718 0.704459 0.031038
0.114134 0.700855 0.027434
0.202725 0.697323 0.023902
0.289982 0.693844 0.020423
0.376190 0.690408 0.016987
0.461537 0.687005 0.013584
0.546153 0.683632 0.010211
0.630135 0.680284 0.006863
0.713558 0.676958 0.003537
0.796481 0.673652 0.000231
0.878952 0.670364 0.000000
0.961012 0.667093 0.000000
1.000000 0.663837 0.000000
1.000000 0.660594 0.000000
1.000000 0.657365 0.000000
0.000000 0.787336 0.027687
0.000000 0.783287 0.023637
0.012597 0.779567 0.019917
0.103013 0.775963 0.016313
0.191604 0.772431 0.012781
0.278861 0.768952 0.009302
0.365069 0.765515 0.005866
0.450416 0.762113 0.002463
0.535032 0.758740 0.000000
0.619014 0.755392 0.000000
0.702437 0.752066 0.000000
0.785360 0.748760 0.000000
0.867831 0.745472 0.000000
0.949891 0.742201 0.000000
1.000000 0.738945 0.000000
1.000000 0.735702 0.000000
1.000000 0.732473 0.000000
0.000000 0.862035 0.016626
0.000000 0.857985 0.012577
0.001537 0.854266 0.008857
0.091953 0.850661 0.005252
0.180543 0.847129 0.001721
0.267800 0.843651 0.000000
0.354009 0.840214 0.000000
0.439356 0.836812 0.000000
0.523972 0.833438 0.000000
0.607954 0.830090 0.000000
0.691377 0.826765 0.000000
0.774300 0.823459 0.000000
0.856771 0.820171 0.000000
0.938830 0.816900 0.000000
1.000000 0.813643 0.000000
1.000000 0.810401 0.000000
1.000000 0.807171 0.000000
0.000000 0.936361 0.005621
0.000000 0.932311 0.001571
0.000000 0.928591 0.000000
0.080948 0.924987 0.000000
0.169538 0.921455 0.000000
0.256795 0.917976 0.000000
0.343004 0.914540 0.000000
0.428351 0.911137 0.000000
0.512967 0.907764 0.000000
0.596949 0.904416 0.000000
0.680372 0.901090 0.000000
0.763295 0.897784 0.000000
0.845766 0.894497 0.000000
0.927825 0.891225 0.000000
1.000000 0.887969 0.000000
1.000000 0.884726 0.000000
1.000000 0.881497 0.000000
0.000000 1.000000 0.000000
0.000000 1.000000 0.000000
0.000000 1.000000 0.000000
0.069993 0.998970 0.000000
0.158584 0.995438 0.000000
0.245841 0.991959 0.000000
0.332049 0.988523 0.000000
0.417396 0.985120 0.000000
0.502012 0.981747 0.000000
0.585994 0.978399 0.000000
0.669417 0.975073 0.000000
0.752340 0.971767 0.000000
0.834811 0.968480 0.000000
0.916871 0.965208 0.000000
0.998552 0.961952 0.000000
1.000000 0.958709 0.000000
1.000000 0.955480 0.000000
0.000000 1.000000 0.000000
0.000000 1.000000 0.000000
0.000000 1.000000 0.000000
0.059086 1.000000 0.000000
0.147676 1.000000 0.000000
0.234933 1.000000 0.000000
0.321142 1.000000 0.000000
0.406489 1.000000 0.000000
0.491105 1.000000 0.000000
0.575087 1.000000 0.000000
0.658510 1.000000 0.000000
0.741433 1.000000 0.000000
0.823904 1.000000 0.000000
0.905963 1.000000 0.000000
0.987644 1.000000 0.000000
1.000000 1.000000 0.000000
1.000000 1.000000 0.000000
0.000000 1.000000 0.000000
0.000000 1.000000 0.000000
0.000000 1.000000 0.000000
0.048222 1.000000 0.000000
0.136812 1.000000 0.000000
0.224069 1.000000 0.000000
0.310278 1.000000 0.000000
0.395625 1.000000 0.000000
0.480241 1.000000 0.000000
0.564223 1.000000 0.000000
0.647646 1.000000 0.000000
0.730569 1.000000 0.000000
0.813040 1.000000 0.000000
0.895099 1.000000 0.000000
0.976780 1.000000 0.000000
1.000000 1.000000 0.000000
1.000000 1.000000 0.000000
0.000000 0.000000 0.250256
0.047842 0.000000 0.246207
0.141146 0.000000 0.242487
0.231562 0.000000 0.238882
0.320153 0.000000 0.235351
0.407409 0.000000 0.231872
0.493618 0.000000 0.228435
0.578965 0.000000 0.225033
0.663581 0.000000 0.221659
0.747563 0.000000 0.218311
0.830986 0.000000 0.214986
0.913909 0.000000 0.211680
0.996380 0.000000 0.208392
1.000000 0.000000 0.205121
1.000000 0.000000 0.201864
1.000000 0.000000 0.198622
1.000000 0.000000 0.195393
