luts/lyrical_lemonade_vibrant.cube
TITLE "FlagshipEditor original preset: lyrical_lemonade_vibrant.cube"
LUT_3D_SIZE 5
DOMAIN_MIN 0.0 0.0 0.0
DOMAIN_MAX 1.0 1.0 1.0
0.000000 0.000000 0.000000
0.313817 0.000000 0.000000
0.630937 0.000000 0.000000
0.939859 0.000000 0.000000
1.000000 0.000000 0.000000
0.000000 0.278438 0.000000
0.279720 0.267920 0.000000
0.596840 0.257291 0.000000
0.905762 0.246936 0.000000
1.000000 0.240170 0.000000
0.000000 0.570431 0.000000
0.243963 0.559913 0.000000
0.561083 0.549283 0.000000
0.870005 0.538929 0.000000
1.000000 0.532163 0.000000
0.000000 0.854875 0.000000
0.209130 0.844356 0.000000
0.526251 0.833727 0.000000
0.835173 0.823373 0.000000
1.000000 0.816607 0.000000
0.000000 1.000000 0.000000
0.185081 1.000000 0.000000
0.502201 1.000000 0.000000
0.811123 1.000000 0.000000
1.000000 1.000000 0.000000
0.000000 0.000000 0.313761
0.310323 0.000000 0.303243
0.627443 0.000000 0.292613
0.936365 0.000000 0.282259
1.000000 0.000000 0.275493
0.000000 0.274944 0.279664
0.276226 0.264426 0.269146
0.593346 0.253796 0.258516
0.902268 0.243442 0.248162
1.000000 0.236676 0.241396
0.000000 0.566937 0.243907
0.240469 0.556418 0.233389
0.557589 0.545789 0.222759
0.866511 0.535435 0.212405
1.000000 0.528669 0.205639
0.000000 0.851381 0.209074
0.205636 0.840862 0.198556
0.522757 0.830233 0.187927
0.831679 0.819879 0.177573
1.000000 0.813113 0.170806
0.000000 1.000000 0.185025
0.181587 1.000000 0.174507
0.498707 1.000000 0.163877
0.807629 1.000000 0.153523
1.000000 1.000000 0.146757
0.000000 0.000000 0.637901
0.306713 0.000000 0.627383
0.623834 0.000000 0.616754
0.932756 0.000000 0.606399
1.000000 0.000000 0.599633
0.000000 0.271334 0.603804
0.272616 0.260816 0.593286
0.589737 0.250187 0.582657
0.898659 0.239832 0.572302
1.000000 0.233066 0.565536
0.000000 0.563327 0.568047
0.236859 0.552809 0.557529
0.553980 0.542180 0.546900
0.862902 0.531825 0.536545
1.000000 0.525059 0.529779
0.000000 0.847771 0.533215
0.202026 0.837252 0.522696
0.519147 0.826623 0.512067
0.828069 0.816269 0.501713
1.000000 0.809503 0.494947
0.000000 1.000000 0.509165
0.177977 1.000000 0.498647
0.495098 1.000000 0.488018
0.804020 1.000000 0.477663
1.000000 1.000000 0.470897
0.000000 0.000000 0.953661
0.303197 0.000000 0.943143
0.620317 0.000000 0.932513
0.929239 0.000000 0.922159
1.000000 0.000000 0.915393
0.000000 0.267818 0.919564
0.269099 0.257299 0.909046
0.586220 0.246670 0.898416
0.895142 0.236316 0.888062
1.000000 0.229550 0.881296
0.000000 0.559811 0.883807
0.233343 0.549292 0.873289
0.550463 0.538663 0.862659
0.859385 0.528309 0.852305
1.000000 0.521543 0.845539
0.000000 0.844254 0.848974
0.198510 0.833736 0.838456
0.515631 0.823107 0.827827
0.824553 0.812753 0.817473
1.000000 0.805986 0.810706
0.000000 1.000000 0.824925
0.174461 1.000000 0.814407
0.491581 1.000000 0.803777
0.800503 1.000000 0.793423
1.000000 1.000000 0.786657
0.000000 0.000000 1.000000
0.300821 0.000000 1.000000
0.617941 0.000000 1.000000
0.926863 0.000000 1.000000
1.000000 0.000000 1.000000
0.000000 0.265442 1.000000
0.266724 0.254924 1.000000
0.583844 0.244295 1.000000
0.892766 0.233940 1.000000
1.000000 0.227174 1.000000
0.000000 0.557435 1.000000
0.230967 0.546917 1.000000
0.548087 0.536287 1.000000
0.857009 0.525933 1.000000
1.000000 0.519167 1.000000
0.000000 0.841879 1.000000
0.196134 0.831360 1.000000
0.513255 0.820731 1.000000
0.822177 0.810377 1.000000
1.000000 0.803611 1.000000
0.000000 1.000000 1.000000
0.172085 1.000000 1.000000
0.489205 1.000000 1.000000
0.798127 1.000000 1.000000
1.000000 1.000000 1.000000
