luts/lyrical_lemonade_vibrant.cube
TITLE "FlagshipEditor original preset: lyrical_lemonade_vibrant.cube"
LUT_3D_SIZE 9
DOMAIN_MIN 0.0 0.0 0.0
DOMAIN_MAX 1.0 1.0 1.0
0.000000 0.000000 0.000000
0.149665 0.000000 0.000000
0.313817 0.000000 0.000000
0.473725 0.000000 0.000000
0.630937 0.000000 0.000000
0.786176 0.000000 0.000000
0.939859 0.000000 0.000000
1.000000 0.000000 0.000000
1.000000 0.000000 0.000000
0.000000 0.127293 0.000000
0.134077 0.122277 0.000000
0.298229 0.116775 0.000000
0.458137 0.111415 0.000000
0.615349 0.106146 0.000000
0.770588 0.100942 0.000000
0.924271 0.095791 0.000000
1.000000 0.090683 0.000000
1.000000 0.089025 0.000000
0.000000 0.278438 0.000000
0.115568 0.273422 0.000000
0.279720 0.267920 0.000000
0.439628 0.262560 0.000000
0.596840 0.257291 0.000000
0.752079 0.252087 0.000000
0.905762 0.246936 0.000000
1.000000 0.241828 0.000000
1.000000 0.240170 0.000000
0.000000 0.425675 0.000000
0.097537 0.420659 0.000000
0.261689 0.415157 0.000000
0.421597 0.409797 0.000000
0.578810 0.404528 0.000000
0.734049 0.399325 0.000000
0.887732 0.394174 0.000000
1.000000 0.389065 0.000000
1.000000 0.387407 0.000000
0.000000 0.570431 0.000000
0.079811 0.565415 0.000000
0.243963 0.559913 0.000000
0.403871 0.554553 0.000000
0.561083 0.549283 0.000000
0.716322 0.544080 0.000000
0.870005 0.538929 0.000000
1.000000 0.533821 0.000000
1.000000 0.532163 0.000000
0.000000 0.713369 0.000000
0.062307 0.708352 0.000000
0.226459 0.702850 0.000000
0.386367 0.697491 0.000000
0.543580 0.692221 0.000000
0.698818 0.687018 0.000000
0.852501 0.681867 0.000000
1.000000 0.676759 0.000000
1.000000 0.675101 0.000000
0.000000 0.854875 0.000000
0.044978 0.849858 0.000000
0.209130 0.844356 0.000000
0.369038 0.838997 0.000000
0.526251 0.833727 0.000000
0.681490 0.828524 0.000000
0.835173 0.823373 0.000000
0.987575 0.818265 0.000000
1.000000 0.816607 0.000000
0.000000 0.995200 0.000000
0.027794 0.990184 0.000000
0.191946 0.984682 0.000000
0.351854 0.979322 0.000000
0.509067 0.974053 0.000000
0.664306 0.968850 0.000000
0.817989 0.963699 0.000000
0.970391 0.958591 0.000000
1.000000 0.956932 0.000000
0.000000 1.000000 0.000000
0.020929 1.000000 0.000000
0.185081 1.000000 0.000000
0.344989 1.000000 0.000000
0.502201 1.000000 0.000000
0.657440 1.000000 0.000000
0.811123 1.000000 0.000000
0.963525 1.000000 0.000000
1.000000 1.000000 0.000000
0.000000 0.000000 0.145975
0.148039 0.000000 0.140959
0.312191 0.000000 0.135457
0.472099 0.000000 0.130097
0.629312 0.000000 0.124828
0.784550 0.000000 0.119625
0.938234 0.000000 0.114474
1.000000 0.000000 0.109366
1.000000 0.000000 0.107707
0.000000 0.125667 0.130387
0.132451 0.120651 0.125371
0.296603 0.115149 0.119869
0.456511 0.109789 0.114509
0.613724 0.104520 0.109240
0.768962 0.099317 0.104037
0.922646 0.094166 0.098886
1.000000 0.089057 0.093777
1.000000 0.087399 0.092119
0.000000 0.276812 0.111878
0.113942 0.271796 0.106862
0.278094 0.266294 0.101360
0.438002 0.260934 0.096000
0.595215 0.255665 0.090731
0.750453 0.250462 0.085528
0.904137 0.245311 0.080377
1.000000 0.240203 0.075269
1.000000 0.238544 0.073610
0.000000 0.424050 0.093848
0.095912 0.419033 0.088832
0.260064 0.413531 0.083330
0.419972 0.408172 0.077970
0.577184 0.402902 0.072701
0.732423 0.397699 0.067497
0.886106 0.392548 0.062346
1.000000 0.387440 0.057238
1.000000 0.385782 0.055580
0.000000 0.568805 0.076121
0.078185 0.563789 0.071105
0.242337 0.558287 0.065603
0.402245 0.552927 0.060243
0.559458 0.547658 0.054974
0.714696 0.542455 0.049771
0.868380 0.537304 0.044620
1.000000 0.532195 0.039512
1.000000 0.530537 0.037853
0.000000 0.711743 0.058618
0.060681 0.706727 0.053601
0.224833 0.701225 0.048099
0.384741 0.695865 0.042739
0.541954 0.690596 0.037470
0.697193 0.685393 0.032267
0.850876 0.680241 0.027116
1.000000 0.675133 0.022008
1.000000 0.673475 0.020350
0.000000 0.853249 0.041289
0.043353 0.848233 0.036273
0.207505 0.842731 0.030771
0.367413 0.837371 0.025411
0.524625 0.832102 0.020141
0.679864 0.826898 0.014938
0.833547 0.821747 0.009787
0.985949 0.816639 0.004679
1.000000 0.814981 0.003021
0.000000 0.993575 0.024105
0.026168 0.988558 0.019088
0.190321 0.983057 0.013587
0.350229 0.977697 0.008227
0.507441 0.972427 0.002957
0.662680 0.967224 0.000000
0.816363 0.962073 0.000000
0.968765 0.956965 0.000000
1.000000 0.955307 0.000000
0.000000 1.000000 0.017239
0.019303 1.000000 0.012223
0.183455 1.000000 0.006721
0.343363 1.000000 0.001361
0.500576 1.000000 0.000000
0.655814 1.000000 0.000000
0.809498 1.000000 0.000000
0.961900 1.000000 0.000000
1.000000 1.000000 0.000000
0.000000 0.000000 0.313761
0.146171 0.000000 0.308745
0.310323 0.000000 0.303243
0.470231 0.000000 0.297883
0.627443 0.000000 0.292613
0.782682 0.000000 0.287410
0.936365 0.000000 0.282259
1.000000 0.000000 0.277151
1.000000 0.000000 0.275493
0.000000 0.123799 0.298173
0.130582 0.118782 0.293156
0.294734 0.113281 0.287654
0.454642 0.107921 0.282295
0.611855 0.102651 0.277025
0.767094 0.097448 0.271822
0.920777 0.092297 0.266671
1.000000 0.087189 0.261563
1.000000 0.085531 0.259905
0.000000 0.274944 0.279664
0.112074 0.269928 0.274648
0.276226 0.264426 0.269146
0.436134 0.259066 0.263786
0.593346 0.253796 0.258516
0.748585 0.248593 0.253313
0.902268 0.243442 0.248162
1.000000 0.238334 0.243054
1.000000 0.236676 0.241396
0.000000 0.422181 0.261633
0.094043 0.417165 0.256617
0.258195 0.411663 0.251115
0.418103 0.406303 0.245755
0.575316 0.401034 0.240486
0.730555 0.395831 0.235283
0.884238 0.390679 0.230132
1.000000 0.385571 0.225024
1.000000 0.383913 0.223365
0.000000 0.566937 0.243907
0.076317 0.561920 0.238891
0.240469 0.556418 0.233389
0.400377 0.551059 0.228029
0.557589 0.545789 0.222759
0.712828 0.540586 0.217556
0.866511 0.535435 0.212405
1.000000 0.530327 0.207297
1.000000 0.528669 0.205639
0.000000 0.709875 0.226403
0.058813 0.704858 0.221387
0.222965 0.699356 0.215885
0.382873 0.693997 0.210525
0.540085 0.688727 0.205256
0.695324 0.683524 0.200052
0.849007 0.678373 0.194901
1.000000 0.673265 0.189793
1.000000 0.671607 0.188135
0.000000 0.851381 0.209074
0.041484 0.846364 0.204058
0.205636 0.840862 0.198556
0.365544 0.835502 0.193196
0.522757 0.830233 0.187927
0.677995 0.825030 0.182724
0.831679 0.819879 0.177573
0.984081 0.814771 0.172465
1.000000 0.813113 0.170806
0.000000 0.991706 0.191890
0.024300 0.986690 0.186874
0.188452 0.981188 0.181372
0.348360 0.975828 0.176012
0.505573 0.970559 0.170743
0.660811 0.965356 0.165540
0.814495 0.960205 0.160389
0.966897 0.955097 0.155281
1.000000 0.953438 0.153622
0.000000 1.000000 0.185025
0.017435 1.000000 0.180009
0.181587 1.000000 0.174507
0.341495 1.000000 0.169147
0.498707 1.000000 0.163877
0.653946 1.000000 0.158674
0.807629 1.000000 0.153523
0.960031 1.000000 0.148415
1.000000 1.000000 0.146757
0.000000 0.000000 0.477208
0.144350 0.000000 0.472192
0.308502 0.000000 0.466690
0.468410 0.000000 0.461330
0.625623 0.000000 0.456061
0.780862 0.000000 0.450858
0.934545 0.000000 0.445707
1.000000 0.000000 0.440599
1.000000 0.000000 0.438940
0.000000 0.121979 0.461620
0.128762 0.116962 0.456604
0.292914 0.111460 0.451102
0.452822 0.106101 0.445742
0.610035 0.100831 0.440473
0.765274 0.095628 0.435270
0.918957 0.090477 0.430119
1.000000 0.085369 0.425011
1.000000 0.083711 0.423352
0.000000 0.273124 0.443111
0.110253 0.268107 0.438095
0.274405 0.262605 0.432593
0.434313 0.257246 0.427233
0.591526 0.251976 0.421964
0.746765 0.246773 0.416761
0.900448 0.241622 0.411610
1.000000 0.236514 0.406502
1.000000 0.234856 0.404843
0.000000 0.420361 0.425081
0.092223 0.415345 0.420065
0.256375 0.409843 0.414563
0.416283 0.404483 0.409203
0.573496 0.399214 0.403934
0.728734 0.394010 0.398730
0.882418 0.388859 0.393579
1.000000 0.383751 0.388471
1.000000 0.382093 0.386813
0.000000 0.565117 0.407354
0.074496 0.560100 0.402338
0.238648 0.554598 0.396836
0.398556 0.549239 0.391476
0.555769 0.543969 0.386207
0.711008 0.538766 0.381004
0.864691 0.533615 0.375853
1.000000 0.528507 0.370745
1.000000 0.526849 0.369086
0.000000 0.708055 0.389851
0.056992 0.703038 0.384834
0.221144 0.697536 0.379332
0.381052 0.692176 0.373972
0.538265 0.686907 0.368703
0.693504 0.681704 0.363500
0.847187 0.676553 0.358349
0.999589 0.671445 0.353241
1.000000 0.669787 0.351583
0.000000 0.849560 0.372522
0.039664 0.844544 0.367506
0.203816 0.839042 0.362004
0.363724 0.833682 0.356644
0.520937 0.828413 0.351375
0.676175 0.823210 0.346171
0.829859 0.818059 0.341020
0.982260 0.812950 0.335912
1.000000 0.811292 0.334254
0.000000 0.989886 0.355338
0.022480 0.984870 0.350322
0.186632 0.979368 0.344820
0.346540 0.974008 0.339460
0.503753 0.968739 0.334190
0.658991 0.963536 0.328987
0.812675 0.958384 0.323836
0.965076 0.953276 0.318728
1.000000 0.951618 0.317070
0.000000 1.000000 0.348472
0.015614 1.000000 0.343456
0.179766 1.000000 0.337954
0.339674 1.000000 0.332594
0.496887 1.000000 0.327325
0.652126 1.000000 0.322122
0.805809 1.000000 0.316971
0.958211 1.000000 0.311863
1.000000 1.000000 0.310204
0.000000 0.000000 0.637901
0.142561 0.000000 0.632885
0.306713 0.000000 0.627383
0.466621 0.000000 0.622023
0.623834 0.000000 0.616754
0.779072 0.000000 0.611550
0.932756 0.000000 0.606399
1.000000 0.000000 0.601291
1.000000 0.000000 0.599633
0.000000 0.120189 0.622313
0.126973 0.115173 0.617297
0.291125 0.109671 0.611795
0.451033 0.104311 0.606435
0.608246 0.099042 0.601166
0.763484 0.093839 0.595962
0.917167 0.088687 0.590811
1.000000 0.083579 0.585703
1.000000 0.081921 0.584045
0.000000 0.271334 0.603804
0.108464 0.266318 0.598788
0.272616 0.260816 0.593286
0.432524 0.255456 0.587926
0.589737 0.250187 0.582657
0.744975 0.244984 0.577453
0.898659 0.239832 0.572302
1.000000 0.234724 0.567194
1.000000 0.233066 0.565536
0.000000 0.418571 0.585774
0.090433 0.413555 0.580757
0.254585 0.408053 0.575255
0.414493 0.402693 0.569896
0.571706 0.397424 0.564626
0.726945 0.392221 0.559423
0.880628 0.387070 0.554272
1.000000 0.381962 0.549164
1.000000 0.380303 0.547506
0.000000 0.563327 0.568047
0.072707 0.558311 0.563031
0.236859 0.552809 0.557529
0.396767 0.547449 0.552169
0.553980 0.542180 0.546900
0.709218 0.536976 0.541696
0.862902 0.531825 0.536545
1.000000 0.526717 0.531437
1.000000 0.525059 0.529779
0.000000 0.706265 0.550543
0.055203 0.701249 0.545527
0.219355 0.695747 0.540025
0.379263 0.690387 0.534665
0.536476 0.685118 0.529396
0.691714 0.679914 0.524193
0.845398 0.674763 0.519041
0.997799 0.669655 0.513933
1.000000 0.667997 0.512275
0.000000 0.847771 0.533215
0.037874 0.842754 0.528198
0.202026 0.837252 0.522696
0.361934 0.831893 0.517337
0.519147 0.826623 0.512067
0.674386 0.821420 0.506864
0.828069 0.816269 0.501713
0.980471 0.811161 0.496605
1.000000 0.809503 0.494947
0.000000 0.988097 0.516031
0.020690 0.983080 0.511014
0.184842 0.977578 0.505512
0.344750 0.972219 0.500153
0.501963 0.966949 0.494883
0.657202 0.961746 0.489680
0.810885 0.956595 0.484529
0.963287 0.951487 0.479421
1.000000 0.949829 0.477763
0.000000 1.000000 0.509165
0.013825 1.000000 0.504149
0.177977 1.000000 0.498647
0.337885 1.000000 0.493287
0.495098 1.000000 0.488018
0.650336 1.000000 0.482814
0.804020 1.000000 0.477663
0.956421 1.000000 0.472555
1.000000 1.000000 0.470897
0.000000 0.000000 0.796576
0.140794 0.000000 0.791560
0.304946 0.000000 0.786058
0.464854 0.000000 0.780698
0.622067 0.000000 0.775428
0.777305 0.000000 0.770225
0.930989 0.000000 0.765074
1.000000 0.000000 0.759966
1.000000 0.000000 0.758308
0.000000 0.118422 0.780988
0.125206 0.113406 0.775971
0.289358 0.107904 0.770469
0.449266 0.102544 0.765110
0.606479 0.097275 0.759840
0.761717 0.092071 0.754637
0.915400 0.086920 0.749486
1.000000 0.081812 0.744378
1.000000 0.080154 0.742720
0.000000 0.269567 0.762479
0.106697 0.264551 0.757462
0.270849 0.259049 0.751961
0.430757 0.253689 0.746601
0.587970 0.248420 0.741331
0.743208 0.243217 0.736128
0.896891 0.238065 0.730977
1.000000 0.232957 0.725869
1.000000 0.231299 0.724211
0.000000 0.416804 0.744448
0.088666 0.411788 0.739432
0.252818 0.406286 0.733930
0.412726 0.400926 0.728570
0.569939 0.395657 0.723301
0.725178 0.390454 0.718098
0.878861 0.385303 0.712947
1.000000 0.380195 0.707839
1.000000 0.378536 0.706180
0.000000 0.561560 0.726722
0.070940 0.556544 0.721706
0.235092 0.551042 0.716204
0.395000 0.545682 0.710844
0.552213 0.540413 0.705574
0.707451 0.535209 0.700371
0.861135 0.530058 0.695220
1.000000 0.524950 0.690112
1.000000 0.523292 0.688454
0.000000 0.704498 0.709218
0.053436 0.699482 0.704202
0.217588 0.693980 0.698700
0.377496 0.688620 0.693340
0.534709 0.683351 0.688071
0.689947 0.678147 0.682867
0.843631 0.672996 0.677716
0.996032 0.667888 0.672608
1.000000 0.666230 0.670950
0.000000 0.846004 0.691889
0.036107 0.840987 0.686873
0.200259 0.835485 0.681371
0.360167 0.830126 0.676011
0.517380 0.824856 0.670742
0.672619 0.819653 0.665539
0.826302 0.814502 0.660388
0.978704 0.809394 0.655280
1.000000 0.807736 0.653621
0.000000 0.986330 0.674705
0.018923 0.981313 0.669689
0.183075 0.975811 0.664187
0.342983 0.970452 0.658827
0.500196 0.965182 0.653558
0.655435 0.959979 0.648355
0.809118 0.954828 0.643204
0.961520 0.949720 0.638095
1.000000 0.948062 0.636437
0.000000 1.000000 0.667840
0.012058 1.000000 0.662824
0.176210 1.000000 0.657322
0.336118 1.000000 0.651962
0.493331 1.000000 0.646692
0.648569 1.000000 0.641489
0.802253 1.000000 0.636338
0.954654 1.000000 0.631230
1.000000 1.000000 0.629572
0.000000 0.000000 0.953661
0.139044 0.000000 0.948645
0.303197 0.000000 0.943143
0.463105 0.000000 0.937783
0.620317 0.000000 0.932513
0.775556 0.000000 0.927310
0.929239 0.000000 0.922159
1.000000 0.000000 0.917051
1.000000 0.000000 0.915393
0.000000 0.116673 0.938073
0.123456 0.111656 0.933056
0.287608 0.106154 0.927555
0.447516 0.100795 0.922195
0.604729 0.095525 0.916925
0.759968 0.090322 0.911722
0.913651 0.085171 0.906571
1.000000 0.080063 0.901463
1.000000 0.078405 0.899805
0.000000 0.267818 0.919564
0.104947 0.262801 0.914548
0.269099 0.257299 0.909046
0.429007 0.251940 0.903686
0.586220 0.246670 0.898416
0.741459 0.241467 0.893213
0.895142 0.236316 0.888062
1.000000 0.231208 0.882954
1.000000 0.229550 0.881296
0.000000 0.415055 0.901533
0.086917 0.410039 0.896517
0.251069 0.404537 0.891015
0.410977 0.399177 0.885655
0.568190 0.393908 0.880386
0.723428 0.388704 0.875183
0.877112 0.383553 0.870032
1.000000 0.378445 0.864924
1.000000 0.376787 0.863265
0.000000 0.559811 0.883807
0.069190 0.554794 0.878791
0.233343 0.549292 0.873289
0.393251 0.543933 0.867929
0.550463 0.538663 0.862659
0.705702 0.533460 0.857456
0.859385 0.528309 0.852305
1.000000 0.523201 0.847197
1.000000 0.521543 0.845539
0.000000 0.702749 0.866303
0.051687 0.697732 0.861287
0.215839 0.692230 0.855785
0.375747 0.686871 0.850425
0.532959 0.681601 0.845156
0.688198 0.676398 0.839952
0.841881 0.671247 0.834801
0.994283 0.666139 0.829693
1.000000 0.664481 0.828035
0.000000 0.844254 0.848974
0.034358 0.839238 0.843958
0.198510 0.833736 0.838456
0.358418 0.828376 0.833096
0.515631 0.823107 0.827827
0.670869 0.817904 0.822624
0.824553 0.812753 0.817473
0.976955 0.807645 0.812365
1.000000 0.805986 0.810706
0.000000 0.984580 0.831790
0.017174 0.979564 0.826774
0.181326 0.974062 0.821272
0.341234 0.968702 0.815912
0.498447 0.963433 0.810643
0.653685 0.958230 0.805440
0.807369 0.953079 0.800289
0.959770 0.947970 0.795181
1.000000 0.946312 0.793522
0.000000 1.000000 0.824925
0.010308 1.000000 0.819909
0.174461 1.000000 0.814407
0.334369 1.000000 0.809047
0.491581 1.000000 0.803777
0.646820 1.000000 0.798574
0.800503 1.000000 0.793423
0.952905 1.000000 0.788315
1.000000 1.000000 0.786657
0.000000 0.000000 1.000000
0.137310 0.000000 1.000000
0.301462 0.000000 1.000000
0.461370 0.000000 1.000000
0.618583 0.000000 1.000000
0.773821 0.000000 1.000000
0.927504 0.000000 1.000000
1.000000 0.000000 1.000000
1.000000 0.000000 1.000000
0.000000 0.114938 1.000000
0.121722 0.109922 1.000000
0.285874 0.104420 1.000000
0.445782 0.099060 1.000000
0.602994 0.093791 1.000000
0.758233 0.088587 1.000000
0.911916 0.083436 1.000000
1.000000 0.078328 1.000000
1.000000 0.076670 1.000000
0.000000 0.266083 1.000000
0.103213 0.261067 1.000000
0.267365 0.255565 1.000000
0.427273 0.250205 1.000000
0.584486 0.244936 1.000000
0.739724 0.239732 1.000000
0.893407 0.234581 1.000000
1.000000 0.229473 1.000000
1.000000 0.227815 1.000000
0.000000 0.413320 1.000000
0.085182 0.408304 1.000000
0.249334 0.402802 1.000000
0.409242 0.397442 1.000000
0.566455 0.392173 1.000000
0.721694 0.386970 1.000000
0.875377 0.381819 1.000000
1.000000 0.376711 1.000000
1.000000 0.375052 1.000000
0.000000 0.558076 1.000000
0.067456 0.553060 1.000000
0.231608 0.547558 1.000000
0.391516 0.542198 1.000000
0.548729 0.536929 1.000000
0.703967 0.531725 1.000000
0.857650 0.526574 1.000000
1.000000 0.521466 1.000000
1.000000 0.519808 1.000000
0.000000 0.701014 1.000000
0.049952 0.695998 1.000000
0.214104 0.690496 1.000000
0.374012 0.685136 1.000000
0.531225 0.679866 1.000000
0.686463 0.674663 0.995728
0.840147 0.669512 0.990576
0.992548 0.664404 0.985468
1.000000 0.662746 0.983810
0.000000 0.842520 1.000000
0.032623 0.837503 0.999733
0.196775 0.832001 0.994231
0.356683 0.826642 0.988872
0.513896 0.821372 0.983602
0.669135 0.816169 0.978399
0.822818 0.811018 0.973248
0.975220 0.805910 0.968140
1.000000 0.804252 0.966482
0.000000 0.982846 0.987566
0.015439 0.977829 0.982549
0.179591 0.972327 0.977047
0.339499 0.966968 0.971688
0.496712 0.961698 0.966418
0.651951 0.956495 0.961215
0.805634 0.951344 0.956064
0.958036 0.946236 0.950956
1.000000 0.944578 0.949298
0.000000 1.000000 0.980700
0.008574 1.000000 0.975684
0.172726 1.000000 0.970182
0.332634 1.000000 0.964822
0.489847 1.000000 0.959553
0.645085 1.000000 0.954349
0.798768 1.000000 0.949198
0.951170 1.000000 0.944090
1.000000 1.000000 0.942432
0.000000 0.000000 1.000000
0.136669 0.000000 1.000000
0.300821 0.000000 1.000000
0.460729 0.000000 1.000000
0.617941 0.000000 1.000000
0.773180 0.000000 1.000000
0.926863 0.000000 1.000000
1.000000 0.000000 1.000000
1.000000 0.000000 1.000000
0.000000 0.114297 1.000000
0.121081 0.109281 1.000000
0.285233 0.103779 1.000000
0.445141 0.098419 1.000000
0.602353 0.093150 1.000000
0.757592 0.087946 1.000000
0.911275 0.082795 1.000000
1.000000 0.077687 1.000000
1.000000 0.076029 1.000000
0.000000 0.265442 1.000000
0.102572 0.260426 1.000000
0.266724 0.254924 1.000000
0.426632 0.249564 1.000000
0.583844 0.244295 1.000000
0.739083 0.239091 1.000000
0.892766 0.233940 1.000000
1.000000 0.228832 1.000000
1.000000 0.227174 1.000000
0.000000 0.412679 1.000000
0.084541 0.407663 1.000000
0.248693 0.402161 1.000000
0.408601 0.396801 1.000000
0.565814 0.391532 1.000000
0.721053 0.386329 1.000000
0.874736 0.381178 1.000000
1.000000 0.376069 1.000000
1.000000 0.374411 1.000000
0.000000 0.557435 1.000000
0.066815 0.552419 1.000000
0.230967 0.546917 1.000000
0.390875 0.541557 1.000000
0.548087 0.536287 1.000000
0.703326 0.531084 1.000000
0.857009 0.525933 1.000000
1.000000 0.520825 1.000000
1.000000 0.519167 1.000000
0.000000 0.700373 1.000000
0.049311 0.695356 1.000000
0.213463 0.689854 1.000000
0.373371 0.684495 1.000000
0.530584 0.679225 1.000000
0.685822 0.674022 1.000000
0.839505 0.668871 1.000000
0.991907 0.663763 1.000000
1.000000 0.662105 1.000000
0.000000 0.841879 1.000000
0.031982 0.836862 1.000000
0.196134 0.831360 1.000000
0.356042 0.826001 1.000000
0.513255 0.820731 1.000000
0.668494 0.815528 1.000000
0.822177 0.810377 1.000000
0.974579 0.805269 1.000000
1.000000 0.803611 1.000000
0.000000 0.982204 1.000000
0.014798 0.977188 1.000000
0.178950 0.971686 1.000000
0.338858 0.966326 1.000000
0.496071 0.961057 1.000000
0.651310 0.955854 1.000000
0.804993 0.950703 1.000000
0.957395 0.945595 1.000000
1.000000 0.943936 1.000000
0.000000 1.000000 1.000000
0.007933 1.000000 1.000000
0.172085 1.000000 1.000000
0.331993 1.000000 1.000000
0.489205 1.000000 1.000000
0.644444 1.000000 1.000000
0.798127 1.000000 1.000000
0.950529 1.000000 1.000000
1.000000 1.000000 1.000000
