luts/lyrical_lemonade_neon.cube
TITLE "FlagshipEditor original preset: lyrical_lemonade_neon.cube"
LUT_3D_SIZE 9
DOMAIN_MIN 0.0 0.0 0.0
DOMAIN_MAX 1.0 1.0 1.0
0.000000 0.000000 0.000000
0.145009 0.000000 0.000000
0.324015 0.000000 0.000000
0.497481 0.000000 0.000000
0.667444 0.000000 0.000000
0.834849 0.000000 0.000000
1.000000 0.000000 0.000000
1.000000 0.000000 0.000000
1.000000 0.000000 0.000000
0.000000 0.090042 0.000000
0.118873 0.082273 0.000000
0.297879 0.075136 0.000000
0.471345 0.068221 0.000000
0.641308 0.061445 0.000000
0.808712 0.054771 0.000000
0.974107 0.048178 0.000000
1.000000 0.041650 0.000000
1.000000 0.035178 0.000000
0.000000 0.252178 0.000000
0.094866 0.244408 0.000000
0.273872 0.237272 0.000000
0.447338 0.230357 0.000000
0.617301 0.223581 0.000000
0.784706 0.216907 0.000000
0.950100 0.210313 0.000000
1.000000 0.203786 0.000000
1.000000 0.197314 0.000000
0.000000 0.409295 0.000000
0.071602 0.401526 0.000000
0.250608 0.394389 0.000000
0.424074 0.387474 0.000000
0.594037 0.380698 0.000000
0.761442 0.374024 0.000000
0.926836 0.367431 0.000000
1.000000 0.360903 0.000000
1.000000 0.354431 0.000000
0.000000 0.563239 0.000000
0.048808 0.555470 0.000000
0.227814 0.548334 0.000000
0.401280 0.541419 0.000000
0.571243 0.534643 0.000000
0.738648 0.527969 0.000000
0.904042 0.521375 0.000000
1.000000 0.514848 0.000000
1.000000 0.508376 0.000000
0.000000 0.714867 0.000000
0.026357 0.707098 0.000000
0.205363 0.699962 0.000000
0.378829 0.693046 0.000000
0.548792 0.686270 0.000000
0.716197 0.679597 0.000000
0.881591 0.673003 0.000000
1.000000 0.666475 0.000000
1.000000 0.660003 0.000000
0.000000 0.864673 0.000000
0.004175 0.856904 0.000000
0.183182 0.849768 0.000000
0.356648 0.842853 0.000000
0.526610 0.836077 0.000000
0.694015 0.829403 0.000000
0.859409 0.822809 0.000000
1.000000 0.816282 0.000000
1.000000 0.809810 0.000000
0.000000 1.000000 0.000000
0.000000 1.000000 0.000000
0.161222 0.998077 0.000000
0.334688 0.991161 0.000000
0.504651 0.984385 0.000000
0.672056 0.977712 0.000000
0.837450 0.971118 0.000000
1.000000 0.964590 0.000000
1.000000 0.958119 0.000000
0.000000 1.000000 0.000000
0.000000 1.000000 0.000000
0.139451 1.000000 0.000000
0.312916 1.000000 0.000000
0.482879 1.000000 0.000000
0.650284 1.000000 0.000000
0.815678 1.000000 0.000000
0.979419 1.000000 0.000000
1.000000 1.000000 0.000000
0.000000 0.000000 0.157460
0.142370 0.000000 0.149690
0.321377 0.000000 0.142554
0.494842 0.000000 0.135639
0.664805 0.000000 0.128863
0.832210 0.000000 0.122189
0.997604 0.000000 0.115596
1.000000 0.000000 0.109068
1.000000 0.000000 0.102596
0.000000 0.087403 0.131323
0.116234 0.079634 0.123554
0.295240 0.072498 0.116418
0.468706 0.065582 0.109502
0.638669 0.058807 0.102727
0.806074 0.052133 0.096053
0.971468 0.045539 0.089459
1.000000 0.039012 0.082932
1.000000 0.032540 0.076460
0.000000 0.249539 0.107316
0.092227 0.241770 0.099547
0.271234 0.234634 0.092411
0.444699 0.227718 0.085496
0.614662 0.220942 0.078720
0.782067 0.214269 0.072046
0.947461 0.207675 0.065452
1.000000 0.201147 0.058925
1.000000 0.194676 0.052453
0.000000 0.406656 0.084053
0.068963 0.398887 0.076283
0.247970 0.391751 0.069147
0.421435 0.384835 0.062232
0.591398 0.378060 0.055456
0.758803 0.371386 0.048782
0.924197 0.364792 0.042189
1.000000 0.358265 0.035661
1.000000 0.351793 0.029189
0.000000 0.560601 0.061259
0.046169 0.552832 0.053489
0.225176 0.545695 0.046353
0.398641 0.538780 0.039438
0.568604 0.532004 0.032662
0.736009 0.525331 0.025988
0.901403 0.518737 0.019394
1.000000 0.512209 0.012867
1.000000 0.505737 0.006395
0.000000 0.712229 0.038808
0.023718 0.704459 0.031038
0.202725 0.697323 0.023902
0.376190 0.690408 0.016987
0.546153 0.683632 0.010211
0.713558 0.676958 0.003537
0.878952 0.670364 0.000000
1.000000 0.663837 0.000000
1.000000 0.657365 0.000000
0.000000 0.862035 0.016626
0.001537 0.854266 0.008857
0.180543 0.847129 0.001721
0.354009 0.840214 0.000000
0.523972 0.833438 0.000000
0.691377 0.826765 0.000000
0.856771 0.820171 0.000000
1.000000 0.813643 0.000000
1.000000 0.807171 0.000000
0.000000 1.000000 0.000000
0.000000 1.000000 0.000000
0.158584 0.995438 0.000000
0.332049 0.988523 0.000000
0.502012 0.981747 0.000000
0.669417 0.975073 0.000000
0.834811 0.968480 0.000000
0.998552 0.961952 0.000000
1.000000 0.955480 0.000000
0.000000 1.000000 0.000000
0.000000 1.000000 0.000000
0.136812 1.000000 0.000000
0.310278 1.000000 0.000000
0.480241 1.000000 0.000000
0.647646 1.000000 0.000000
0.813040 1.000000 0.000000
0.976780 1.000000 0.000000
1.000000 1.000000 0.000000
0.000000 0.000000 0.341179
0.139947 0.000000 0.333409
0.318953 0.000000 0.326273
0.492419 0.000000 0.319358
0.662382 0.000000 0.312582
0.829787 0.000000 0.305908
0.995181 0.000000 0.299315
1.000000 0.000000 0.292787
1.000000 0.000000 0.286315
0.000000 0.084980 0.315042
0.113811 0.077211 0.307273
0.292817 0.070074 0.300137
0.466283 0.063159 0.293222
0.636246 0.056383 0.286446
0.803650 0.049709 0.279772
0.969045 0.043116 0.273178
1.000000 0.036588 0.266651
1.000000 0.030116 0.260179
0.000000 0.247116 0.291036
0.089804 0.239346 0.283266
0.268810 0.232210 0.276130
0.442276 0.225295 0.269215
0.612239 0.218519 0.262439
0.779644 0.211845 0.255765
0.945038 0.205251 0.249171
1.000000 0.198724 0.242644
1.000000 0.192252 0.236172
0.000000 0.404233 0.267772
0.066540 0.396464 0.260002
0.245546 0.389327 0.252866
0.419012 0.382412 0.245951
0.588975 0.375636 0.239175
0.756380 0.368962 0.232501
0.921774 0.362369 0.225908
1.000000 0.355841 0.219380
1.000000 0.349369 0.212908
0.000000 0.558177 0.244978
0.043746 0.550408 0.237208
0.222752 0.543272 0.230072
0.396218 0.536357 0.223157
0.566181 0.529581 0.216381
0.733586 0.522907 0.209707
0.898980 0.516313 0.203114
1.000000 0.509786 0.196586
1.000000 0.503314 0.190114
0.000000 0.709805 0.222527
0.021295 0.702036 0.214757
0.200301 0.694900 0.207621
0.373767 0.687984 0.200706
0.543730 0.681208 0.193930
0.711135 0.674535 0.187256
0.876529 0.667941 0.180663
1.000000 0.661413 0.174135
1.000000 0.654942 0.167663
0.000000 0.859611 0.200345
0.000000 0.851842 0.192576
0.178120 0.844706 0.185440
0.351586 0.837791 0.178524
0.521548 0.831015 0.171749
0.688953 0.824341 0.165075
0.854347 0.817747 0.158481
1.000000 0.811220 0.151954
1.000000 0.804748 0.145482
0.000000 1.000000 0.178386
0.000000 1.000000 0.170616
0.156160 0.993015 0.163480
0.329626 0.986099 0.156565
0.499589 0.979323 0.149789
0.666994 0.972650 0.143115
0.832388 0.966056 0.136522
0.996128 0.959528 0.129994
1.000000 0.953057 0.123522
0.000000 1.000000 0.156614
0.000000 1.000000 0.148845
0.134389 1.000000 0.141709
0.307854 1.000000 0.134793
0.477817 1.000000 0.128018
0.645222 1.000000 0.121344
0.810616 1.000000 0.114750
0.974357 1.000000 0.108222
1.000000 1.000000 0.101751
0.000000 0.000000 0.519211
0.137598 0.000000 0.511442
0.316605 0.000000 0.504306
0.490070 0.000000 0.497390
0.660033 0.000000 0.490615
0.827438 0.000000 0.483941
0.992832 0.000000 0.477347
1.000000 0.000000 0.470820
1.000000 0.000000 0.464348
0.000000 0.082631 0.493075
0.111462 0.074862 0.485306
0.290468 0.067726 0.478170
0.463934 0.060810 0.471254
0.633897 0.054035 0.464478
0.801302 0.047361 0.457805
0.966696 0.040767 0.451211
1.000000 0.034240 0.444683
1.000000 0.027768 0.438212
0.000000 0.244767 0.469068
0.087455 0.236998 0.461299
0.266462 0.229862 0.454163
0.439927 0.222946 0.447247
0.609890 0.216170 0.440472
0.777295 0.209497 0.433798
0.942689 0.202903 0.427204
1.000000 0.196375 0.420676
1.000000 0.189903 0.414205
0.000000 0.401884 0.445804
0.064191 0.394115 0.438035
0.243198 0.386979 0.430899
0.416663 0.380063 0.423983
0.586626 0.373288 0.417208
0.754031 0.366614 0.410534
0.919425 0.360020 0.403940
1.000000 0.353493 0.397413
1.000000 0.347021 0.390941
0.000000 0.555829 0.423010
0.041397 0.548060 0.415241
0.220404 0.540923 0.408105
0.393869 0.534008 0.401189
0.563832 0.527232 0.394414
0.731237 0.520558 0.387740
0.896631 0.513965 0.381146
1.000000 0.507437 0.374619
1.000000 0.500965 0.368147
0.000000 0.707457 0.400559
0.018946 0.699687 0.392790
0.197953 0.692551 0.385654
0.371418 0.685636 0.378738
0.541381 0.678860 0.371963
0.708786 0.672186 0.365289
0.874180 0.665592 0.358695
1.000000 0.659065 0.352168
1.000000 0.652593 0.345696
0.000000 0.857263 0.378378
0.000000 0.849494 0.370609
0.175771 0.842357 0.363472
0.349237 0.835442 0.356557
0.519200 0.828666 0.349781
0.686605 0.821992 0.343107
0.851999 0.815399 0.336514
1.000000 0.808871 0.329986
1.000000 0.802399 0.323514
0.000000 1.000000 0.356418
0.000000 0.997802 0.348649
0.153812 0.990666 0.341513
0.327277 0.983751 0.334597
0.497240 0.976975 0.327822
0.664645 0.970301 0.321148
0.830039 0.963708 0.314554
0.993780 0.957180 0.308027
1.000000 0.950708 0.301555
0.000000 1.000000 0.334647
0.000000 1.000000 0.326878
0.132040 1.000000 0.319741
0.305506 1.000000 0.312826
0.475469 1.000000 0.306050
0.642874 1.000000 0.299376
0.808268 1.000000 0.292783
0.972008 1.000000 0.286255
1.000000 1.000000 0.279783
0.000000 0.000000 0.693649
0.135297 0.000000 0.685880
0.314304 0.000000 0.678743
0.487769 0.000000 0.671828
0.657732 0.000000 0.665052
0.825137 0.000000 0.658379
0.990531 0.000000 0.651785
1.000000 0.000000 0.645257
1.000000 0.000000 0.638785
0.000000 0.080330 0.667513
0.109161 0.072561 0.659743
0.288167 0.065425 0.652607
0.461633 0.058509 0.645692
0.631596 0.051734 0.638916
0.799001 0.045060 0.632242
0.964395 0.038466 0.625649
1.000000 0.031939 0.619121
1.000000 0.025467 0.612649
0.000000 0.242466 0.643506
0.085154 0.234697 0.635737
0.264160 0.227560 0.628600
0.437626 0.220645 0.621685
0.607589 0.213869 0.614909
0.774994 0.207196 0.608235
0.940388 0.200602 0.601642
1.000000 0.194074 0.595114
1.000000 0.187602 0.588642
0.000000 0.399583 0.620242
0.061890 0.391814 0.612473
0.240897 0.384678 0.605336
0.414362 0.377762 0.598421
0.584325 0.370987 0.591645
0.751730 0.364313 0.584971
0.917124 0.357719 0.578378
1.000000 0.351192 0.571850
1.000000 0.344720 0.565378
0.000000 0.553528 0.597448
0.039096 0.545759 0.589679
0.218103 0.538622 0.582542
0.391568 0.531707 0.575627
0.561531 0.524931 0.568851
0.728936 0.518257 0.562177
0.894330 0.511664 0.555584
1.000000 0.505136 0.549056
1.000000 0.498664 0.542584
0.000000 0.705155 0.574997
0.016645 0.697386 0.567228
0.195652 0.690250 0.560091
0.369117 0.683335 0.553176
0.539080 0.676559 0.546400
0.706485 0.669885 0.539726
0.871879 0.663291 0.533133
1.000000 0.656764 0.526605
1.000000 0.650292 0.520133
0.000000 0.854962 0.552816
0.000000 0.847193 0.545046
0.173470 0.840056 0.537910
0.346936 0.833141 0.530995
0.516899 0.826365 0.524219
0.684304 0.819691 0.517545
0.849698 0.813098 0.510951
1.000000 0.806570 0.504424
1.000000 0.800098 0.497952
0.000000 1.000000 0.530856
0.000000 0.995501 0.523087
0.151511 0.988365 0.515950
0.324976 0.981450 0.509035
0.494939 0.974674 0.502259
0.662344 0.968000 0.495585
0.827738 0.961406 0.488992
0.991479 0.954879 0.482464
1.000000 0.948407 0.475992
0.000000 1.000000 0.509084
0.000000 1.000000 0.501315
0.129739 1.000000 0.494179
0.303205 1.000000 0.487264
0.473168 1.000000 0.480488
0.640573 1.000000 0.473814
0.805967 1.000000 0.467220
0.969707 1.000000 0.460693
1.000000 1.000000 0.454221
0.000000 0.000000 0.865461
0.133031 0.000000 0.857692
0.312037 0.000000 0.850556
0.485503 0.000000 0.843640
0.655466 0.000000 0.836864
0.822871 0.000000 0.830191
0.988265 0.000000 0.823597
1.000000 0.000000 0.817069
1.000000 0.000000 0.810598
0.000000 0.078064 0.839325
0.106895 0.070295 0.831556
0.285901 0.063158 0.824419
0.459367 0.056243 0.817504
0.629330 0.049467 0.810728
0.796734 0.042793 0.804054
0.962129 0.036200 0.797461
1.000000 0.029672 0.790933
1.000000 0.023200 0.784461
0.000000 0.240200 0.815318
0.082888 0.232430 0.807549
0.261894 0.225294 0.800412
0.435360 0.218379 0.793497
0.605323 0.211603 0.786721
0.772727 0.204929 0.780047
0.938122 0.198335 0.773454
1.000000 0.191808 0.766926
1.000000 0.185336 0.760454
0.000000 0.397317 0.792054
0.059624 0.389548 0.784285
0.238630 0.382411 0.777149
0.412096 0.375496 0.770233
0.582059 0.368720 0.763457
0.749464 0.362046 0.756784
0.914858 0.355453 0.750190
1.000000 0.348925 0.743662
1.000000 0.342453 0.737191
0.000000 0.551261 0.769260
0.036830 0.543492 0.761491
0.215836 0.536356 0.754355
0.389302 0.529440 0.747439
0.559265 0.522665 0.740663
0.726670 0.515991 0.733990
0.892064 0.509397 0.727396
1.000000 0.502870 0.720868
1.000000 0.496398 0.714396
0.000000 0.702889 0.746809
0.014379 0.695120 0.739040
0.193385 0.687983 0.731903
0.366851 0.681068 0.724988
0.536814 0.674292 0.718212
0.704219 0.667619 0.711539
0.869613 0.661025 0.704945
1.000000 0.654497 0.698417
1.000000 0.648025 0.691945
0.000000 0.852695 0.724628
0.000000 0.844926 0.716858
0.171204 0.837790 0.709722
0.344669 0.830874 0.702807
0.514632 0.824099 0.696031
0.682037 0.817425 0.689357
0.847431 0.810831 0.682764
1.000000 0.804304 0.676236
1.000000 0.797832 0.669764
0.000000 1.000000 0.702668
0.000000 0.993235 0.694899
0.149244 0.986099 0.687763
0.322710 0.979183 0.680847
0.492673 0.972407 0.674071
0.660078 0.965734 0.667398
0.825472 0.959140 0.660804
0.989212 0.952612 0.654276
1.000000 0.946141 0.647805
0.000000 1.000000 0.680897
0.000000 1.000000 0.673127
0.127473 1.000000 0.665991
0.300938 1.000000 0.659076
0.470901 1.000000 0.652300
0.638306 1.000000 0.645626
0.803700 1.000000 0.639033
0.967441 1.000000 0.632505
1.000000 1.000000 0.626033
0.000000 0.000000 1.000000
0.130792 0.000000 1.000000
0.309798 0.000000 1.000000
0.483264 0.000000 1.000000
0.653227 0.000000 1.000000
0.820631 0.000000 0.999939
0.986026 0.000000 0.993346
1.000000 0.000000 0.986818
1.000000 0.000000 0.980346
0.000000 0.075825 1.000000
0.104655 0.068055 1.000000
0.283662 0.060919 0.994168
0.457127 0.054004 0.987252
0.627090 0.047228 0.980477
0.794495 0.040554 0.973803
0.959889 0.033961 0.967209
1.000000 0.027433 0.960682
1.000000 0.020961 0.954210
0.000000 0.237960 0.985066
0.080648 0.230191 0.977297
0.259655 0.223055 0.970161
0.433121 0.216139 0.963246
0.603083 0.209364 0.956470
0.770488 0.202690 0.949796
0.935882 0.196096 0.943202
1.000000 0.189569 0.936675
1.000000 0.183097 0.930203
0.000000 0.395078 0.961803
0.057385 0.387308 0.954033
0.236391 0.380172 0.946897
0.409857 0.373257 0.939982
0.579820 0.366481 0.933206
0.747224 0.359807 0.926532
0.912619 0.353214 0.919939
1.000000 0.346686 0.913411
1.000000 0.340214 0.906939
0.000000 0.549022 0.939009
0.034591 0.541253 0.931239
0.213597 0.534117 0.924103
0.387063 0.527201 0.917188
0.557026 0.520426 0.910412
0.724430 0.513752 0.903738
0.889824 0.507158 0.897144
1.000000 0.500630 0.890617
1.000000 0.494159 0.884145
0.000000 0.700650 0.916558
0.012140 0.692881 0.908788
0.191146 0.685744 0.901652
0.364612 0.678829 0.894737
0.534575 0.672053 0.887961
0.701979 0.665379 0.881287
0.867373 0.658786 0.874693
1.000000 0.652258 0.868166
1.000000 0.645786 0.861694
0.000000 0.850456 0.894376
0.000000 0.842687 0.886607
0.168964 0.835551 0.879471
0.342430 0.828635 0.872555
0.512393 0.821860 0.865780
0.679798 0.815186 0.859106
0.845192 0.808592 0.852512
1.000000 0.802064 0.845984
1.000000 0.795593 0.839513
0.000000 0.998765 0.872417
0.000000 0.990996 0.864647
0.147005 0.983859 0.857511
0.320471 0.976944 0.850596
0.490434 0.970168 0.843820
0.657838 0.963494 0.837146
0.823233 0.956901 0.830553
0.986973 0.950373 0.824025
1.000000 0.943901 0.817553
0.000000 1.000000 0.850645
0.000000 1.000000 0.842876
0.125233 1.000000 0.835740
0.298699 1.000000 0.828824
0.468662 1.000000 0.822048
0.636067 1.000000 0.815375
0.801461 1.000000 0.808781
0.965202 1.000000 0.802253
1.000000 1.000000 0.795782
0.000000 0.000000 1.000000
0.128575 0.000000 1.000000
0.307581 0.000000 1.000000
0.481047 0.000000 1.000000
0.651010 0.000000 1.000000
0.818415 0.000000 1.000000
0.983809 0.000000 1.000000
1.000000 0.000000 1.000000
1.000000 0.000000 1.000000
0.000000 0.073608 1.000000
0.102439 0.065839 1.000000
0.281445 0.058702 1.000000
0.454911 0.051787 1.000000
0.624873 0.045011 1.000000
0.792278 0.038337 1.000000
0.957672 0.031744 1.000000
1.000000 0.025216 1.000000
1.000000 0.018744 1.000000
0.000000 0.235743 1.000000
0.078432 0.227974 1.000000
0.257438 0.220838 1.000000
0.430904 0.213923 1.000000
0.600867 0.207147 1.000000
0.768271 0.200473 1.000000
0.933666 0.193879 1.000000
1.000000 0.187352 1.000000
1.000000 0.180880 1.000000
0.000000 0.392861 1.000000
0.055168 0.385092 1.000000
0.234174 0.377955 1.000000
0.407640 0.371040 1.000000
0.577603 0.364264 1.000000
0.745008 0.357590 1.000000
0.910402 0.350997 1.000000
1.000000 0.344469 1.000000
1.000000 0.337997 1.000000
0.000000 0.546805 1.000000
0.032374 0.539036 1.000000
0.211380 0.531900 1.000000
0.384846 0.524984 1.000000
0.554809 0.518209 1.000000
0.722214 0.511535 1.000000
0.887608 0.504941 1.000000
1.000000 0.498414 1.000000
1.000000 0.491942 1.000000
0.000000 0.698433 1.000000
0.009923 0.690664 1.000000
0.188929 0.683527 1.000000
0.362395 0.676612 1.000000
0.532358 0.669836 1.000000
0.699763 0.663163 1.000000
0.865157 0.656569 1.000000
1.000000 0.650041 1.000000
1.000000 0.643569 1.000000
0.000000 0.848239 1.000000
0.000000 0.840470 1.000000
0.166748 0.833334 1.000000
0.340213 0.826418 1.000000
0.510176 0.819643 1.000000
0.677581 0.812969 1.000000
0.842975 0.806375 1.000000
1.000000 0.799848 1.000000
1.000000 0.793376 1.000000
0.000000 0.996548 1.000000
0.000000 0.988779 1.000000
0.144788 0.981642 1.000000
0.318254 0.974727 1.000000
0.488217 0.967951 1.000000
0.655622 0.961278 1.000000
0.821016 0.954684 0.998604
0.984756 0.948156 0.992076
1.000000 0.941684 0.985604
0.000000 1.000000 1.000000
0.000000 1.000000 1.000000
0.123017 1.000000 1.000000
0.296482 1.000000 0.996876
0.466445 1.000000 0.990100
0.633850 1.000000 0.983426
0.799244 1.000000 0.976832
0.962985 1.000000 0.970305
1.000000 1.000000 0.963833
0.000000 0.000000 1.000000
0.126377 0.000000 1.000000
0.305383 0.000000 1.000000
0.478849 0.000000 1.000000
0.648812 0.000000 1.000000
0.816217 0.000000 1.000000
0.981611 0.000000 1.000000
1.000000 0.000000 1.000000
1.000000 0.000000 1.000000
0.000000 0.071410 1.000000
0.100241 0.063641 1.000000
0.279247 0.056504 1.000000
0.452713 0.049589 1.000000
0.622676 0.042813 1.000000
0.790080 0.036139 1.000000
0.955475 0.029546 1.000000
1.000000 0.023018 1.000000
1.000000 0.016546 1.000000
0.000000 0.233546 1.000000
0.076234 0.225776 1.000000
0.255240 0.218640 1.000000
0.428706 0.211725 1.000000
0.598669 0.204949 1.000000
0.766074 0.198275 1.000000
0.931468 0.191682 1.000000
1.000000 0.185154 1.000000
1.000000 0.178682 1.000000
0.000000 0.390663 1.000000
0.052970 0.382894 1.000000
0.231976 0.375757 1.000000
0.405442 0.368842 1.000000
0.575405 0.362066 1.000000
0.742810 0.355392 1.000000
0.908204 0.348799 1.000000
1.000000 0.342271 1.000000
1.000000 0.335799 1.000000
0.000000 0.544608 1.000000
0.030176 0.536838 1.000000
0.209182 0.529702 1.000000
0.382648 0.522787 1.000000
0.552611 0.516011 1.000000
0.720016 0.509337 1.000000
0.885410 0.502743 1.000000
1.000000 0.496216 1.000000
1.000000 0.489744 1.000000
0.000000 0.696235 1.000000
0.007725 0.688466 1.000000
0.186731 0.681330 1.000000
0.360197 0.674414 1.000000
0.530160 0.667638 1.000000
0.697565 0.660965 1.000000
0.862959 0.654371 1.000000
1.000000 0.647843 1.000000
1.000000 0.641372 1.000000
0.000000 0.846042 1.000000
0.000000 0.838272 1.000000
0.164550 0.831136 1.000000
0.338016 0.824221 1.000000
0.507978 0.817445 1.000000
0.675383 0.810771 1.000000
0.840777 0.804177 1.000000
1.000000 0.797650 1.000000
1.000000 0.791178 1.000000
0.000000 0.994350 1.000000
0.000000 0.986581 1.000000
0.142590 0.979445 1.000000
0.316056 0.972529 1.000000
0.486019 0.965753 1.000000
0.653424 0.959080 1.000000
0.818818 0.952486 1.000000
0.982558 0.945958 1.000000
1.000000 0.939487 1.000000
0.000000 1.000000 1.000000
0.000000 1.000000 1.000000
0.120819 1.000000 1.000000
0.294284 1.000000 1.000000
0.464247 1.000000 1.000000
0.631652 1.000000 1.000000
0.797046 1.000000 1.000000
0.960787 1.000000 1.000000
1.000000 1.000000 1.000000
