luts/lyrical_lemonade_vibrant.cube
TITLE "FlagshipEditor original preset: lyrical_lemonade_vibrant.cube"
LUT_3D_SIZE 17
DOMAIN_MIN 0.0 0.0 0.0
DOMAIN_MAX 1.0 1.0 1.0
0.000000 0.000000 0.000000
0.064694 0.000000 0.000000
0.149665 0.000000 0.000000
0.232438 0.000000 0.000000
0.313817 0.000000 0.000000
0.394173 0.000000 0.000000
0.473725 0.000000 0.000000
0.552613 0.000000 0.000000
0.630937 0.000000 0.000000
0.708773 0.000000 0.000000
0.786176 0.000000 0.000000
0.863193 0.000000 0.000000
0.939859 0.000000 0.000000
1.000000 0.000000 0.000000
1.000000 0.000000 0.000000
1.000000 0.000000 0.000000
1.000000 0.000000 0.000000
0.000000 0.049055 0.000000
0.058687 0.046887 0.000000
0.143657 0.044039 0.000000
0.226431 0.041265 0.000000
0.307809 0.038537 0.000000
0.388166 0.035844 0.000000
0.467717 0.033177 0.000000
0.546606 0.030533 0.000000
0.624930 0.027908 0.000000
0.702766 0.025299 0.000000
0.780169 0.022705 0.000000
0.857185 0.020123 0.000000
0.933852 0.017554 0.000000
1.000000 0.014995 0.000000
1.000000 0.012446 0.000000
1.000000 0.010787 0.000000
1.000000 0.010787 0.000000
0.000000 0.127293 0.000000
0.049106 0.125125 0.000000
0.134077 0.122277 0.000000
0.216850 0.119502 0.000000
0.298229 0.116775 0.000000
0.378585 0.114081 0.000000
0.458137 0.111415 0.000000
0.537025 0.108771 0.000000
0.615349 0.106146 0.000000
0.693185 0.103537 0.000000
0.770588 0.100942 0.000000
0.847605 0.098361 0.000000
0.924271 0.095791 0.000000
1.000000 0.093232 0.000000
1.000000 0.090683 0.000000
1.000000 0.089025 0.000000
1.000000 0.089025 0.000000
0.000000 0.203508 0.000000
0.039773 0.201339 0.000000
0.124743 0.198491 0.000000
0.207517 0.195717 0.000000
0.288895 0.192989 0.000000
0.369252 0.190296 0.000000
0.448803 0.187630 0.000000
0.527692 0.184986 0.000000
0.606016 0.182360 0.000000
0.683852 0.179751 0.000000
0.761255 0.177157 0.000000
0.838271 0.174576 0.000000
0.914938 0.172006 0.000000
0.991286 0.169447 0.000000
1.000000 0.166898 0.000000
1.000000 0.165240 0.000000
1.000000 0.165240 0.000000
0.000000 0.278438 0.000000
0.030597 0.276270 0.000000
0.115568 0.273422 0.000000
0.198341 0.270647 0.000000
0.279720 0.267920 0.000000
0.360076 0.265226 0.000000
0.439628 0.262560 0.000000
0.518516 0.259916 0.000000
0.596840 0.257291 0.000000
0.674676 0.254682 0.000000
0.752079 0.252087 0.000000
0.829096 0.249506 0.000000
0.905762 0.246936 0.000000
0.982110 0.244377 0.000000
1.000000 0.241828 0.000000
1.000000 0.240170 0.000000
1.000000 0.240170 0.000000
0.000000 0.352427 0.000000
0.021537 0.350259 0.000000
0.106507 0.347411 0.000000
0.189281 0.344637 0.000000
0.270659 0.341909 0.000000
0.351016 0.339216 0.000000
0.430567 0.336549 0.000000
0.509455 0.333905 0.000000
0.587780 0.331280 0.000000
0.665615 0.328671 0.000000
0.743018 0.326077 0.000000
0.820035 0.323495 0.000000
0.896702 0.320926 0.000000
0.973049 0.318367 0.000000
1.000000 0.315817 0.000000
1.000000 0.314159 0.000000
1.000000 0.314159 0.000000
0.000000 0.425675 0.000000
0.012567 0.423507 0.000000
0.097537 0.420659 0.000000
0.180311 0.417885 0.000000
0.261689 0.415157 0.000000
0.342046 0.412464 0.000000
0.421597 0.409797 0.000000
0.500485 0.407153 0.000000
0.578810 0.404528 0.000000
0.656645 0.401919 0.000000
0.734049 0.399325 0.000000
0.811065 0.396743 0.000000
0.887732 0.394174 0.000000
0.964080 0.391615 0.000000
1.000000 0.389065 0.000000
1.000000 0.387407 0.000000
1.000000 0.387407 0.000000
0.000000 0.498313 0.000000
0.003672 0.496144 0.000000
0.088642 0.493296 0.000000
0.171416 0.490522 0.000000
0.252794 0.487794 0.000000
0.333151 0.485101 0.000000
0.412702 0.482434 0.000000
0.491590 0.479790 0.000000
0.569915 0.477165 0.000000
0.647750 0.474556 0.000000
0.725154 0.471962 0.000000
0.802170 0.469380 0.000000
0.878837 0.466811 0.000000
0.955184 0.464252 0.000000
1.000000 0.461703 0.000000
1.000000 0.460045 0.000000
1.000000 0.460045 0.000000
0.000000 0.570431 0.000000
0.000000 0.568263 0.000000
0.079811 0.565415 0.000000
0.162584 0.562640 0.000000
0.243963 0.559913 0.000000
0.324319 0.557219 0.000000
0.403871 0.554553 0.000000
0.482759 0.551909 0.000000
0.561083 0.549283 0.000000
0.638919 0.546675 0.000000
0.716322 0.544080 0.000000
0.793339 0.541499 0.000000
0.870005 0.538929 0.000000
0.946353 0.536370 0.000000
1.000000 0.533821 0.000000
1.000000 0.532163 0.000000
1.000000 0.532163 0.000000
0.000000 0.642099 0.000000
0.000000 0.639930 0.000000
0.071034 0.637082 0.000000
0.153808 0.634308 0.000000
0.235186 0.631580 0.000000
0.315543 0.628887 0.000000
0.395094 0.626221 0.000000
0.473982 0.623577 0.000000
0.552307 0.620951 0.000000
0.630143 0.618343 0.000000
0.707546 0.615748 0.000000
0.784562 0.613167 0.000000
0.861229 0.610597 0.000000
0.937577 0.608038 0.000000
1.000000 0.605489 0.000000
1.000000 0.603831 0.000000
1.000000 0.603831 0.000000
0.000000 0.713369 0.000000
0.000000 0.711200 0.000000
0.062307 0.708352 0.000000
0.145080 0.705578 0.000000
0.226459 0.702850 0.000000
0.306815 0.700157 0.000000
0.386367 0.697491 0.000000
0.465255 0.694847 0.000000
0.543580 0.692221 0.000000
0.621415 0.689613 0.000000
0.698818 0.687018 0.000000
0.775835 0.684437 0.000000
0.852501 0.681867 0.000000
0.928849 0.679308 0.000000
1.000000 0.676759 0.000000
1.000000 0.675101 0.000000
1.000000 0.675101 0.000000
0.000000 0.784283 0.000000
0.000000 0.782114 0.000000
0.053623 0.779266 0.000000
0.136396 0.776492 0.000000
0.217775 0.773764 0.000000
0.298131 0.771071 0.000000
0.377683 0.768405 0.000000
0.456571 0.765761 0.000000
0.534896 0.763135 0.000000
0.612731 0.760526 0.000000
0.690134 0.757932 0.000000
0.767151 0.755351 0.000000
0.843817 0.752781 0.000000
0.920165 0.750222 0.000000
0.996219 0.747673 0.000000
1.000000 0.746015 0.000000
1.000000 0.746015 0.000000
0.000000 0.854875 0.000000
0.000000 0.852706 0.000000
0.044978 0.849858 0.000000
0.127752 0.847084 0.000000
0.209130 0.844356 0.000000
0.289487 0.841663 0.000000
0.369038 0.838997 0.000000
0.447926 0.836352 0.000000
0.526251 0.833727 0.000000
0.604086 0.831118 0.000000
0.681490 0.828524 0.000000
0.758506 0.825943 0.000000
0.835173 0.823373 0.000000
0.911520 0.820814 0.000000
0.987575 0.818265 0.000000
1.000000 0.816607 0.000000
1.000000 0.816607 0.000000
0.000000 0.925173 0.000000
0.000000 0.923004 0.000000
0.036370 0.920156 0.000000
0.119143 0.917382 0.000000
0.200522 0.914654 0.000000
0.280878 0.911961 0.000000
0.360430 0.909295 0.000000
0.439318 0.906650 0.000000
0.517642 0.904025 0.000000
0.595478 0.901416 0.000000
0.672881 0.898822 0.000000
0.749898 0.896241 0.000000
0.826564 0.893671 0.000000
0.902912 0.891112 0.000000
0.978966 0.888563 0.000000
1.000000 0.886905 0.000000
1.000000 0.886905 0.000000
0.000000 0.995200 0.000000
0.000000 0.993032 0.000000
0.027794 0.990184 0.000000
0.110568 0.987410 0.000000
0.191946 0.984682 0.000000
0.272303 0.981989 0.000000
0.351854 0.979322 0.000000
0.430742 0.976678 0.000000
0.509067 0.974053 0.000000
0.586902 0.971444 0.000000
0.664306 0.968850 0.000000
0.741322 0.966268 0.000000
0.817989 0.963699 0.000000
0.894336 0.961140 0.000000
0.970391 0.958591 0.000000
1.000000 0.956932 0.000000
1.000000 0.956932 0.000000
0.000000 1.000000 0.000000
0.000000 1.000000 0.000000
0.020929 1.000000 0.000000
0.103702 1.000000 0.000000
0.185081 1.000000 0.000000
0.265437 1.000000 0.000000
0.344989 1.000000 0.000000
0.423877 1.000000 0.000000
0.502201 1.000000 0.000000
0.580037 1.000000 0.000000
0.657440 1.000000 0.000000
0.734457 1.000000 0.000000
0.811123 1.000000 0.000000
0.887471 1.000000 0.000000
0.963525 1.000000 0.000000
1.000000 1.000000 0.000000
1.000000 1.000000 0.000000
0.000000 1.000000 0.000000
0.000000 1.000000 0.000000
0.020929 1.000000 0.000000
0.103702 1.000000 0.000000
0.185081 1.000000 0.000000
0.265437 1.000000 0.000000
0.344989 1.000000 0.000000
0.423877 1.000000 0.000000
0.502201 1.000000 0.000000
0.580037 1.000000 0.000000
0.657440 1.000000 0.000000
0.734457 1.000000 0.000000
0.811123 1.000000 0.000000
0.887471 1.000000 0.000000
0.963525 1.000000 0.000000
1.000000 1.000000 0.000000
1.000000 1.000000 0.000000
0.000000 0.000000 0.059124
0.064036 0.000000 0.056956
0.149006 0.000000 0.054108
0.231780 0.000000 0.051333
0.313158 0.000000 0.048606
0.393515 0.000000 0.045913
0.473066 0.000000 0.043246
0.551954 0.000000 0.040602
0.630279 0.000000 0.037977
0.708114 0.000000 0.035368
0.785518 0.000000 0.032774
0.862534 0.000000 0.030192
0.939201 0.000000 0.027622
1.000000 0.000000 0.025064
1.000000 0.000000 0.022514
1.000000 0.000000 0.020856
1.000000 0.000000 0.020856
0.000000 0.048397 0.053117
0.058029 0.046229 0.050949
0.142999 0.043381 0.048101
0.225773 0.040606 0.045326
0.307151 0.037879 0.042599
0.387508 0.035185 0.039905
0.467059 0.032519 0.037239
0.545947 0.029875 0.034595
0.624272 0.027250 0.031970
0.702107 0.024641 0.029361
0.779510 0.022046 0.026766
0.856527 0.019465 0.024185
0.933194 0.016895 0.021615
1.000000 0.014336 0.019056
1.000000 0.011787 0.016507
1.000000 0.010129 0.014849
1.000000 0.010129 0.014849
0.000000 0.126635 0.043536
0.048448 0.124466 0.041368
0.133418 0.121618 0.038520
0.216192 0.118844 0.035745
0.297570 0.116116 0.033018
0.377927 0.113423 0.030324
0.457478 0.110756 0.027658
0.536366 0.108112 0.025014
0.614691 0.105487 0.022389
0.692526 0.102878 0.019780
0.769930 0.100284 0.017185
0.846946 0.097702 0.014604
0.923613 0.095133 0.012034
0.999960 0.092574 0.009475
1.000000 0.090025 0.006926
1.000000 0.088367 0.005268
1.000000 0.088367 0.005268
0.000000 0.202849 0.034203
0.039115 0.200681 0.032035
0.124085 0.197833 0.029187
0.206859 0.195059 0.026412
0.288237 0.192331 0.023685
0.368594 0.189638 0.020991
0.448145 0.186971 0.018325
0.527033 0.184327 0.015681
0.605358 0.181702 0.013056
0.683193 0.179093 0.010447
0.760596 0.176499 0.007852
0.837613 0.173917 0.005271
0.914280 0.171348 0.002701
0.990627 0.168789 0.000142
1.000000 0.166239 0.000000
1.000000 0.164581 0.000000
1.000000 0.164581 0.000000
0.000000 0.277780 0.025027
0.029939 0.275611 0.022859
0.114909 0.272763 0.020011
0.197683 0.269989 0.017236
0.279061 0.267261 0.014509
0.359418 0.264568 0.011815
0.438969 0.261902 0.009149
0.517857 0.259257 0.006505
0.596182 0.256632 0.003880
0.674017 0.254023 0.001271
0.751421 0.251429 0.000000
0.828437 0.248848 0.000000
0.905104 0.246278 0.000000
0.981452 0.243719 0.000000
1.000000 0.241170 0.000000
1.000000 0.239512 0.000000
1.000000 0.239512 0.000000
0.000000 0.351769 0.015967
0.020878 0.349600 0.013798
0.105849 0.346752 0.010950
0.188622 0.343978 0.008176
0.270001 0.341251 0.005448
0.350357 0.338557 0.002755
0.429909 0.335891 0.000089
0.508797 0.333247 0.000000
0.587121 0.330621 0.000000
0.664957 0.328013 0.000000
0.742360 0.325418 0.000000
0.819377 0.322837 0.000000
0.896043 0.320267 0.000000
0.972391 0.317708 0.000000
1.000000 0.315159 0.000000
1.000000 0.313501 0.000000
1.000000 0.313501 0.000000
0.000000 0.425017 0.006997
0.011908 0.422848 0.004828
0.096879 0.420000 0.001980
0.179652 0.417226 0.000000
0.261031 0.414499 0.000000
0.341387 0.411805 0.000000
0.420939 0.409139 0.000000
0.499827 0.406495 0.000000
0.578152 0.403869 0.000000
0.655987 0.401261 0.000000
0.733390 0.398666 0.000000
0.810407 0.396085 0.000000
0.887073 0.393515 0.000000
0.963421 0.390956 0.000000
1.000000 0.388407 0.000000
1.000000 0.386749 0.000000
1.000000 0.386749 0.000000
0.000000 0.497654 0.000000
0.003013 0.495486 0.000000
0.087984 0.492638 0.000000
0.170757 0.489863 0.000000
0.252136 0.487136 0.000000
0.332492 0.484442 0.000000
0.412044 0.481776 0.000000
0.490932 0.479132 0.000000
0.569257 0.476507 0.000000
0.647092 0.473898 0.000000
0.724495 0.471303 0.000000
0.801512 0.468722 0.000000
0.878178 0.466152 0.000000
0.954526 0.463593 0.000000
1.000000 0.461044 0.000000
1.000000 0.459386 0.000000
1.000000 0.459386 0.000000
0.000000 0.569773 0.000000
0.000000 0.567604 0.000000
0.079152 0.564756 0.000000
0.161926 0.561982 0.000000
0.243304 0.559254 0.000000
0.323661 0.556561 0.000000
0.403212 0.553894 0.000000
0.482100 0.551250 0.000000
0.560425 0.548625 0.000000
0.638260 0.546016 0.000000
0.715664 0.543422 0.000000
0.792680 0.540840 0.000000
0.869347 0.538271 0.000000
0.945695 0.535712 0.000000
1.000000 0.533163 0.000000
1.000000 0.531505 0.000000
1.000000 0.531505 0.000000
0.000000 0.641440 0.000000
0.000000 0.639272 0.000000
0.070376 0.636424 0.000000
0.153149 0.633650 0.000000
0.234528 0.630922 0.000000
0.314884 0.628229 0.000000
0.394436 0.625562 0.000000
0.473324 0.622918 0.000000
0.551649 0.620293 0.000000
0.629484 0.617684 0.000000
0.706887 0.615090 0.000000
0.783904 0.612508 0.000000
0.860571 0.609939 0.000000
0.936918 0.607380 0.000000
1.000000 0.604831 0.000000
1.000000 0.603172 0.000000
1.000000 0.603172 0.000000
0.000000 0.712710 0.000000
0.000000 0.710542 0.000000
0.061648 0.707694 0.000000
0.144422 0.704920 0.000000
0.225800 0.702192 0.000000
0.306157 0.699499 0.000000
0.385708 0.696832 0.000000
0.464596 0.694188 0.000000
0.542921 0.691563 0.000000
0.620757 0.688954 0.000000
0.698160 0.686360 0.000000
0.775176 0.683778 0.000000
0.851843 0.681209 0.000000
0.928191 0.678650 0.000000
1.000000 0.676101 0.000000
1.000000 0.674442 0.000000
1.000000 0.674442 0.000000
0.000000 0.783624 0.000000
0.000000 0.781456 0.000000
0.052964 0.778608 0.000000
0.135738 0.775834 0.000000
0.217116 0.773106 0.000000
0.297473 0.770413 0.000000
0.377024 0.767746 0.000000
0.455912 0.765102 0.000000
0.534237 0.762477 0.000000
0.612073 0.759868 0.000000
0.689476 0.757274 0.000000
0.766492 0.754692 0.000000
0.843159 0.752123 0.000000
0.919507 0.749564 0.000000
0.995561 0.747014 0.000000
1.000000 0.745356 0.000000
1.000000 0.745356 0.000000
0.000000 0.854216 0.000000
0.000000 0.852048 0.000000
0.044320 0.849200 0.000000
0.127093 0.846425 0.000000
0.208472 0.843698 0.000000
0.288828 0.841005 0.000000
0.368380 0.838338 0.000000
0.447268 0.835694 0.000000
0.525593 0.833069 0.000000
0.603428 0.830460 0.000000
0.680831 0.827866 0.000000
0.757848 0.825284 0.000000
0.834514 0.822714 0.000000
0.910862 0.820155 0.000000
0.986916 0.817606 0.000000
1.000000 0.815948 0.000000
1.000000 0.815948 0.000000
0.000000 0.924514 0.000000
0.000000 0.922346 0.000000
0.035711 0.919498 0.000000
0.118485 0.916723 0.000000
0.199863 0.913996 0.000000
0.280220 0.911303 0.000000
0.359771 0.908636 0.000000
0.438659 0.905992 0.000000
0.516984 0.903367 0.000000
0.594819 0.900758 0.000000
0.672223 0.898164 0.000000
0.749239 0.895582 0.000000
0.825906 0.893012 0.000000
0.902253 0.890453 0.000000
0.978308 0.887904 0.000000
1.000000 0.886246 0.000000
1.000000 0.886246 0.000000
0.000000 0.994542 0.000000
0.000000 0.992374 0.000000
0.027136 0.989526 0.000000
0.109909 0.986751 0.000000
0.191288 0.984024 0.000000
0.271644 0.981330 0.000000
0.351196 0.978664 0.000000
0.430084 0.976020 0.000000
0.508409 0.973395 0.000000
0.586244 0.970786 0.000000
0.663647 0.968191 0.000000
0.740664 0.965610 0.000000
0.817330 0.963040 0.000000
0.893678 0.960481 0.000000
0.969732 0.957932 0.000000
1.000000 0.956274 0.000000
1.000000 0.956274 0.000000
0.000000 1.000000 0.000000
0.000000 1.000000 0.000000
0.020270 1.000000 0.000000
0.103044 1.000000 0.000000
0.184422 1.000000 0.000000
0.264779 1.000000 0.000000
0.344330 1.000000 0.000000
0.423218 1.000000 0.000000
0.501543 1.000000 0.000000
0.579378 1.000000 0.000000
0.656782 1.000000 0.000000
0.733798 1.000000 0.000000
0.810465 1.000000 0.000000
0.886813 1.000000 0.000000
0.962867 1.000000 0.000000
1.000000 1.000000 0.000000
1.000000 1.000000 0.000000
0.000000 1.000000 0.000000
0.000000 1.000000 0.000000
0.020270 1.000000 0.000000
0.103044 1.000000 0.000000
0.184422 1.000000 0.000000
0.264779 1.000000 0.000000
0.344330 1.000000 0.000000
0.423218 1.000000 0.000000
0.501543 1.000000 0.000000
0.579378 1.000000 0.000000
0.656782 1.000000 0.000000
0.733798 1.000000 0.000000
0.810465 1.000000 0.000000
0.886813 1.000000 0.000000
0.962867 1.000000 0.000000
1.000000 1.000000 0.000000
1.000000 1.000000 0.000000
0.000000 0.000000 0.145975
0.063069 0.000000 0.143807
0.148039 0.000000 0.140959
0.230813 0.000000 0.138185
0.312191 0.000000 0.135457
0.392548 0.000000 0.132764
0.472099 0.000000 0.130097
0.550987 0.000000 0.127453
0.629312 0.000000 0.124828
0.707147 0.000000 0.122219
0.784550 0.000000 0.119625
0.861567 0.000000 0.117043
0.938234 0.000000 0.114474
1.000000 0.000000 0.111915
1.000000 0.000000 0.109366
1.000000 0.000000 0.107707
1.000000 0.000000 0.107707
0.000000 0.047430 0.139968
0.057061 0.045261 0.137800
0.142032 0.042413 0.134952
0.224805 0.039639 0.132177
0.306184 0.036911 0.129450
0.386540 0.034218 0.126756
0.466092 0.031552 0.124090
0.544980 0.028908 0.121446
0.623305 0.026282 0.118821
0.701140 0.023673 0.116212
0.778543 0.021079 0.113618
0.855560 0.018498 0.111036
0.932227 0.015928 0.108466
1.000000 0.013369 0.105907
1.000000 0.010820 0.103358
1.000000 0.009162 0.101700
1.000000 0.009162 0.101700
0.000000 0.125667 0.130387
0.047481 0.123499 0.128219
0.132451 0.120651 0.125371
0.215225 0.117877 0.122597
0.296603 0.115149 0.119869
0.376960 0.112456 0.117176
0.456511 0.109789 0.114509
0.535399 0.107145 0.111865
0.613724 0.104520 0.109240
0.691559 0.101911 0.106631
0.768962 0.099317 0.104037
0.845979 0.096735 0.101455
0.922646 0.094166 0.098886
0.998993 0.091607 0.096327
1.000000 0.089057 0.093777
1.000000 0.087399 0.092119
1.000000 0.087399 0.092119
0.000000 0.201882 0.121054
0.038147 0.199714 0.118886
0.123118 0.196866 0.116038
0.205891 0.194091 0.113263
0.287270 0.191364 0.110536
0.367626 0.188670 0.107843
0.447178 0.186004 0.105176
0.526066 0.183360 0.102532
0.604391 0.180735 0.099907
0.682226 0.178126 0.097298
0.759629 0.175531 0.094704
0.836646 0.172950 0.092122
0.913313 0.170380 0.089552
0.989660 0.167821 0.086994
1.000000 0.165272 0.084444
1.000000 0.163614 0.082786
1.000000 0.163614 0.082786
0.000000 0.276812 0.111878
0.028972 0.274644 0.109710
0.113942 0.271796 0.106862
0.196716 0.269022 0.104088
0.278094 0.266294 0.101360
0.358451 0.263601 0.098667
0.438002 0.260934 0.096000
0.516890 0.258290 0.093356
0.595215 0.255665 0.090731
0.673050 0.253056 0.088122
0.750453 0.250462 0.085528
0.827470 0.247880 0.082946
0.904137 0.245311 0.080377
0.980484 0.242752 0.077818
1.000000 0.240203 0.075269
1.000000 0.238544 0.073610
1.000000 0.238544 0.073610
0.000000 0.350802 0.102818
0.019911 0.348633 0.100649
0.104881 0.345785 0.097801
0.187655 0.343011 0.095027
0.269033 0.340283 0.092299
0.349390 0.337590 0.089606
0.428941 0.334924 0.086940
0.507830 0.332279 0.084296
0.586154 0.329654 0.081670
0.663990 0.327045 0.079061
0.741393 0.324451 0.076467
0.818409 0.321870 0.073886
0.895076 0.319300 0.071316
0.971424 0.316741 0.068757
1.000000 0.314192 0.066208
1.000000 0.312534 0.064550
1.000000 0.312534 0.064550
0.000000 0.424050 0.093848
0.010941 0.421881 0.091680
0.095912 0.419033 0.088832
0.178685 0.416259 0.086057
0.260064 0.413531 0.083330
0.340420 0.410838 0.080636
0.419972 0.408172 0.077970
0.498860 0.405527 0.075326
0.577184 0.402902 0.072701
0.655020 0.400293 0.070092
0.732423 0.397699 0.067497
0.809440 0.395118 0.064916
0.886106 0.392548 0.062346
0.962454 0.389989 0.059787
1.000000 0.387440 0.057238
1.000000 0.385782 0.055580
1.000000 0.385782 0.055580
0.000000 0.496687 0.084953
0.002046 0.494519 0.082785
0.087017 0.491671 0.079937
0.169790 0.488896 0.077162
0.251169 0.486169 0.074435
0.331525 0.483475 0.071741
0.411077 0.480809 0.069075
0.489965 0.478165 0.066431
0.568289 0.475539 0.063805
0.646125 0.472931 0.061197
0.723528 0.470336 0.058602
0.800545 0.467755 0.056021
0.877211 0.465185 0.053451
0.953559 0.462626 0.050892
1.000000 0.460077 0.048343
1.000000 0.458419 0.046685
1.000000 0.458419 0.046685
0.000000 0.568805 0.076121
0.000000 0.566637 0.073953
0.078185 0.563789 0.071105
0.160959 0.561015 0.068331
0.242337 0.558287 0.065603
0.322694 0.555594 0.062910
0.402245 0.552927 0.060243
0.481133 0.550283 0.057599
0.559458 0.547658 0.054974
0.637293 0.545049 0.052365
0.714696 0.542455 0.049771
0.791713 0.539873 0.047189
0.868380 0.537304 0.044620
0.944727 0.534745 0.042061
1.000000 0.532195 0.039512
1.000000 0.530537 0.037853
1.000000 0.530537 0.037853
0.000000 0.640473 0.067345
0.000000 0.638305 0.065177
0.069409 0.635457 0.062329
0.152182 0.632682 0.059554
0.233561 0.629955 0.056827
0.313917 0.627262 0.054133
0.393469 0.624595 0.051467
0.472357 0.621951 0.048823
0.550682 0.619326 0.046198
0.628517 0.616717 0.043589
0.705920 0.614123 0.040994
0.782937 0.611541 0.038413
0.859603 0.608971 0.035843
0.935951 0.606412 0.033284
1.000000 0.603863 0.030735
1.000000 0.602205 0.029077
1.000000 0.602205 0.029077
0.000000 0.711743 0.058618
0.000000 0.709575 0.056449
0.060681 0.706727 0.053601
0.143455 0.703952 0.050827
0.224833 0.701225 0.048099
0.305190 0.698532 0.045406
0.384741 0.695865 0.042739
0.463629 0.693221 0.040095
0.541954 0.690596 0.037470
0.619789 0.687987 0.034861
0.697193 0.685393 0.032267
0.774209 0.682811 0.029685
0.850876 0.680241 0.027116
0.927223 0.677682 0.024557
1.000000 0.675133 0.022008
1.000000 0.673475 0.020350
1.000000 0.673475 0.020350
0.000000 0.782657 0.049934
0.000000 0.780489 0.047765
0.051997 0.777641 0.044917
0.134771 0.774866 0.042143
0.216149 0.772139 0.039415
0.296506 0.769445 0.036722
0.376057 0.766779 0.034055
0.454945 0.764135 0.031411
0.533270 0.761510 0.028786
0.611105 0.758901 0.026177
0.688509 0.756306 0.023583
0.765525 0.753725 0.021001
0.842192 0.751155 0.018432
0.918539 0.748596 0.015873
0.994594 0.746047 0.013324
1.000000 0.744389 0.011666
1.000000 0.744389 0.011666
0.000000 0.853249 0.041289
0.000000 0.851081 0.039121
0.043353 0.848233 0.036273
0.126126 0.845458 0.033498
0.207505 0.842731 0.030771
0.287861 0.840037 0.028077
0.367413 0.837371 0.025411
0.446301 0.834727 0.022767
0.524625 0.832102 0.020141
0.602461 0.829493 0.017533
0.679864 0.826898 0.014938
0.756881 0.824317 0.012357
0.833547 0.821747 0.009787
0.909895 0.819188 0.007228
0.985949 0.816639 0.004679
1.000000 0.814981 0.003021
1.000000 0.814981 0.003021
0.000000 0.923547 0.032680
0.000000 0.921379 0.030512
0.034744 0.918531 0.027664
0.117518 0.915756 0.024890
0.198896 0.913029 0.022162
0.279253 0.910335 0.019469
0.358804 0.907669 0.016802
0.437692 0.905025 0.014158
0.516017 0.902400 0.011533
0.593852 0.899791 0.008924
0.671255 0.897196 0.006330
0.748272 0.894615 0.003748
0.824939 0.892045 0.001179
0.901286 0.889486 0.000000
0.977341 0.886937 0.000000
1.000000 0.885279 0.000000
1.000000 0.885279 0.000000
0.000000 0.993575 0.024105
0.000000 0.991406 0.021936
0.026168 0.988558 0.019088
0.108942 0.985784 0.016314
0.190321 0.983057 0.013587
0.270677 0.980363 0.010893
0.350229 0.977697 0.008227
0.429117 0.975053 0.005583
0.507441 0.972427 0.002957
0.585277 0.969819 0.000349
0.662680 0.967224 0.000000
0.739696 0.964643 0.000000
0.816363 0.962073 0.000000
0.892711 0.959514 0.000000
0.968765 0.956965 0.000000
1.000000 0.955307 0.000000
1.000000 0.955307 0.000000
0.000000 1.000000 0.017239
0.000000 1.000000 0.015071
0.019303 1.000000 0.012223
0.102077 1.000000 0.009449
0.183455 1.000000 0.006721
0.263812 1.000000 0.004028
0.343363 1.000000 0.001361
0.422251 1.000000 0.000000
0.500576 1.000000 0.000000
0.578411 1.000000 0.000000
0.655814 1.000000 0.000000
0.732831 1.000000 0.000000
0.809498 1.000000 0.000000
0.885845 1.000000 0.000000
0.961900 1.000000 0.000000
1.000000 1.000000 0.000000
1.000000 1.000000 0.000000
0.000000 1.000000 0.017239
0.000000 1.000000 0.015071
0.019303 1.000000 0.012223
0.102077 1.000000 0.009449
0.183455 1.000000 0.006721
0.263812 1.000000 0.004028
0.343363 1.000000 0.001361
0.422251 1.000000 0.000000
0.500576 1.000000 0.000000
0.578411 1.000000 0.000000
0.655814 1.000000 0.000000
0.732831 1.000000 0.000000
0.809498 1.000000 0.000000
0.885845 1.000000 0.000000
0.961900 1.000000 0.000000
1.000000 1.000000 0.000000
1.000000 1.000000 0.000000
0.000000 0.000000 0.230581
0.062126 0.000000 0.228413
0.147097 0.000000 0.225565
0.229870 0.000000 0.222790
0.311249 0.000000 0.220063
0.391605 0.000000 0.217369
0.471157 0.000000 0.214703
0.550045 0.000000 0.212059
0.628370 0.000000 0.209434
0.706205 0.000000 0.206825
0.783608 0.000000 0.204231
0.860625 0.000000 0.201649
0.937292 0.000000 0.199079
1.000000 0.000000 0.196520
1.000000 0.000000 0.193971
1.000000 0.000000 0.192313
1.000000 0.000000 0.192313
