luts/ninetive_clean.cube
TITLE "FlagshipEditor original preset: ninetive_clean.cube"
LUT_3D_SIZE 17
DOMAIN_MIN 0.0 0.0 0.0
DOMAIN_MAX 1.0 1.0 1.0
0.000000 0.000000 0.000000
0.057451 0.000000 0.000000
0.125450 0.000000 0.000000
0.193095 0.000000 0.000000
0.260510 0.000000 0.000000
0.327755 0.000000 0.000000
0.394865 0.000000 0.000000
0.461862 0.000000 0.000000
0.528763 0.000000 0.000000
0.595581 0.000000 0.000000
0.662324 0.000000 0.000000
0.729001 0.000000 0.000000
0.795616 0.000000 0.000000
0.862177 0.000000 0.000000
0.928686 0.000000 0.000000
0.995147 0.000000 0.000000
1.000000 0.000000 0.000000
0.000000 0.055320 0.000000
0.055886 0.054846 0.000000
0.123886 0.054286 0.000000
0.191530 0.053728 0.000000
0.258945 0.053172 0.000000
0.326190 0.052618 0.000000
0.393300 0.052064 0.000000
0.460297 0.051512 0.000000
0.527199 0.050960 0.000000
0.594016 0.050410 0.000000
0.660759 0.049859 0.000000
0.727436 0.049310 0.000000
0.794052 0.048760 0.000000
0.860612 0.048212 0.000000
0.927121 0.047663 0.000000
0.993582 0.047115 0.000000
1.000000 0.046816 0.000000
0.000000 0.121994 0.000000
0.054000 0.121520 0.000000
0.122000 0.120960 0.000000
0.189644 0.120402 0.000000
0.257059 0.119846 0.000000
0.324304 0.119292 0.000000
0.391414 0.118739 0.000000
0.458411 0.118186 0.000000
0.525313 0.117635 0.000000
0.592130 0.117084 0.000000
0.658874 0.116534 0.000000
0.725550 0.115984 0.000000
0.792166 0.115435 0.000000
0.858726 0.114886 0.000000
0.925235 0.114338 0.000000
0.991696 0.113790 0.000000
1.000000 0.113490 0.000000
0.000000 0.188320 0.000000
0.052124 0.187846 0.000000
0.120124 0.187286 0.000000
0.187768 0.186728 0.000000
0.255183 0.186172 0.000000
0.322428 0.185618 0.000000
0.389538 0.185065 0.000000
0.456535 0.184512 0.000000
0.523437 0.183961 0.000000
0.590254 0.183410 0.000000
0.656997 0.182860 0.000000
0.723674 0.182310 0.000000
0.790290 0.181761 0.000000
0.856850 0.181212 0.000000
0.923359 0.180664 0.000000
0.989820 0.180116 0.000000
1.000000 0.179816 0.000000
0.000000 0.254421 0.000000
0.050254 0.253948 0.000000
0.118254 0.253387 0.000000
0.185898 0.252829 0.000000
0.253314 0.252274 0.000000
0.320558 0.251719 0.000000
0.387668 0.251166 0.000000
0.454665 0.250613 0.000000
0.521567 0.250062 0.000000
0.588384 0.249511 0.000000
0.655128 0.248961 0.000000
0.721804 0.248411 0.000000
0.788420 0.247862 0.000000
0.854980 0.247313 0.000000
0.921489 0.246765 0.000000
0.987950 0.246217 0.000000
1.000000 0.245917 0.000000
0.000000 0.320356 0.000000
0.048389 0.319882 0.000000
0.116389 0.319321 0.000000
0.184033 0.318764 0.000000
0.251448 0.318208 0.000000
0.318693 0.317653 0.000000
0.385803 0.317100 0.000000
0.452800 0.316548 0.000000
0.519702 0.315996 0.000000
0.586519 0.315445 0.000000
0.653263 0.314895 0.000000
0.719939 0.314345 0.000000
0.786555 0.313796 0.000000
0.853115 0.313247 0.000000
0.919624 0.312699 0.000000
0.986085 0.312151 0.000000
1.000000 0.311852 0.000000
0.000000 0.386157 0.000000
0.046528 0.385684 0.000000
0.114528 0.385123 0.000000
0.182172 0.384565 0.000000
0.249587 0.384009 0.000000
0.316832 0.383455 0.000000
0.383942 0.382902 0.000000
0.450939 0.382349 0.000000
0.517841 0.381798 0.000000
0.584658 0.381247 0.000000
0.651401 0.380697 0.000000
0.718078 0.380147 0.000000
0.784694 0.379598 0.000000
0.851254 0.379049 0.000000
0.917763 0.378501 0.000000
0.984224 0.377953 0.000000
1.000000 0.377653 0.000000
0.000000 0.451849 0.000000
0.044670 0.451375 0.000000
0.112670 0.450815 0.000000
0.180314 0.450257 0.000000
0.247729 0.449701 0.000000
0.314974 0.449147 0.000000
0.382084 0.448593 0.000000
0.449081 0.448041 0.000000
0.515982 0.447489 0.000000
0.582800 0.446939 0.000000
0.649543 0.446388 0.000000
0.716220 0.445839 0.000000
0.782835 0.445289 0.000000
0.849396 0.444741 0.000000
0.915905 0.444192 0.000000
0.982366 0.443644 0.000000
1.000000 0.443345 0.000000
0.000000 0.517446 0.000000
0.042815 0.516973 0.000000
0.110814 0.516412 0.000000
0.178459 0.515854 0.000000
0.245874 0.515299 0.000000
0.313119 0.514744 0.000000
0.380228 0.514191 0.000000
0.447226 0.513639 0.000000
0.514127 0.513087 0.000000
0.580945 0.512536 0.000000
0.647688 0.511986 0.000000
0.714364 0.511436 0.000000
0.780980 0.510887 0.000000
0.847540 0.510338 0.000000
0.914049 0.509790 0.000000
0.980511 0.509242 0.000000
1.000000 0.508942 0.000000
0.000000 0.582962 0.000000
0.040961 0.582488 0.000000
0.108961 0.581927 0.000000
0.176605 0.581370 0.000000
0.244020 0.580814 0.000000
0.311265 0.580259 0.000000
0.378375 0.579706 0.000000
0.445372 0.579154 0.000000
0.512274 0.578602 0.000000
0.579091 0.578051 0.000000
0.645835 0.577501 0.000000
0.712511 0.576951 0.000000
0.779127 0.576402 0.000000
0.845687 0.575854 0.000000
0.912196 0.575305 0.000000
0.978657 0.574757 0.000000
1.000000 0.574458 0.000000
0.000000 0.648404 0.000000
0.039110 0.647930 0.000000
0.107110 0.647370 0.000000
0.174754 0.646812 0.000000
0.242169 0.646256 0.000000
0.309414 0.645702 0.000000
0.376524 0.645149 0.000000
0.443521 0.644596 0.000000
0.510423 0.644045 0.000000
0.577240 0.643494 0.000000
0.643984 0.642944 0.000000
0.710660 0.642394 0.000000
0.777276 0.641845 0.000000
0.843836 0.641296 0.000000
0.910345 0.640748 0.000000
0.976806 0.640200 0.000000
1.000000 0.639900 0.000000
0.000000 0.713781 0.000000
0.037261 0.713307 0.000000
0.105261 0.712747 0.000000
0.172905 0.712189 0.000000
0.240320 0.711633 0.000000
0.307565 0.711079 0.000000
0.374675 0.710526 0.000000
0.441672 0.709973 0.000000
0.508574 0.709422 0.000000
0.575391 0.708871 0.000000
0.642134 0.708320 0.000000
0.708811 0.707771 0.000000
0.775427 0.707222 0.000000
0.841987 0.706673 0.000000
0.908496 0.706125 0.000000
0.974957 0.705577 0.000000
1.000000 0.705277 0.000000
0.000000 0.779098 0.000000
0.035414 0.778625 0.000000
0.103413 0.778064 0.000000
0.171058 0.777506 0.000000
0.238473 0.776951 0.000000
0.305718 0.776396 0.000000
0.372827 0.775843 0.000000
0.439825 0.775291 0.000000
0.506726 0.774739 0.000000
0.573544 0.774188 0.000000
0.640287 0.773638 0.000000
0.706963 0.773088 0.000000
0.773579 0.772539 0.000000
0.840139 0.771990 0.000000
0.906648 0.771442 0.000000
0.973110 0.770894 0.000000
1.000000 0.770594 0.000000
0.000000 0.844361 0.000000
0.033567 0.843888 0.000000
0.101567 0.843327 0.000000
0.169212 0.842769 0.000000
0.236627 0.842214 0.000000
0.303872 0.841659 0.000000
0.370981 0.841106 0.000000
0.437979 0.840554 0.000000
0.504880 0.840002 0.000000
0.571698 0.839451 0.000000
0.638441 0.838901 0.000000
0.705117 0.838351 0.000000
0.771733 0.837802 0.000000
0.838293 0.837253 0.000000
0.904802 0.836705 0.000000
0.971264 0.836157 0.000000
1.000000 0.835857 0.000000
0.000000 0.909574 0.000000
0.031723 0.909100 0.000000
0.099722 0.908540 0.000000
0.167367 0.907982 0.000000
0.234782 0.907426 0.000000
0.302027 0.906872 0.000000
0.369137 0.906319 0.000000
0.436134 0.905766 0.000000
0.503035 0.905215 0.000000
0.569853 0.904664 0.000000
0.636596 0.904114 0.000000
0.703273 0.903564 0.000000
0.769888 0.903015 0.000000
0.836449 0.902466 0.000000
0.902958 0.901918 0.000000
0.969419 0.901370 0.000000
1.000000 0.901070 0.000000
0.000000 0.974740 0.000000
0.029880 0.974266 0.000000
0.097879 0.973706 0.000000
0.165524 0.973148 0.000000
0.232939 0.972592 0.000000
0.300184 0.972038 0.000000
0.367293 0.971485 0.000000
0.434291 0.970932 0.000000
0.501192 0.970381 0.000000
0.568010 0.969830 0.000000
0.634753 0.969280 0.000000
0.701429 0.968730 0.000000
0.768045 0.968181 0.000000
0.834605 0.967632 0.000000
0.901114 0.967084 0.000000
0.967576 0.966536 0.000000
1.000000 0.966236 0.000000
0.000000 1.000000 0.000000
0.028843 1.000000 0.000000
0.096842 1.000000 0.000000
0.164487 1.000000 0.000000
0.231902 1.000000 0.000000
0.299147 1.000000 0.000000
0.366257 1.000000 0.000000
0.433254 1.000000 0.000000
0.500155 1.000000 0.000000
0.566973 1.000000 0.000000
0.633716 1.000000 0.000000
0.700393 1.000000 0.000000
0.767008 1.000000 0.000000
0.833569 1.000000 0.000000
0.900078 1.000000 0.000000
0.966539 1.000000 0.000000
1.000000 1.000000 0.000000
0.000000 0.000000 0.059838
0.057284 0.000000 0.059364
0.125284 0.000000 0.058804
0.192928 0.000000 0.058246
0.260343 0.000000 0.057690
0.327588 0.000000 0.057136
0.394698 0.000000 0.056583
0.461695 0.000000 0.056030
0.528597 0.000000 0.055479
0.595414 0.000000 0.054928
0.662158 0.000000 0.054377
0.728834 0.000000 0.053828
0.795450 0.000000 0.053279
0.862010 0.000000 0.052730
0.928519 0.000000 0.052182
0.994980 0.000000 0.051634
1.000000 0.000000 0.051334
0.000000 0.055153 0.058273
0.055720 0.054680 0.057800
0.123719 0.054119 0.057239
0.191364 0.053561 0.056681
0.258779 0.053005 0.056125
0.326024 0.052451 0.055571
0.393133 0.051898 0.055018
0.460131 0.051345 0.054465
0.527032 0.050794 0.053914
0.593850 0.050243 0.053363
0.660593 0.049693 0.052813
0.727269 0.049143 0.052263
0.793885 0.048594 0.051714
0.860445 0.048045 0.051165
0.926954 0.047497 0.050617
0.993416 0.046949 0.050069
1.000000 0.046649 0.049769
0.000000 0.121827 0.056387
0.053834 0.121354 0.055914
0.121833 0.120793 0.055353
0.189478 0.120235 0.054795
0.256893 0.119680 0.054239
0.324138 0.119125 0.053685
0.391247 0.118572 0.053132
0.458245 0.118020 0.052579
0.525146 0.117468 0.052028
0.591964 0.116917 0.051477
0.658707 0.116367 0.050927
0.725383 0.115817 0.050377
0.791999 0.115268 0.049828
0.858559 0.114719 0.049279
0.925068 0.114171 0.048731
0.991530 0.113623 0.048183
1.000000 0.113323 0.047883
0.000000 0.188153 0.054511
0.051957 0.187680 0.054037
0.119957 0.187119 0.053477
0.187602 0.186562 0.052919
0.255017 0.186006 0.052363
0.322262 0.185451 0.051809
0.389371 0.184898 0.051256
0.456369 0.184346 0.050703
0.523270 0.183794 0.050152
0.590088 0.183243 0.049601
0.656831 0.182693 0.049051
0.723507 0.182143 0.048501
0.790123 0.181594 0.047952
0.856683 0.181045 0.047403
0.923192 0.180497 0.046855
0.989654 0.179949 0.046307
1.000000 0.179649 0.046007
0.000000 0.254255 0.052641
0.050088 0.253781 0.052168
0.118087 0.253220 0.051607
0.185732 0.252663 0.051049
0.253147 0.252107 0.050494
0.320392 0.251552 0.049939
0.387501 0.250999 0.049386
0.454499 0.250447 0.048834
0.521400 0.249895 0.048282
0.588218 0.249344 0.047731
0.654961 0.248794 0.047181
0.721637 0.248244 0.046631
0.788253 0.247695 0.046082
0.854813 0.247147 0.045533
0.921322 0.246598 0.044985
0.987784 0.246050 0.044437
1.000000 0.245751 0.044137
0.000000 0.320189 0.050776
0.048223 0.319715 0.050303
0.116222 0.319155 0.049742
0.183867 0.318597 0.049184
0.251282 0.318041 0.048629
0.318527 0.317487 0.048074
0.385636 0.316934 0.047521
0.452634 0.316381 0.046969
0.519535 0.315830 0.046417
0.586353 0.315279 0.045866
0.653096 0.314728 0.045316
0.719772 0.314179 0.044766
0.786388 0.313630 0.044217
0.852948 0.313081 0.043668
0.919457 0.312533 0.043120
0.985919 0.311985 0.042572
1.000000 0.311685 0.042272
0.000000 0.385991 0.048915
0.046362 0.385517 0.048442
0.114361 0.384956 0.047881
0.182006 0.384399 0.047323
0.249421 0.383843 0.046767
0.316666 0.383288 0.046213
0.383775 0.382735 0.045660
0.450773 0.382183 0.045107
0.517674 0.381631 0.044556
0.584492 0.381080 0.044005
0.651235 0.380530 0.043455
0.717911 0.379980 0.042905
0.784527 0.379431 0.042356
0.851087 0.378883 0.041807
0.917596 0.378334 0.041259
0.984058 0.377786 0.040711
1.000000 0.377487 0.040411
0.000000 0.451682 0.047057
0.044503 0.451209 0.046583
0.112503 0.450648 0.046023
0.180147 0.450090 0.045465
0.247562 0.449534 0.044909
0.314807 0.448980 0.044355
0.381917 0.448427 0.043802
0.448914 0.447874 0.043249
0.515816 0.447323 0.042698
0.582633 0.446772 0.042147
0.649377 0.446222 0.041597
0.716053 0.445672 0.041047
0.782669 0.445123 0.040498
0.849229 0.444574 0.039949
0.915738 0.444026 0.039401
0.982199 0.443478 0.038853
1.000000 0.443178 0.038553
0.000000 0.517280 0.045202
0.042648 0.516806 0.044728
0.110647 0.516245 0.044167
0.178292 0.515688 0.043610
0.245707 0.515132 0.043054
0.312952 0.514578 0.042499
0.380062 0.514024 0.041946
0.447059 0.513472 0.041394
0.513960 0.512920 0.040842
0.580778 0.512369 0.040291
0.647521 0.511819 0.039741
0.714198 0.511270 0.039191
0.780813 0.510720 0.038642
0.847374 0.510172 0.038093
0.913883 0.509623 0.037545
0.980344 0.509075 0.036997
1.000000 0.508776 0.036698
0.000000 0.582795 0.043348
0.040795 0.582321 0.042875
0.108794 0.581761 0.042314
0.176439 0.581203 0.041756
0.243854 0.580647 0.041201
0.311099 0.580093 0.040646
0.378208 0.579540 0.040093
0.445206 0.578987 0.039541
0.512107 0.578436 0.038989
0.578925 0.577885 0.038438
0.645668 0.577335 0.037888
0.712344 0.576785 0.037338
0.778960 0.576236 0.036789
0.845520 0.575687 0.036240
0.912029 0.575139 0.035692
0.978491 0.574591 0.035144
1.000000 0.574291 0.034844
0.000000 0.648237 0.041497
0.038944 0.647764 0.041024
0.106943 0.647203 0.040463
0.174588 0.646645 0.039905
0.242003 0.646090 0.039350
0.309248 0.645535 0.038795
0.376357 0.644982 0.038242
0.443355 0.644430 0.037690
0.510256 0.643878 0.037138
0.577074 0.643327 0.036587
0.643817 0.642777 0.036037
0.710493 0.642227 0.035487
0.777109 0.641678 0.034938
0.843669 0.641129 0.034389
0.910178 0.640581 0.033841
0.976640 0.640033 0.033293
1.000000 0.639733 0.032993
0.000000 0.713614 0.039648
0.037094 0.713141 0.039174
0.105094 0.712580 0.038614
0.172738 0.712022 0.038056
0.240154 0.711467 0.037500
0.307398 0.710912 0.036946
0.374508 0.710359 0.036393
0.441505 0.709807 0.035840
0.508407 0.709255 0.035289
0.575224 0.708704 0.034738
0.641968 0.708154 0.034188
0.708644 0.707604 0.033638
0.775260 0.707055 0.033089
0.841820 0.706506 0.032540
0.908329 0.705958 0.031992
0.974791 0.705410 0.031444
1.000000 0.705110 0.031144
0.000000 0.778932 0.037801
0.035247 0.778458 0.037327
0.103246 0.777897 0.036766
0.170891 0.777340 0.036209
0.238306 0.776784 0.035653
0.305551 0.776230 0.035098
0.372661 0.775676 0.034545
0.439658 0.775124 0.033993
0.506559 0.774572 0.033441
0.573377 0.774022 0.032890
0.640120 0.773471 0.032340
0.706797 0.772922 0.031790
0.773412 0.772372 0.031241
0.839973 0.771824 0.030692
0.906482 0.771275 0.030144
0.972943 0.770727 0.029596
1.000000 0.770428 0.029297
0.000000 0.844195 0.035955
0.033401 0.843721 0.035481
0.101400 0.843160 0.034920
0.169045 0.842603 0.034363
0.236460 0.842047 0.033807
0.303705 0.841493 0.033252
0.370815 0.840939 0.032699
0.437812 0.840387 0.032147
0.504713 0.839835 0.031595
0.571531 0.839284 0.031044
0.638274 0.838734 0.030494
0.704951 0.838184 0.029944
0.771566 0.837635 0.029395
0.838127 0.837087 0.028846
0.904636 0.836538 0.028298
0.971097 0.835990 0.027750
1.000000 0.835691 0.027451
0.000000 0.909407 0.034110
0.031556 0.908934 0.033636
0.099556 0.908373 0.033076
0.167200 0.907815 0.032518
0.234615 0.907260 0.031962
0.301860 0.906705 0.031408
0.368970 0.906152 0.030855
0.435967 0.905600 0.030302
0.502869 0.905048 0.029751
0.569686 0.904497 0.029200
0.636430 0.903947 0.028649
0.703106 0.903397 0.028100
0.769722 0.902848 0.027551
0.836282 0.902299 0.027002
0.902791 0.901751 0.026454
0.969252 0.901203 0.025906
1.000000 0.900903 0.025606
0.000000 0.974573 0.032267
0.029713 0.974100 0.031793
0.097713 0.973539 0.031232
0.165357 0.972981 0.030675
0.232772 0.972426 0.030119
0.300017 0.971871 0.029565
0.367127 0.971318 0.029011
0.434124 0.970766 0.028459
0.501025 0.970214 0.027907
0.567843 0.969663 0.027356
0.634586 0.969113 0.026806
0.701263 0.968563 0.026257
0.767878 0.968014 0.025707
0.834439 0.967465 0.025159
0.900948 0.966917 0.024610
0.967409 0.966369 0.024062
1.000000 0.966069 0.023763
0.000000 1.000000 0.031230
0.028676 1.000000 0.030756
0.096676 1.000000 0.030196
0.164320 1.000000 0.029638
0.231735 1.000000 0.029082
0.298980 1.000000 0.028528
0.366090 1.000000 0.027975
0.433087 1.000000 0.027422
0.499989 1.000000 0.026871
0.566806 1.000000 0.026320
0.633550 1.000000 0.025769
0.700226 1.000000 0.025220
0.766842 1.000000 0.024671
0.833402 1.000000 0.024122
0.899911 1.000000 0.023574
0.966372 1.000000 0.023026
1.000000 1.000000 0.022726
0.000000 0.000000 0.128208
0.057094 0.000000 0.127734
0.125093 0.000000 0.127173
0.192738 0.000000 0.126616
0.260153 0.000000 0.126060
0.327398 0.000000 0.125506
0.394508 0.000000 0.124952
0.461505 0.000000 0.124400
0.528406 0.000000 0.123848
0.595224 0.000000 0.123297
0.661967 0.000000 0.122747
0.728644 0.000000 0.122198
0.795259 0.000000 0.121648
0.861820 0.000000 0.121100
0.928329 0.000000 0.120551
0.994790 0.000000 0.120003
1.000000 0.000000 0.119704
0.000000 0.054963 0.126643
0.055529 0.054489 0.126169
0.123529 0.053929 0.125609
0.191173 0.053371 0.125051
0.258588 0.052815 0.124495
0.325833 0.052261 0.123941
0.392943 0.051707 0.123387
0.459940 0.051155 0.122835
0.526842 0.050603 0.122284
0.593659 0.050053 0.121733
0.660402 0.049502 0.121182
0.727079 0.048953 0.120633
0.793695 0.048403 0.120084
0.860255 0.047855 0.119535
0.926764 0.047306 0.118986
0.993225 0.046758 0.118439
1.000000 0.046459 0.118139
0.000000 0.121637 0.124757
0.053643 0.121163 0.124283
0.121643 0.120603 0.123723
0.189287 0.120045 0.123165
0.256702 0.119489 0.122609
0.323947 0.118935 0.122055
0.391057 0.118382 0.121502
0.458054 0.117829 0.120949
0.524956 0.117278 0.120398
0.591773 0.116727 0.119847
0.658516 0.116177 0.119297
0.725193 0.115627 0.118747
0.791809 0.115078 0.118198
0.858369 0.114529 0.117649
0.924878 0.113981 0.117101
0.991339 0.113433 0.116553
1.000000 0.113133 0.116253
0.000000 0.187963 0.122881
0.051767 0.187489 0.122407
0.119767 0.186929 0.121847
0.187411 0.186371 0.121289
0.254826 0.185815 0.120733
0.322071 0.185261 0.120179
0.389181 0.184708 0.119625
0.456178 0.184155 0.119073
0.523080 0.183604 0.118522
0.589897 0.183053 0.117971
0.656640 0.182503 0.117420
0.723317 0.181953 0.116871
0.789933 0.181404 0.116322
0.856493 0.180855 0.115773
0.923002 0.180307 0.115224
0.989463 0.179759 0.114677
1.000000 0.179459 0.114377
0.000000 0.254064 0.121011
0.049897 0.253591 0.120538
0.117897 0.253030 0.119977
0.185541 0.252472 0.119419
0.252956 0.251916 0.118863
0.320201 0.251362 0.118309
0.387311 0.250809 0.117756
0.454308 0.250256 0.117203
0.521210 0.249705 0.116652
0.588027 0.249154 0.116101
0.654771 0.248604 0.115551
0.721447 0.248054 0.115001
0.788063 0.247505 0.114452
0.854623 0.246956 0.113903
0.921132 0.246408 0.113355
0.987593 0.245860 0.112807
1.000000 0.245560 0.112507
0.000000 0.319999 0.119146
0.048032 0.319525 0.118672
0.116032 0.318964 0.118112
0.183676 0.318407 0.117554
0.251091 0.317851 0.116998
0.318336 0.317296 0.116444
0.385446 0.316743 0.115891
0.452443 0.316191 0.115338
0.519345 0.315639 0.114787
0.586162 0.315088 0.114236
0.652906 0.314538 0.113686
0.719582 0.313988 0.113136
0.786198 0.313439 0.112587
0.852758 0.312890 0.112038
0.919267 0.312342 0.111490
0.985728 0.311794 0.110942
1.000000 0.311495 0.110642
0.000000 0.385800 0.117285
0.046171 0.385327 0.116811
0.114171 0.384766 0.116251
0.181815 0.384208 0.115693
0.249230 0.383652 0.115137
0.316475 0.383098 0.114583
0.383585 0.382545 0.114029
0.450582 0.381992 0.113477
0.517484 0.381441 0.112926
0.584301 0.380890 0.112375
0.651044 0.380340 0.111824
0.717721 0.379790 0.111275
0.784337 0.379241 0.110726
0.850897 0.378692 0.110177
0.917406 0.378144 0.109628
0.983867 0.377596 0.109081
1.000000 0.377296 0.108781
0.000000 0.451492 0.115427
0.044313 0.451018 0.114953
0.112312 0.450458 0.114392
0.179957 0.449900 0.113835
0.247372 0.449344 0.113279
0.314617 0.448790 0.112725
0.381727 0.448236 0.112171
0.448724 0.447684 0.111619
0.515625 0.447132 0.111067
0.582443 0.446582 0.110517
0.649186 0.446031 0.109966
0.715863 0.445482 0.109417
0.782478 0.444932 0.108867
0.849039 0.444384 0.108319
0.915548 0.443835 0.107770
0.982009 0.443287 0.107222
1.000000 0.442988 0.106923
0.000000 0.517089 0.113571
0.042458 0.516616 0.113098
0.110457 0.516055 0.112537
0.178102 0.515497 0.111979
0.245517 0.514942 0.111424
0.312762 0.514387 0.110869
0.379871 0.513834 0.110316
0.446869 0.513282 0.109764
0.513770 0.512730 0.109212
0.580588 0.512179 0.108661
0.647331 0.511629 0.108111
0.714007 0.511079 0.107561
0.780623 0.510530 0.107012
0.847183 0.509981 0.106463
0.913692 0.509433 0.105915
0.980154 0.508885 0.105367
1.000000 0.508585 0.105067
0.000000 0.582605 0.111718
0.040604 0.582131 0.111244
0.108604 0.581570 0.110684
0.176248 0.581013 0.110126
0.243663 0.580457 0.109570
0.310908 0.579902 0.109016
0.378018 0.579349 0.108463
0.445015 0.578797 0.107910
0.511917 0.578245 0.107359
0.578734 0.577694 0.106808
0.645478 0.577144 0.106258
0.712154 0.576594 0.105708
0.778770 0.576045 0.105159
0.845330 0.575497 0.104610
0.911839 0.574948 0.104062
0.978300 0.574400 0.103514
1.000000 0.574101 0.103214
0.000000 0.648047 0.109867
0.038753 0.647573 0.109393
0.106753 0.647013 0.108833
0.174397 0.646455 0.108275
0.241812 0.645899 0.107719
0.309057 0.645345 0.107165
0.376167 0.644792 0.106612
0.443164 0.644239 0.106059
0.510066 0.643688 0.105508
0.576883 0.643137 0.104957
0.643627 0.642587 0.104407
0.710303 0.642037 0.103857
0.776919 0.641488 0.103308
0.843479 0.640939 0.102759
0.909988 0.640391 0.102211
0.976449 0.639843 0.101663
1.000000 0.639543 0.101363
0.000000 0.713424 0.108018
0.036904 0.712950 0.107544
0.104904 0.712390 0.106984
0.172548 0.711832 0.106426
0.239963 0.711276 0.105870
0.307208 0.710722 0.105316
0.374318 0.710168 0.104762
0.441315 0.709616 0.104210
0.508216 0.709065 0.103659
0.575034 0.708514 0.103108
0.641777 0.707963 0.102557
0.708454 0.707414 0.102008
0.775070 0.706865 0.101458
0.841630 0.706316 0.100910
0.908139 0.705768 0.100361
0.974600 0.705220 0.099813
1.000000 0.704920 0.099514
0.000000 0.778741 0.106170
0.035056 0.778268 0.105697
0.103056 0.777707 0.105136
0.170701 0.777149 0.104578
0.238116 0.776594 0.104023
0.305361 0.776039 0.103468
0.372470 0.775486 0.102915
0.439468 0.774934 0.102363
0.506369 0.774382 0.101811
0.573187 0.773831 0.101260
0.639930 0.773281 0.100710
0.706606 0.772731 0.100160
0.773222 0.772182 0.099611
0.839782 0.771633 0.099062
0.906291 0.771085 0.098514
0.972753 0.770537 0.097966
1.000000 0.770237 0.097666
0.000000 0.844004 0.104324
0.033210 0.843531 0.103851
0.101210 0.842970 0.103290
0.168855 0.842412 0.102732
0.236270 0.841857 0.102177
0.303515 0.841302 0.101622
0.370624 0.840749 0.101069
0.437622 0.840196 0.100516
0.504523 0.839645 0.099965
0.571341 0.839094 0.099414
0.638084 0.838544 0.098864
0.704760 0.837994 0.098314
0.771376 0.837445 0.097765
0.837936 0.836896 0.097216
0.904445 0.836348 0.096668
0.970907 0.835800 0.096120
1.000000 0.835500 0.095820
0.000000 0.909217 0.102480
0.031366 0.908743 0.102006
0.099365 0.908183 0.101445
0.167010 0.907625 0.100888
0.234425 0.907069 0.100332
0.301670 0.906515 0.099778
0.368780 0.905962 0.099224
0.435777 0.905409 0.098672
0.502678 0.904858 0.098120
0.569496 0.904307 0.097569
0.636239 0.903757 0.097019
0.702916 0.903207 0.096470
0.769531 0.902658 0.095920
0.836092 0.902109 0.095372
0.902601 0.901561 0.094823
0.969062 0.901013 0.094275
1.000000 0.900713 0.093976
0.000000 0.974383 0.100636
0.029523 0.973909 0.100163
0.097522 0.973349 0.099602
0.165167 0.972791 0.099044
0.232582 0.972235 0.098489
0.299827 0.971681 0.097934
0.366936 0.971128 0.097381
0.433934 0.970575 0.096829
0.500835 0.970024 0.096277
0.567653 0.969473 0.095726
0.634396 0.968923 0.095176
0.701072 0.968373 0.094626
0.767688 0.967824 0.094077
0.834248 0.967275 0.093528
0.900757 0.966727 0.092980
0.967219 0.966179 0.092432
1.000000 0.965879 0.092132
0.000000 1.000000 0.099600
0.028486 1.000000 0.099126
0.096485 1.000000 0.098565
0.164130 1.000000 0.098008
0.231545 1.000000 0.097452
0.298790 1.000000 0.096898
0.365900 1.000000 0.096344
0.432897 1.000000 0.095792
0.499798 1.000000 0.095240
0.566616 1.000000 0.094689
0.633359 1.000000 0.094139
0.700036 1.000000 0.093590
0.766651 1.000000 0.093040
0.833212 1.000000 0.092492
0.899721 1.000000 0.091943
0.966182 1.000000 0.091395
1.000000 1.000000 0.091096
0.000000 0.000000 0.196220
0.056904 0.000000 0.195747
0.124904 0.000000 0.195186
0.192549 0.000000 0.194629
0.259964 0.000000 0.194073
0.327209 0.000000 0.193518
0.394318 0.000000 0.192965
0.461316 0.000000 0.192413
0.528217 0.000000 0.191861
0.595035 0.000000 0.191310
0.661778 0.000000 0.190760
0.728454 0.000000 0.190210
0.795070 0.000000 0.189661
0.861630 0.000000 0.189112
0.928139 0.000000 0.188564
0.994601 0.000000 0.188016
1.000000 0.000000 0.187716
