luts/ninetive_clean.cube
TITLE "FlagshipEditor original preset: ninetive_clean.cube"
LUT_3D_SIZE 5
DOMAIN_MIN 0.0 0.0 0.0
DOMAIN_MAX 1.0 1.0 1.0
0.000000 0.000000 0.000000
0.260510 0.000000 0.000000
0.528763 0.000000 0.000000
0.795616 0.000000 0.000000
1.000000 0.000000 0.000000
0.000000 0.254421 0.000000
0.253314 0.252274 0.000000
0.521567 0.250062 0.000000
0.788420 0.247862 0.000000
1.000000 0.245917 0.000000
0.000000 0.517446 0.000000
0.245874 0.515299 0.000000
0.514127 0.513087 0.000000
0.780980 0.510887 0.000000
1.000000 0.508942 0.000000
0.000000 0.779098 0.000000
0.238473 0.776951 0.000000
0.506726 0.774739 0.000000
0.773579 0.772539 0.000000
1.000000 0.770594 0.000000
0.000000 1.000000 0.000000
0.231902 1.000000 0.000000
0.500155 1.000000 0.000000
0.767008 1.000000 0.000000
1.000000 1.000000 0.000000
0.000000 0.000000 0.264003
0.259775 0.000000 0.261855
0.528028 0.000000 0.259643
0.794881 0.000000 0.257443
1.000000 0.000000 0.255499
0.000000 0.253686 0.256806
0.252578 0.251538 0.254658
0.520832 0.249327 0.252447
0.787685 0.247127 0.250247
1.000000 0.245182 0.248302
0.000000 0.516711 0.249366
0.245138 0.514563 0.247218
0.513392 0.512352 0.245007
0.780245 0.510152 0.242807
1.000000 0.508207 0.240862
0.000000 0.778363 0.241965
0.237737 0.776215 0.239817
0.505991 0.774004 0.237606
0.772844 0.771804 0.235406
1.000000 0.769859 0.233461
0.000000 1.000000 0.235395
0.231167 1.000000 0.233247
0.499420 1.000000 0.231035
0.766273 1.000000 0.228835
1.000000 1.000000 0.226891
0.000000 0.000000 0.533716
0.259024 0.000000 0.531569
0.527277 0.000000 0.529357
0.794130 0.000000 0.527157
1.000000 0.000000 0.525212
0.000000 0.252935 0.526520
0.251827 0.250787 0.524372
0.520081 0.248576 0.522161
0.786934 0.246376 0.519961
1.000000 0.244431 0.518016
0.000000 0.515960 0.519080
0.244387 0.513812 0.516932
0.512641 0.511601 0.514721
0.779494 0.509401 0.512521
1.000000 0.507456 0.510576
0.000000 0.777612 0.511679
0.236986 0.775464 0.509531
0.505240 0.773253 0.507320
0.772093 0.771053 0.505120
1.000000 0.769108 0.503175
0.000000 1.000000 0.505108
0.230416 1.000000 0.502961
0.498669 1.000000 0.500749
0.765522 1.000000 0.498549
1.000000 1.000000 0.496604
0.000000 0.000000 0.802022
0.258277 0.000000 0.799875
0.526530 0.000000 0.797663
0.793383 0.000000 0.795463
1.000000 0.000000 0.793518
0.000000 0.252188 0.794826
0.251080 0.250040 0.792678
0.519333 0.247829 0.790467
0.786187 0.245629 0.788267
1.000000 0.243684 0.786322
0.000000 0.515213 0.787386
0.243640 0.513065 0.785238
0.511894 0.510854 0.783027
0.778747 0.508654 0.780827
1.000000 0.506709 0.778882
0.000000 0.776865 0.779985
0.236239 0.774717 0.777837
0.504493 0.772506 0.775626
0.771346 0.770306 0.773426
1.000000 0.768361 0.771481
0.000000 1.000000 0.773414
0.229669 1.000000 0.771267
0.497922 1.000000 0.769055
0.764775 1.000000 0.766855
1.000000 1.000000 0.764910
0.000000 0.000000 1.000000
0.257622 0.000000 1.000000
0.525875 0.000000 1.000000
0.792728 0.000000 1.000000
1.000000 0.000000 1.000000
0.000000 0.251533 1.000000
0.250426 0.249386 1.000000
0.518679 0.247174 1.000000
0.785532 0.244974 1.000000
1.000000 0.243029 1.000000
0.000000 0.514558 1.000000
0.242986 0.512411 1.000000
0.511239 0.510199 1.000000
0.778092 0.507999 1.000000
1.000000 0.506054 1.000000
0.000000 0.776210 1.000000
0.235585 0.774063 1.000000
0.503838 0.771851 1.000000
0.770691 0.769651 1.000000
1.000000 0.767706 1.000000
0.000000 1.000000 1.000000
0.229014 1.000000 1.000000
0.497267 1.000000 1.000000
0.764120 1.000000 1.000000
1.000000 1.000000 1.000000
