luts/ninetive_clean.cube
TITLE "FlagshipEditor original preset: ninetive_clean.cube"
LUT_3D_SIZE 9
DOMAIN_MIN 0.0 0.0 0.0
DOMAIN_MAX 1.0 1.0 1.0
0.000000 0.000000 0.000000
0.125450 0.000000 0.000000
0.260510 0.000000 0.000000
0.394865 0.000000 0.000000
0.528763 0.000000 0.000000
0.662324 0.000000 0.000000
0.795616 0.000000 0.000000
0.928686 0.000000 0.000000
1.000000 0.000000 0.000000
0.000000 0.121994 0.000000
0.122000 0.120960 0.000000
0.257059 0.119846 0.000000
0.391414 0.118739 0.000000
0.525313 0.117635 0.000000
0.658874 0.116534 0.000000
0.792166 0.115435 0.000000
0.925235 0.114338 0.000000
1.000000 0.113490 0.000000
0.000000 0.254421 0.000000
0.118254 0.253387 0.000000
0.253314 0.252274 0.000000
0.387668 0.251166 0.000000
0.521567 0.250062 0.000000
0.655128 0.248961 0.000000
0.788420 0.247862 0.000000
0.921489 0.246765 0.000000
1.000000 0.245917 0.000000
0.000000 0.386157 0.000000
0.114528 0.385123 0.000000
0.249587 0.384009 0.000000
0.383942 0.382902 0.000000
0.517841 0.381798 0.000000
0.651401 0.380697 0.000000
0.784694 0.379598 0.000000
0.917763 0.378501 0.000000
1.000000 0.377653 0.000000
0.000000 0.517446 0.000000
0.110814 0.516412 0.000000
0.245874 0.515299 0.000000
0.380228 0.514191 0.000000
0.514127 0.513087 0.000000
0.647688 0.511986 0.000000
0.780980 0.510887 0.000000
0.914049 0.509790 0.000000
1.000000 0.508942 0.000000
0.000000 0.648404 0.000000
0.107110 0.647370 0.000000
0.242169 0.646256 0.000000
0.376524 0.645149 0.000000
0.510423 0.644045 0.000000
0.643984 0.642944 0.000000
0.777276 0.641845 0.000000
0.910345 0.640748 0.000000
1.000000 0.639900 0.000000
0.000000 0.779098 0.000000
0.103413 0.778064 0.000000
0.238473 0.776951 0.000000
0.372827 0.775843 0.000000
0.506726 0.774739 0.000000
0.640287 0.773638 0.000000
0.773579 0.772539 0.000000
0.906648 0.771442 0.000000
1.000000 0.770594 0.000000
0.000000 0.909574 0.000000
0.099722 0.908540 0.000000
0.234782 0.907426 0.000000
0.369137 0.906319 0.000000
0.503035 0.905215 0.000000
0.636596 0.904114 0.000000
0.769888 0.903015 0.000000
0.902958 0.901918 0.000000
1.000000 0.901070 0.000000
0.000000 1.000000 0.000000
0.096842 1.000000 0.000000
0.231902 1.000000 0.000000
0.366257 1.000000 0.000000
0.500155 1.000000 0.000000
0.633716 1.000000 0.000000
0.767008 1.000000 0.000000
0.900078 1.000000 0.000000
1.000000 1.000000 0.000000
0.000000 0.000000 0.128208
0.125093 0.000000 0.127173
0.260153 0.000000 0.126060
0.394508 0.000000 0.124952
0.528406 0.000000 0.123848
0.661967 0.000000 0.122747
0.795259 0.000000 0.121648
0.928329 0.000000 0.120551
1.000000 0.000000 0.119704
0.000000 0.121637 0.124757
0.121643 0.120603 0.123723
0.256702 0.119489 0.122609
0.391057 0.118382 0.121502
0.524956 0.117278 0.120398
0.658516 0.116177 0.119297
0.791809 0.115078 0.118198
0.924878 0.113981 0.117101
1.000000 0.113133 0.116253
0.000000 0.254064 0.121011
0.117897 0.253030 0.119977
0.252956 0.251916 0.118863
0.387311 0.250809 0.117756
0.521210 0.249705 0.116652
0.654771 0.248604 0.115551
0.788063 0.247505 0.114452
0.921132 0.246408 0.113355
1.000000 0.245560 0.112507
0.000000 0.385800 0.117285
0.114171 0.384766 0.116251
0.249230 0.383652 0.115137
0.383585 0.382545 0.114029
0.517484 0.381441 0.112926
0.651044 0.380340 0.111824
0.784337 0.379241 0.110726
0.917406 0.378144 0.109628
1.000000 0.377296 0.108781
0.000000 0.517089 0.113571
0.110457 0.516055 0.112537
0.245517 0.514942 0.111424
0.379871 0.513834 0.110316
0.513770 0.512730 0.109212
0.647331 0.511629 0.108111
0.780623 0.510530 0.107012
0.913692 0.509433 0.105915
1.000000 0.508585 0.105067
0.000000 0.648047 0.109867
0.106753 0.647013 0.108833
0.241812 0.645899 0.107719
0.376167 0.644792 0.106612
0.510066 0.643688 0.105508
0.643627 0.642587 0.104407
0.776919 0.641488 0.103308
0.909988 0.640391 0.102211
1.000000 0.639543 0.101363
0.000000 0.778741 0.106170
0.103056 0.777707 0.105136
0.238116 0.776594 0.104023
0.372470 0.775486 0.102915
0.506369 0.774382 0.101811
0.639930 0.773281 0.100710
0.773222 0.772182 0.099611
0.906291 0.771085 0.098514
1.000000 0.770237 0.097666
0.000000 0.909217 0.102480
0.099365 0.908183 0.101445
0.234425 0.907069 0.100332
0.368780 0.905962 0.099224
0.502678 0.904858 0.098120
0.636239 0.903757 0.097019
0.769531 0.902658 0.095920
0.902601 0.901561 0.094823
1.000000 0.900713 0.093976
0.000000 1.000000 0.099600
0.096485 1.000000 0.098565
0.231545 1.000000 0.097452
0.365900 1.000000 0.096344
0.499798 1.000000 0.095240
0.633359 1.000000 0.094139
0.766651 1.000000 0.093040
0.899721 1.000000 0.091943
1.000000 1.000000 0.091096
0.000000 0.000000 0.264003
0.124715 0.000000 0.262968
0.259775 0.000000 0.261855
0.394129 0.000000 0.260747
0.528028 0.000000 0.259643
0.661589 0.000000 0.258542
0.794881 0.000000 0.257443
0.927950 0.000000 0.256346
1.000000 0.000000 0.255499
0.000000 0.121259 0.260552
0.121265 0.120225 0.259518
0.256324 0.119111 0.258404
0.390679 0.118003 0.257296
0.524577 0.116900 0.256193
0.658138 0.115798 0.255091
0.791431 0.114699 0.253993
0.924500 0.113602 0.252895
1.000000 0.112755 0.252048
0.000000 0.253686 0.256806
0.117519 0.252652 0.255772
0.252578 0.251538 0.254658
0.386933 0.250431 0.253551
0.520832 0.249327 0.252447
0.654393 0.248226 0.251346
0.787685 0.247127 0.250247
0.920754 0.246030 0.249150
1.000000 0.245182 0.248302
0.000000 0.385422 0.253080
0.113792 0.384388 0.252046
0.248852 0.383274 0.250932
0.383207 0.382167 0.249824
0.517105 0.381063 0.248721
0.650666 0.379962 0.247619
0.783958 0.378863 0.246520
0.917028 0.377766 0.245423
1.000000 0.376918 0.244576
0.000000 0.516711 0.249366
0.110079 0.515677 0.248332
0.245138 0.514563 0.247218
0.379493 0.513456 0.246111
0.513392 0.512352 0.245007
0.646953 0.511251 0.243906
0.780245 0.510152 0.242807
0.913314 0.509055 0.241710
1.000000 0.508207 0.240862
0.000000 0.647669 0.245662
0.106375 0.646635 0.244628
0.241434 0.645521 0.243514
0.375789 0.644413 0.242407
0.509688 0.643310 0.241303
0.643248 0.642208 0.240202
0.776541 0.641110 0.239103
0.909610 0.640012 0.238006
1.000000 0.639165 0.237158
0.000000 0.778363 0.241965
0.102678 0.777329 0.240931
0.237737 0.776215 0.239817
0.372092 0.775108 0.238710
0.505991 0.774004 0.237606
0.639552 0.772903 0.236505
0.772844 0.771804 0.235406
0.905913 0.770707 0.234309
1.000000 0.769859 0.233461
0.000000 0.908839 0.238275
0.098987 0.907805 0.237240
0.234047 0.906691 0.236127
0.368401 0.905583 0.235019
0.502300 0.904479 0.233915
0.635861 0.903378 0.232814
0.769153 0.902279 0.231715
0.902222 0.901182 0.230618
1.000000 0.900335 0.229771
0.000000 1.000000 0.235395
0.096107 1.000000 0.234360
0.231167 1.000000 0.233247
0.365521 1.000000 0.232139
0.499420 1.000000 0.231035
0.632981 1.000000 0.229934
0.766273 1.000000 0.228835
0.899342 1.000000 0.227738
1.000000 1.000000 0.226891
0.000000 0.000000 0.399089
0.124339 0.000000 0.398054
0.259399 0.000000 0.396941
0.393753 0.000000 0.395833
0.527652 0.000000 0.394729
0.661213 0.000000 0.393628
0.794505 0.000000 0.392529
0.927574 0.000000 0.391432
1.000000 0.000000 0.390585
0.000000 0.120883 0.395638
0.120888 0.119848 0.394604
0.255948 0.118735 0.393490
0.390303 0.117627 0.392383
0.524201 0.116523 0.391279
0.657762 0.115422 0.390178
0.791054 0.114323 0.389079
0.924124 0.113226 0.387982
1.000000 0.112379 0.387134
0.000000 0.253310 0.391892
0.117143 0.252276 0.390858
0.252202 0.251162 0.389744
0.386557 0.250055 0.388637
0.520456 0.248951 0.387533
0.654016 0.247849 0.386432
0.787309 0.246751 0.385333
0.920378 0.245654 0.384236
1.000000 0.244806 0.383388
0.000000 0.385046 0.388166
0.113416 0.384012 0.387132
0.248476 0.382898 0.386018
0.382830 0.381790 0.384910
0.516729 0.380687 0.383807
0.650290 0.379585 0.382705
0.783582 0.378487 0.381607
0.916651 0.377389 0.380509
1.000000 0.376542 0.379662
0.000000 0.516335 0.384452
0.109703 0.515301 0.383418
0.244762 0.514187 0.382305
0.379117 0.513080 0.381197
0.513016 0.511976 0.380093
0.646577 0.510875 0.378992
0.779869 0.509776 0.377893
0.912938 0.508679 0.376796
1.000000 0.507831 0.375948
0.000000 0.647293 0.380748
0.105998 0.646258 0.379714
0.241058 0.645145 0.378600
0.375413 0.644037 0.377493
0.509311 0.642933 0.376389
0.642872 0.641832 0.375288
0.776164 0.640733 0.374189
0.909234 0.639636 0.373092
1.000000 0.638789 0.372244
0.000000 0.777987 0.377051
0.102302 0.776953 0.376017
0.237361 0.775839 0.374904
0.371716 0.774732 0.373796
0.505615 0.773628 0.372692
0.639175 0.772527 0.371591
0.772468 0.771428 0.370492
0.905537 0.770331 0.369395
1.000000 0.769483 0.368547
0.000000 0.908463 0.373361
0.098611 0.907428 0.372326
0.233671 0.906315 0.371213
0.368025 0.905207 0.370105
0.501924 0.904103 0.369001
0.635485 0.903002 0.367900
0.768777 0.901903 0.366801
0.901846 0.900806 0.365704
1.000000 0.899959 0.364857
0.000000 1.000000 0.370481
0.095731 1.000000 0.369446
0.230791 1.000000 0.368333
0.365145 1.000000 0.367225
0.499044 1.000000 0.366121
0.632605 1.000000 0.365020
0.765897 1.000000 0.363921
0.898966 1.000000 0.362824
1.000000 1.000000 0.361977
0.000000 0.000000 0.533716
0.123964 0.000000 0.532682
0.259024 0.000000 0.531569
0.393378 0.000000 0.530461
0.527277 0.000000 0.529357
0.660838 0.000000 0.528256
0.794130 0.000000 0.527157
0.927199 0.000000 0.526060
1.000000 0.000000 0.525212
0.000000 0.120508 0.530266
0.120513 0.119473 0.529231
0.255573 0.118360 0.528118
0.389928 0.117252 0.527010
0.523826 0.116148 0.525906
0.657387 0.115047 0.524805
0.790679 0.113948 0.523706
0.923749 0.112851 0.522609
1.000000 0.112004 0.521762
0.000000 0.252935 0.526520
0.116768 0.251901 0.525486
0.251827 0.250787 0.524372
0.386182 0.249680 0.523265
0.520081 0.248576 0.522161
0.653641 0.247475 0.521060
0.786934 0.246376 0.519961
0.920003 0.245279 0.518864
1.000000 0.244431 0.518016
0.000000 0.384671 0.522794
0.113041 0.383637 0.521759
0.248101 0.382523 0.520646
0.382456 0.381416 0.519538
0.516354 0.380312 0.518434
0.649915 0.379211 0.517333
0.783207 0.378112 0.516234
0.916277 0.377015 0.515137
1.000000 0.376167 0.514290
0.000000 0.515960 0.519080
0.109328 0.514926 0.518046
0.244387 0.513812 0.516932
0.378742 0.512705 0.515825
0.512641 0.511601 0.514721
0.646202 0.510500 0.513620
0.779494 0.509401 0.512521
0.912563 0.508304 0.511424
1.000000 0.507456 0.510576
0.000000 0.646918 0.515376
0.105624 0.645884 0.514342
0.240683 0.644770 0.513228
0.375038 0.643662 0.512120
0.508937 0.642558 0.511017
0.642497 0.641457 0.509915
0.775790 0.640358 0.508816
0.908859 0.639261 0.507719
1.000000 0.638414 0.506872
0.000000 0.777612 0.511679
0.101927 0.776578 0.510645
0.236986 0.775464 0.509531
0.371341 0.774357 0.508424
0.505240 0.773253 0.507320
0.638801 0.772152 0.506219
0.772093 0.771053 0.505120
0.905162 0.769956 0.504023
1.000000 0.769108 0.503175
0.000000 0.908088 0.507988
0.098236 0.907053 0.506954
0.233296 0.905940 0.505841
0.367650 0.904832 0.504733
0.501549 0.903728 0.503629
0.635110 0.902627 0.502528
0.768402 0.901528 0.501429
0.901471 0.900431 0.500332
1.000000 0.899584 0.499484
0.000000 1.000000 0.505108
0.095356 1.000000 0.504074
0.230416 1.000000 0.502961
0.364770 1.000000 0.501853
0.498669 1.000000 0.500749
0.632230 1.000000 0.499648
0.765522 1.000000 0.498549
0.898591 1.000000 0.497452
1.000000 1.000000 0.496604
0.000000 0.000000 0.668004
0.123590 0.000000 0.666970
0.258650 0.000000 0.665857
0.393004 0.000000 0.664749
0.526903 0.000000 0.663645
0.660464 0.000000 0.662544
0.793756 0.000000 0.661445
0.926825 0.000000 0.660348
1.000000 0.000000 0.659500
0.000000 0.120134 0.664554
0.120140 0.119100 0.663520
0.255199 0.117986 0.662406
0.389554 0.116878 0.661298
0.523452 0.115775 0.660194
0.657013 0.114673 0.659093
0.790306 0.113574 0.657994
0.923375 0.112477 0.656897
1.000000 0.111630 0.656050
0.000000 0.252561 0.660808
0.116394 0.251527 0.659774
0.251453 0.250413 0.658660
0.385808 0.249306 0.657553
0.519707 0.248202 0.656449
0.653268 0.247101 0.655348
0.786560 0.246002 0.654249
0.919629 0.244905 0.653152
1.000000 0.244057 0.652304
0.000000 0.384297 0.657082
0.112667 0.383263 0.656047
0.247727 0.382149 0.654934
0.382082 0.381042 0.653826
0.515980 0.379938 0.652722
0.649541 0.378837 0.651621
0.782833 0.377738 0.650522
0.915903 0.376641 0.649425
1.000000 0.375793 0.648578
0.000000 0.515586 0.653368
0.108954 0.514552 0.652334
0.244013 0.513438 0.651220
0.378368 0.512331 0.650113
0.512267 0.511227 0.649009
0.645828 0.510126 0.647908
0.779120 0.509027 0.646809
0.912189 0.507930 0.645712
1.000000 0.507082 0.644864
0.000000 0.646544 0.649664
0.105250 0.645510 0.648630
0.240309 0.644396 0.647516
0.374664 0.643288 0.646408
0.508563 0.642185 0.645305
0.642123 0.641083 0.644203
0.775416 0.639985 0.643105
0.908485 0.638887 0.642007
1.000000 0.638040 0.641160
0.000000 0.777238 0.645967
0.101553 0.776204 0.644933
0.236612 0.775090 0.643819
0.370967 0.773983 0.642712
0.504866 0.772879 0.641608
0.638427 0.771778 0.640507
0.771719 0.770679 0.639408
0.904788 0.769582 0.638311
1.000000 0.768734 0.637463
0.000000 0.907714 0.642276
0.097862 0.906680 0.641242
0.232922 0.905566 0.640129
0.367276 0.904458 0.639021
0.501175 0.903354 0.637917
0.634736 0.902253 0.636816
0.768028 0.901154 0.635717
0.901097 0.900057 0.634620
1.000000 0.899210 0.633772
0.000000 1.000000 0.639396
0.094982 1.000000 0.638362
0.230042 1.000000 0.637249
0.364396 1.000000 0.636141
0.498295 1.000000 0.635037
0.631856 1.000000 0.633936
0.765148 1.000000 0.632837
0.898217 1.000000 0.631740
1.000000 1.000000 0.630892
0.000000 0.000000 0.802022
0.123217 0.000000 0.800988
0.258277 0.000000 0.799875
0.392631 0.000000 0.798767
0.526530 0.000000 0.797663
0.660091 0.000000 0.796562
0.793383 0.000000 0.795463
0.926452 0.000000 0.794366
1.000000 0.000000 0.793518
0.000000 0.119761 0.798572
0.119766 0.118726 0.797537
0.254826 0.117613 0.796424
0.389181 0.116505 0.795316
0.523079 0.115401 0.794212
0.656640 0.114300 0.793111
0.789932 0.113201 0.792012
0.923002 0.112104 0.790915
1.000000 0.111257 0.790068
0.000000 0.252188 0.794826
0.116021 0.251154 0.793792
0.251080 0.250040 0.792678
0.385435 0.248932 0.791570
0.519333 0.247829 0.790467
0.652894 0.246727 0.789365
0.786187 0.245629 0.788267
0.919256 0.244531 0.787169
1.000000 0.243684 0.786322
0.000000 0.383924 0.791100
0.112294 0.382890 0.790065
0.247354 0.381776 0.788952
0.381708 0.380668 0.787844
0.515607 0.379565 0.786740
0.649168 0.378463 0.785639
0.782460 0.377365 0.784540
0.915529 0.376267 0.783443
1.000000 0.375420 0.782596
0.000000 0.515213 0.787386
0.108581 0.514179 0.786352
0.243640 0.513065 0.785238
0.377995 0.511958 0.784131
0.511894 0.510854 0.783027
0.645454 0.509753 0.781926
0.778747 0.508654 0.780827
0.911816 0.507557 0.779730
1.000000 0.506709 0.778882
0.000000 0.646171 0.783682
0.104876 0.645136 0.782647
0.239936 0.644023 0.781534
0.374291 0.642915 0.780426
0.508189 0.641811 0.779322
0.641750 0.640710 0.778221
0.775042 0.639611 0.777122
0.908112 0.638514 0.776025
1.000000 0.637667 0.775178
0.000000 0.776865 0.779985
0.101180 0.775831 0.778951
0.236239 0.774717 0.777837
0.370594 0.773610 0.776730
0.504493 0.772506 0.775626
0.638053 0.771405 0.774525
0.771346 0.770306 0.773426
0.904415 0.769209 0.772329
1.000000 0.768361 0.771481
0.000000 0.907341 0.776294
0.097489 0.906306 0.775260
0.232549 0.905193 0.774147
0.366903 0.904085 0.773039
0.500802 0.902981 0.771935
0.634363 0.901880 0.770834
0.767655 0.900781 0.769735
0.900724 0.899684 0.768638
1.000000 0.898837 0.767790
0.000000 1.000000 0.773414
0.094609 1.000000 0.772380
0.229669 1.000000 0.771267
0.364023 1.000000 0.770159
0.497922 1.000000 0.769055
0.631483 1.000000 0.767954
0.764775 1.000000 0.766855
0.897844 1.000000 0.765758
1.000000 1.000000 0.764910
0.000000 0.000000 0.935816
0.122844 0.000000 0.934782
0.257904 0.000000 0.933668
0.392259 0.000000 0.932561
0.526157 0.000000 0.931457
0.659718 0.000000 0.930356
0.793010 0.000000 0.929257
0.926080 0.000000 0.928160
1.000000 0.000000 0.927312
0.000000 0.119388 0.932365
0.119394 0.118354 0.931331
0.254453 0.117240 0.930218
0.388808 0.116133 0.929110
0.522707 0.115029 0.928006
0.656268 0.113928 0.926905
0.789560 0.112829 0.925806
0.922629 0.111732 0.924709
1.000000 0.110884 0.923861
0.000000 0.251815 0.928620
0.115648 0.250781 0.927585
0.250708 0.249668 0.926472
0.385062 0.248560 0.925364
0.518961 0.247456 0.924260
0.652522 0.246355 0.923159
0.785814 0.245256 0.922060
0.918883 0.244159 0.920963
1.000000 0.243311 0.920116
0.000000 0.383551 0.924893
0.111922 0.382517 0.923859
0.246981 0.381404 0.922746
0.381336 0.380296 0.921638
0.515235 0.379192 0.920534
0.648796 0.378091 0.919433
0.782088 0.376992 0.918334
0.915157 0.375895 0.917237
1.000000 0.375047 0.916389
0.000000 0.514840 0.921180
0.108208 0.513806 0.920145
0.243268 0.512693 0.919032
0.377622 0.511585 0.917924
0.511521 0.510481 0.916820
0.645082 0.509380 0.915719
0.778374 0.508281 0.914620
0.911443 0.507184 0.913523
1.000000 0.506336 0.912676
0.000000 0.645798 0.917475
0.104504 0.644764 0.916441
0.239563 0.643650 0.915328
0.373918 0.642543 0.914220
0.507817 0.641439 0.913116
0.641378 0.640338 0.912015
0.774670 0.639239 0.910916
0.907739 0.638142 0.909819
1.000000 0.637294 0.908971
0.000000 0.776492 0.913779
0.100807 0.775458 0.912744
0.235867 0.774345 0.911631
0.370221 0.773237 0.910523
0.504120 0.772133 0.909419
0.637681 0.771032 0.908318
0.770973 0.769933 0.907219
0.904042 0.768836 0.906122
1.000000 0.767988 0.905275
0.000000 0.906968 0.910088
0.097116 0.905934 0.909054
0.232176 0.904820 0.907940
0.366531 0.903713 0.906833
0.500429 0.902609 0.905729
0.633990 0.901508 0.904628
0.767282 0.900409 0.903529
0.900352 0.899312 0.902432
1.000000 0.898464 0.901584
0.000000 1.000000 0.907208
0.094236 1.000000 0.906174
0.229296 1.000000 0.905060
0.363651 1.000000 0.903953
0.497549 1.000000 0.902849
0.631110 1.000000 0.901748
0.764402 1.000000 0.900649
0.897472 1.000000 0.899552
1.000000 1.000000 0.898704
0.000000 0.000000 1.000000
0.122562 0.000000 1.000000
0.257622 0.000000 1.000000
0.391977 0.000000 1.000000
0.525875 0.000000 1.000000
0.659436 0.000000 1.000000
0.792728 0.000000 1.000000
0.925798 0.000000 1.000000
1.000000 0.000000 1.000000
0.000000 0.119106 1.000000
0.119112 0.118072 1.000000
0.254171 0.116958 1.000000
0.388526 0.115851 1.000000
0.522425 0.114747 1.000000
0.655986 0.113646 1.000000
0.789278 0.112547 1.000000
0.922347 0.111450 1.000000
1.000000 0.110602 1.000000
0.000000 0.251533 1.000000
0.115366 0.250499 1.000000
0.250426 0.249386 1.000000
0.384780 0.248278 1.000000
0.518679 0.247174 1.000000
0.652240 0.246073 1.000000
0.785532 0.244974 1.000000
0.918601 0.243877 1.000000
1.000000 0.243029 1.000000
0.000000 0.383269 1.000000
0.111640 0.382235 1.000000
0.246699 0.381121 1.000000
0.381054 0.380014 1.000000
0.514953 0.378910 1.000000
0.648513 0.377809 1.000000
0.781806 0.376710 1.000000
0.914875 0.375613 1.000000
1.000000 0.374765 1.000000
0.000000 0.514558 1.000000
0.107926 0.513524 1.000000
0.242986 0.512411 1.000000
0.377340 0.511303 1.000000
0.511239 0.510199 1.000000
0.644800 0.509098 1.000000
0.778092 0.507999 1.000000
0.911161 0.506902 1.000000
1.000000 0.506054 1.000000
0.000000 0.645516 1.000000
0.104222 0.644482 1.000000
0.239281 0.643368 1.000000
0.373636 0.642261 1.000000
0.507535 0.641157 1.000000
0.641096 0.640056 1.000000
0.774388 0.638957 1.000000
0.907457 0.637860 1.000000
1.000000 0.637012 1.000000
0.000000 0.776210 1.000000
0.100525 0.775176 1.000000
0.235585 0.774063 1.000000
0.369939 0.772955 1.000000
0.503838 0.771851 1.000000
0.637399 0.770750 1.000000
0.770691 0.769651 1.000000
0.903760 0.768554 1.000000
1.000000 0.767706 1.000000
0.000000 0.906686 1.000000
0.096834 0.905652 1.000000
0.231894 0.904538 1.000000
0.366249 0.903431 1.000000
0.500147 0.902327 1.000000
0.633708 0.901226 1.000000
0.767000 0.900127 1.000000
0.900070 0.899030 1.000000
1.000000 0.898182 1.000000
0.000000 1.000000 1.000000
0.093954 1.000000 1.000000
0.229014 1.000000 1.000000
0.363369 1.000000 1.000000
0.497267 1.000000 1.000000
0.630828 1.000000 1.000000
0.764120 1.000000 1.000000
0.897190 1.000000 1.000000
1.000000 1.000000 1.000000
