luts/worldwide_dark.cube
TITLE "FlagshipEditor original preset: worldwide_dark.cube"
LUT_3D_SIZE 5
DOMAIN_MIN 0.0 0.0 0.0
DOMAIN_MAX 1.0 1.0 1.0
0.000000 0.000000 0.000000
0.149357 0.005813 0.005813
0.357157 0.013900 0.013900
0.562793 0.021903 0.021903
0.767036 0.029852 0.029852
0.019097 0.159281 0.019097
0.168454 0.165094 0.024910
0.376254 0.173181 0.032997
0.581890 0.181184 0.041001
0.786133 0.189133 0.048949
0.046304 0.386201 0.046304
0.195660 0.392013 0.052117
0.403461 0.400101 0.060204
0.609097 0.408104 0.068207
0.813340 0.416053 0.076156
0.073227 0.610757 0.073227
0.222584 0.616570 0.079040
0.430384 0.624657 0.087127
0.636020 0.632660 0.095130
0.840263 0.640609 0.103079
0.099968 0.833792 0.099968
0.249324 0.839605 0.105781
0.457125 0.847692 0.113868
0.662761 0.855695 0.121871
0.867004 0.863644 0.129820
0.002298 0.002298 0.169361
0.151654 0.008110 0.175174
0.359455 0.016198 0.183262
0.565091 0.024201 0.191265
0.769334 0.032150 0.199214
0.021395 0.161578 0.188458
0.170751 0.167391 0.194271
0.378552 0.175479 0.202359
0.584188 0.183482 0.210362
0.788431 0.191431 0.218311
0.048601 0.388498 0.215665
0.197958 0.394311 0.221478
0.405758 0.402398 0.229565
0.611394 0.410402 0.237568
0.815638 0.418350 0.245517
0.075524 0.613054 0.242588
0.224881 0.618867 0.248401
0.432682 0.626955 0.256489
0.638318 0.634958 0.264492
0.842561 0.642907 0.272441
0.102265 0.836089 0.269329
0.251622 0.841902 0.275142
0.459422 0.849990 0.283229
0.665059 0.857993 0.291233
0.869302 0.865942 0.299182
0.005044 0.005044 0.371821
0.154401 0.010857 0.377634
0.362201 0.018944 0.385721
0.567837 0.026948 0.393724
0.772080 0.034896 0.401673
0.024141 0.164325 0.390918
0.173498 0.170138 0.396731
0.381298 0.178225 0.404818
0.586934 0.186228 0.412821
0.791178 0.194177 0.420770
0.051348 0.391245 0.418125
0.200704 0.397057 0.423937
0.408505 0.405145 0.432025
0.614141 0.413148 0.440028
0.818384 0.421097 0.447977
0.078271 0.615801 0.445048
0.227628 0.621614 0.450861
0.435428 0.629701 0.458948
0.641064 0.637704 0.466951
0.845307 0.645653 0.474900
0.105012 0.838836 0.471789
0.254368 0.844649 0.477602
0.462169 0.852736 0.485689
0.667805 0.860739 0.493692
0.872048 0.868688 0.501641
0.007762 0.007762 0.572172
0.157119 0.013575 0.577985
0.364919 0.021662 0.586072
0.570555 0.029665 0.594075
0.774798 0.037614 0.602024
0.026859 0.167043 0.591269
0.176216 0.172856 0.597082
0.384016 0.180943 0.605169
0.589652 0.188946 0.613172
0.793895 0.196895 0.621121
0.054066 0.393963 0.618475
0.203422 0.399775 0.624288
0.411223 0.407863 0.632376
0.616859 0.415866 0.640379
0.821102 0.423815 0.648328
0.080989 0.618519 0.645399
0.230346 0.624332 0.651212
0.438146 0.632419 0.659299
0.643782 0.640422 0.667302
0.848025 0.648371 0.675251
0.107730 0.841554 0.672140
0.257086 0.847367 0.677952
0.464887 0.855454 0.686040
0.670523 0.863457 0.694043
0.874766 0.871406 0.701992
0.010461 0.010461 0.771165
0.159818 0.016274 0.776978
0.367619 0.024362 0.785066
0.573255 0.032365 0.793069
0.777498 0.040314 0.801018
0.029559 0.169742 0.790263
0.178915 0.175555 0.796075
0.386716 0.183643 0.804163
0.592352 0.191646 0.812166
0.796595 0.199595 0.820115
0.056765 0.396662 0.817469
0.206122 0.402475 0.823282
0.413922 0.410562 0.831369
0.619558 0.418565 0.839373
0.823802 0.426514 0.847322
0.083688 0.621218 0.844392
0.233045 0.627031 0.850205
0.440846 0.635119 0.858293
0.646482 0.643122 0.866296
0.850725 0.651071 0.874245
0.110429 0.844253 0.871133
0.259786 0.850066 0.876946
0.467586 0.858154 0.885034
0.673223 0.866157 0.893037
0.877466 0.874106 0.900986
