luts/worldwide_neon_dark.cube
TITLE "FlagshipEditor original preset: worldwide_neon_dark.cube"
LUT_3D_SIZE 9
DOMAIN_MIN 0.0 0.0 0.0
DOMAIN_MAX 1.0 1.0 1.0
0.000000 0.000000 0.000000
0.117421 0.000000 0.000000
0.281761 0.000000 0.000000
0.440181 0.000000 0.000000
0.594875 0.000000 0.000000
0.746856 0.000000 0.000000
0.896709 0.000000 0.000000
1.000000 0.000000 0.000000
1.000000 0.000000 0.000000
0.000000 0.054364 0.000000
0.091213 0.046573 0.000000
0.255554 0.039521 0.000000
0.413974 0.032722 0.000000
0.568667 0.026084 0.000000
0.720648 0.019562 0.000000
0.870501 0.013131 0.000000
1.000000 0.006775 0.000000
1.000000 0.000482 0.000000
0.000000 0.202032 0.000000
0.067488 0.194241 0.000000
0.231828 0.187188 0.000000
0.390248 0.180390 0.000000
0.544942 0.173751 0.000000
0.696923 0.167229 0.000000
0.846776 0.160798 0.000000
0.994883 0.154443 0.000000
1.000000 0.148150 0.000000
0.000000 0.344379 0.000000
0.044618 0.336589 0.000000
0.208958 0.329536 0.000000
0.367378 0.322738 0.000000
0.522072 0.316099 0.000000
0.674053 0.309577 0.000000
0.823906 0.303146 0.000000
0.972012 0.296791 0.000000
1.000000 0.290498 0.000000
0.000000 0.483379 0.000000
0.022285 0.475589 0.000000
0.186625 0.468536 0.000000
0.345045 0.461738 0.000000
0.499739 0.455099 0.000000
0.651720 0.448577 0.000000
0.801573 0.442146 0.000000
0.949680 0.435790 0.000000
1.000000 0.429498 0.000000
0.000000 0.619941 0.000000
0.000344 0.612151 0.000000
0.164685 0.605098 0.000000
0.323105 0.598300 0.000000
0.477798 0.591661 0.000000
0.629779 0.585139 0.000000
0.779632 0.578708 0.000000
0.927739 0.572352 0.000000
1.000000 0.566060 0.000000
0.000000 0.754592 0.000000
0.000000 0.746801 0.000000
0.143051 0.739748 0.000000
0.301471 0.732950 0.000000
0.456165 0.726311 0.000000
0.608145 0.719789 0.000000
0.757998 0.713358 0.000000
0.906105 0.707003 0.000000
1.000000 0.700710 0.000000
0.000000 0.887672 0.000000
0.000000 0.879882 0.000000
0.121669 0.872829 0.000000
0.280089 0.866031 0.000000
0.434783 0.859392 0.000000
0.586764 0.852870 0.000000
0.736617 0.846439 0.000000
0.884723 0.840083 0.000000
1.000000 0.833791 0.000000
0.000000 1.000000 0.000000
0.000000 1.000000 0.000000
0.100501 1.000000 0.000000
0.258921 0.997783 0.000000
0.413615 0.991144 0.000000
0.565596 0.984622 0.000000
0.715449 0.978191 0.000000
0.863555 0.971836 0.000000
1.000000 0.965543 0.000000
0.000000 0.000000 0.143646
0.114775 0.000000 0.135855
0.279116 0.000000 0.128803
0.437536 0.000000 0.122004
0.592229 0.000000 0.115366
0.744210 0.000000 0.108844
0.894063 0.000000 0.102413
1.000000 0.000000 0.096057
1.000000 0.000000 0.089764
0.000000 0.051718 0.117438
0.088568 0.043928 0.109648
0.252908 0.036875 0.102595
0.411328 0.030077 0.095797
0.566022 0.023438 0.089158
0.718003 0.016916 0.082636
0.867856 0.010485 0.076205
1.000000 0.004129 0.069849
1.000000 0.000000 0.063557
0.000000 0.199386 0.093713
0.064842 0.191595 0.085922
0.229183 0.184543 0.078870
0.387603 0.177744 0.072071
0.542297 0.171106 0.065433
0.694277 0.164584 0.058911
0.844130 0.158153 0.052480
0.992237 0.151797 0.046124
1.000000 0.145504 0.039832
0.000000 0.341734 0.070842
0.041972 0.333943 0.063052
0.206312 0.326891 0.055999
0.364732 0.320092 0.049201
0.519426 0.313454 0.042562
0.671407 0.306932 0.036040
0.821260 0.300501 0.029609
0.969367 0.294145 0.023253
1.000000 0.287852 0.016961
0.000000 0.480734 0.048510
0.019639 0.472943 0.040719
0.183980 0.465891 0.033667
0.342400 0.459092 0.026868
0.497094 0.452454 0.020230
0.649074 0.445931 0.013708
0.798927 0.439501 0.007277
0.947034 0.433145 0.000921
1.000000 0.426852 0.000000
0.000000 0.617296 0.026569
0.000000 0.609505 0.018778
0.162039 0.602453 0.011726
0.320459 0.595654 0.004927
0.475153 0.589016 0.000000
0.627133 0.582493 0.000000
0.776987 0.576063 0.000000
0.925093 0.569707 0.000000
1.000000 0.563414 0.000000
0.000000 0.751946 0.004935
0.000000 0.744155 0.000000
0.140405 0.737103 0.000000
0.298825 0.730304 0.000000
0.453519 0.723666 0.000000
0.605500 0.717144 0.000000
0.755353 0.710713 0.000000
0.903459 0.704357 0.000000
1.000000 0.698064 0.000000
0.000000 0.885027 0.000000
0.000000 0.877236 0.000000
0.119023 0.870184 0.000000
0.277444 0.863385 0.000000
0.432137 0.856747 0.000000
0.584118 0.850225 0.000000
0.733971 0.843794 0.000000
0.882078 0.837438 0.000000
1.000000 0.831145 0.000000
0.000000 1.000000 0.000000
0.000000 1.000000 0.000000
0.097855 1.000000 0.000000
0.256275 0.995137 0.000000
0.410969 0.988499 0.000000
0.562950 0.981977 0.000000
0.712803 0.975546 0.000000
0.860910 0.969190 0.000000
1.000000 0.962897 0.000000
0.000000 0.000000 0.312644
0.112380 0.000000 0.304853
0.276721 0.000000 0.297801
0.435141 0.000000 0.291002
0.589834 0.000000 0.284364
0.741815 0.000000 0.277841
0.891668 0.000000 0.271411
1.000000 0.000000 0.265055
1.000000 0.000000 0.258762
0.000000 0.049323 0.286436
0.086173 0.041533 0.278645
0.250513 0.034480 0.271593
0.408933 0.027681 0.264794
0.563627 0.021043 0.258156
0.715607 0.014521 0.251634
0.865461 0.008090 0.245203
1.000000 0.001734 0.238847
1.000000 0.000000 0.232555
0.000000 0.196991 0.262711
0.062447 0.189200 0.254920
0.226788 0.182148 0.247868
0.385208 0.175349 0.241069
0.539902 0.168711 0.234431
0.691882 0.162189 0.227909
0.841735 0.155758 0.221478
0.989842 0.149402 0.215122
1.000000 0.143109 0.208829
0.000000 0.339339 0.239840
0.039577 0.331548 0.232050
0.203917 0.324496 0.224997
0.362337 0.317697 0.218199
0.517031 0.311059 0.211560
0.669012 0.304537 0.205038
0.818865 0.298106 0.198607
0.966971 0.291750 0.192251
1.000000 0.285457 0.185959
0.000000 0.478339 0.217508
0.017244 0.470548 0.209717
0.181585 0.463495 0.202665
0.340005 0.456697 0.195866
0.494698 0.450058 0.189228
0.646679 0.443536 0.182705
0.796532 0.437105 0.176275
0.944639 0.430750 0.169919
1.000000 0.424457 0.163626
0.000000 0.614901 0.195567
0.000000 0.607110 0.187776
0.159644 0.600057 0.180724
0.318064 0.593259 0.173925
0.472758 0.586620 0.167287
0.624738 0.580098 0.160765
0.774591 0.573667 0.154334
0.922698 0.567312 0.147978
1.000000 0.561019 0.141685
0.000000 0.749551 0.173933
0.000000 0.741760 0.166143
0.138010 0.734708 0.159090
0.296430 0.727909 0.152292
0.451124 0.721271 0.145653
0.603105 0.714749 0.139131
0.752958 0.708318 0.132700
0.901064 0.701962 0.126344
1.000000 0.695669 0.120052
0.000000 0.882632 0.152551
0.000000 0.874841 0.144761
0.116628 0.867789 0.137708
0.275048 0.860990 0.130910
0.429742 0.854352 0.124271
0.581723 0.847829 0.117749
0.731576 0.841399 0.111318
0.879683 0.835043 0.104963
1.000000 0.828750 0.098670
0.000000 1.000000 0.131383
0.000000 1.000000 0.123593
0.095460 0.999541 0.116540
0.253880 0.992742 0.109742
0.408574 0.986104 0.103103
0.560555 0.979581 0.096581
0.710408 0.973151 0.090150
0.858515 0.966795 0.083794
1.000000 0.960502 0.077502
0.000000 0.000000 0.475553
0.110071 0.000000 0.467763
0.274412 0.000000 0.460710
0.432832 0.000000 0.453912
0.587526 0.000000 0.447273
0.739506 0.000000 0.440751
0.889359 0.000000 0.434320
1.000000 0.000000 0.427964
1.000000 0.000000 0.421672
0.000000 0.047014 0.449346
0.083864 0.039224 0.441555
0.248204 0.032171 0.434503
0.406624 0.025373 0.427704
0.561318 0.018734 0.421066
0.713299 0.012212 0.414543
0.863152 0.005781 0.408113
1.000000 0.000000 0.401757
1.000000 0.000000 0.395464
0.000000 0.194682 0.425620
0.060139 0.186891 0.417830
0.224479 0.179839 0.410777
0.382899 0.173040 0.403979
0.537593 0.166402 0.397340
0.689573 0.159880 0.390818
0.839427 0.153449 0.384387
0.987533 0.147093 0.378032
1.000000 0.140801 0.371739
0.000000 0.337030 0.402750
0.037268 0.329239 0.394959
0.201608 0.322187 0.387907
0.360028 0.315388 0.381108
0.514722 0.308750 0.374470
0.666703 0.302228 0.367948
0.816556 0.295797 0.361517
0.964663 0.289441 0.355161
1.000000 0.283149 0.348869
0.000000 0.476030 0.380417
0.014935 0.468239 0.372627
0.179276 0.461187 0.365574
0.337696 0.454388 0.358776
0.492390 0.447750 0.352137
0.644370 0.441228 0.345615
0.794224 0.434797 0.339184
0.942330 0.428441 0.332828
1.000000 0.422148 0.326536
0.000000 0.612592 0.358476
0.000000 0.604801 0.350686
0.157335 0.597749 0.343633
0.315755 0.590950 0.336835
0.470449 0.584312 0.330196
0.622430 0.577790 0.323674
0.772283 0.571359 0.317243
0.920389 0.565003 0.310888
1.000000 0.558710 0.304595
0.000000 0.747242 0.336843
0.000000 0.739451 0.329052
0.135701 0.732399 0.322000
0.294121 0.725600 0.315201
0.448815 0.718962 0.308563
0.600796 0.712440 0.302041
0.750649 0.706009 0.295610
0.898756 0.699653 0.289254
1.000000 0.693361 0.282961
0.000000 0.880323 0.315461
0.000000 0.872532 0.307671
0.114320 0.865480 0.300618
0.272740 0.858681 0.293820
0.427433 0.852043 0.287181
0.579414 0.845521 0.280659
0.729267 0.839090 0.274228
0.877374 0.832734 0.267872
1.000000 0.826442 0.261580
0.000000 1.000000 0.294293
0.000000 1.000000 0.286503
0.093152 0.997232 0.279450
0.251572 0.990433 0.272652
0.406265 0.983795 0.266013
0.558246 0.977273 0.259491
0.708099 0.970842 0.253060
0.856206 0.964486 0.246704
1.000000 0.958194 0.240412
0.000000 0.000000 0.634631
0.107817 0.000000 0.626841
0.272157 0.000000 0.619788
0.430577 0.000000 0.612990
0.585271 0.000000 0.606351
0.737252 0.000000 0.599829
0.887105 0.000000 0.593398
1.000000 0.000000 0.587042
1.000000 0.000000 0.580750
0.000000 0.044760 0.608424
0.081609 0.036969 0.600633
0.245950 0.029917 0.593580
0.404370 0.023118 0.586782
0.559063 0.016480 0.580143
0.711044 0.009958 0.573621
0.860897 0.003527 0.567190
1.000000 0.000000 0.560835
1.000000 0.000000 0.554542
0.000000 0.192427 0.584698
0.057884 0.184637 0.576908
0.222224 0.177584 0.569855
0.380644 0.170786 0.563057
0.535338 0.164147 0.556418
0.687319 0.157625 0.549896
0.837172 0.151194 0.543465
0.985279 0.144839 0.537109
1.000000 0.138546 0.530817
0.000000 0.334775 0.561828
0.035014 0.326985 0.554037
0.199354 0.319932 0.546985
0.357774 0.313134 0.540186
0.512468 0.306495 0.533548
0.664448 0.299973 0.527026
0.814302 0.293542 0.520595
0.962408 0.287187 0.514239
1.000000 0.280894 0.507946
0.000000 0.473775 0.539495
0.012681 0.465985 0.531705
0.177021 0.458932 0.524652
0.335441 0.452134 0.517854
0.490135 0.445495 0.511215
0.642116 0.438973 0.504693
0.791969 0.432542 0.498262
0.940076 0.426186 0.491906
1.000000 0.419894 0.485614
0.000000 0.610337 0.517554
0.000000 0.602547 0.509764
0.155080 0.595494 0.502711
0.313500 0.588696 0.495913
0.468194 0.582057 0.489274
0.620175 0.575535 0.482752
0.770028 0.569104 0.476321
0.918135 0.562748 0.469965
1.000000 0.556456 0.463673
0.000000 0.744987 0.495921
0.000000 0.737197 0.488130
0.133447 0.730144 0.481078
0.291867 0.723346 0.474279
0.446561 0.716707 0.467641
0.598541 0.710185 0.461118
0.748394 0.703754 0.454688
0.896501 0.697399 0.448332
1.000000 0.691106 0.442039
0.000000 0.878068 0.474539
0.000000 0.870278 0.466749
0.112065 0.863225 0.459696
0.270485 0.856427 0.452898
0.425179 0.849788 0.446259
0.577160 0.843266 0.439737
0.727013 0.836835 0.433306
0.875119 0.830479 0.426950
1.000000 0.824187 0.420658
0.000000 1.000000 0.453371
0.000000 1.000000 0.445580
0.090897 0.994977 0.438528
0.249317 0.988179 0.431729
0.404011 0.981540 0.425091
0.555992 0.975018 0.418569
0.705845 0.968587 0.412138
0.853951 0.962231 0.405782
1.000000 0.955939 0.399490
0.000000 0.000000 0.790919
0.105602 0.000000 0.783129
0.269942 0.000000 0.776076
0.428362 0.000000 0.769278
0.583056 0.000000 0.762639
0.735037 0.000000 0.756117
0.884890 0.000000 0.749686
1.000000 0.000000 0.743330
1.000000 0.000000 0.737038
0.000000 0.042545 0.764711
0.079394 0.034754 0.756921
0.243735 0.027702 0.749868
0.402155 0.020903 0.743070
0.556848 0.014265 0.736431
0.708829 0.007743 0.729909
0.858682 0.001312 0.723478
1.000000 0.000000 0.717123
1.000000 0.000000 0.710830
0.000000 0.190212 0.740986
0.055669 0.182422 0.733196
0.220009 0.175369 0.726143
0.378429 0.168571 0.719345
0.533123 0.161932 0.712706
0.685104 0.155410 0.706184
0.834957 0.148979 0.699753
0.983064 0.142624 0.693397
1.000000 0.136331 0.687105
0.000000 0.332560 0.718116
0.032799 0.324770 0.710325
0.197139 0.317717 0.703273
0.355559 0.310919 0.696474
0.510253 0.304280 0.689836
0.662234 0.297758 0.683314
0.812087 0.291327 0.676883
0.960193 0.284972 0.670527
1.000000 0.278679 0.664234
0.000000 0.471560 0.695783
0.010466 0.463770 0.687993
0.174806 0.456717 0.680940
0.333226 0.449919 0.674142
0.487920 0.443280 0.667503
0.639901 0.436758 0.660981
0.789754 0.430327 0.654550
0.937861 0.423971 0.648194
1.000000 0.417679 0.641902
0.000000 0.608122 0.673842
0.000000 0.600332 0.666052
0.152866 0.593279 0.658999
0.311286 0.586481 0.652201
0.465979 0.579842 0.645562
0.617960 0.573320 0.639040
0.767813 0.566889 0.632609
0.915920 0.560533 0.626253
1.000000 0.554241 0.619961
0.000000 0.742773 0.652209
0.000000 0.734982 0.644418
0.131232 0.727929 0.637366
0.289652 0.721131 0.630567
0.444346 0.714492 0.623928
0.596326 0.707970 0.617406
0.746179 0.701539 0.610976
0.894286 0.695184 0.604620
1.000000 0.688891 0.598327
0.000000 0.875853 0.630827
0.000000 0.868063 0.623036
0.109850 0.861010 0.615984
0.268270 0.854212 0.609185
0.422964 0.847573 0.602547
0.574945 0.841051 0.596025
0.724798 0.834620 0.589594
0.872904 0.828264 0.583238
1.000000 0.821972 0.576946
0.000000 1.000000 0.609659
0.000000 0.999815 0.601868
0.088682 0.992762 0.594816
0.247102 0.985964 0.588017
0.401796 0.979325 0.581379
0.553777 0.972803 0.574857
0.703630 0.966372 0.568426
0.851736 0.960017 0.562070
0.998364 0.953724 0.555778
0.000000 0.000000 0.945019
0.103418 0.000000 0.937229
0.267758 0.000000 0.930176
0.426178 0.000000 0.923378
0.580872 0.000000 0.916739
0.732853 0.000000 0.910217
0.882706 0.000000 0.903786
1.000000 0.000000 0.897430
1.000000 0.000000 0.891138
0.000000 0.040361 0.918811
0.077210 0.032570 0.911021
0.241551 0.025518 0.903968
0.399971 0.018719 0.897170
0.554665 0.012081 0.890531
0.706645 0.005559 0.884009
0.856498 0.000000 0.877578
1.000000 0.000000 0.871223
1.000000 0.000000 0.864930
0.000000 0.188029 0.895086
0.053485 0.180238 0.887296
0.217826 0.173186 0.880243
0.376246 0.166387 0.873445
0.530939 0.159748 0.866806
0.682920 0.153226 0.860284
0.832773 0.146796 0.853853
0.980880 0.140440 0.847497
1.000000 0.134147 0.841205
0.000000 0.330377 0.872216
0.030615 0.322586 0.864425
0.194955 0.315534 0.857373
0.353375 0.308735 0.850574
0.508069 0.302096 0.843936
0.660050 0.295574 0.837414
0.809903 0.289144 0.830983
0.958009 0.282788 0.824627
1.000000 0.276495 0.818334
0.000000 0.469376 0.849883
0.008282 0.461586 0.842093
0.172622 0.454533 0.835040
0.331042 0.447735 0.828242
0.485736 0.441096 0.821603
0.637717 0.434574 0.815081
0.787570 0.428143 0.808650
0.935677 0.421787 0.802294
1.000000 0.415495 0.796002
0.000000 0.605938 0.827942
0.000000 0.598148 0.820152
0.150682 0.591095 0.813099
0.309102 0.584297 0.806301
0.463795 0.577658 0.799662
0.615776 0.571136 0.793140
0.765629 0.564705 0.786709
0.913736 0.558349 0.780353
1.000000 0.552057 0.774061
0.000000 0.740589 0.806309
0.000000 0.732798 0.798518
0.129048 0.725746 0.791466
0.287468 0.718947 0.784667
0.442162 0.712308 0.778028
0.594142 0.705786 0.771506
0.743996 0.699356 0.765076
0.892102 0.693000 0.758720
1.000000 0.686707 0.752427
0.000000 0.873669 0.784927
0.000000 0.865879 0.777136
0.107666 0.858826 0.770084
0.266086 0.852028 0.763285
0.420780 0.845389 0.756647
0.572761 0.838867 0.750125
0.722614 0.832436 0.743694
0.870721 0.826081 0.737338
1.000000 0.819788 0.731046
0.000000 1.000000 0.763759
0.000000 0.997631 0.755968
0.086498 0.990578 0.748916
0.244918 0.983780 0.742117
0.399612 0.977141 0.735479
0.551593 0.970619 0.728957
0.701446 0.964188 0.722526
0.849552 0.957833 0.716170
0.996180 0.951540 0.709878
0.000000 0.000000 1.000000
0.101260 0.000000 1.000000
0.265600 0.000000 1.000000
0.424020 0.000000 1.000000
0.578714 0.000000 1.000000
0.730695 0.000000 1.000000
0.880548 0.000000 1.000000
1.000000 0.000000 1.000000
1.000000 0.000000 1.000000
0.000000 0.038202 1.000000
0.075052 0.030412 1.000000
0.239392 0.023359 1.000000
0.397812 0.016561 1.000000
0.552506 0.009922 1.000000
0.704487 0.003400 1.000000
0.854340 0.000000 1.000000
1.000000 0.000000 1.000000
1.000000 0.000000 1.000000
0.000000 0.185870 1.000000
0.051327 0.178080 1.000000
0.215667 0.171027 1.000000
0.374087 0.164229 1.000000
0.528781 0.157590 1.000000
0.680762 0.151068 1.000000
0.830615 0.144637 1.000000
0.978721 0.138281 0.999801
1.000000 0.131989 0.993509
0.000000 0.328218 1.000000
0.028456 0.320428 1.000000
0.192797 0.313375 1.000000
0.351217 0.306577 1.000000
0.505910 0.299938 0.996240
0.657891 0.293416 0.989718
0.807744 0.286985 0.983287
0.955851 0.280629 0.976931
1.000000 0.274337 0.970638
0.000000 0.467218 1.000000
0.006124 0.459427 0.994397
0.170464 0.452375 0.987344
0.328884 0.445576 0.980546
0.483578 0.438938 0.973907
0.635559 0.432416 0.967385
0.785412 0.425985 0.960954
0.933518 0.419629 0.954598
1.000000 0.413337 0.948306
0.000000 0.603780 0.980246
0.000000 0.595989 0.972456
0.148523 0.588937 0.965403
0.306943 0.582138 0.958605
0.461637 0.575500 0.951966
0.613618 0.568978 0.945444
0.763471 0.562547 0.939013
0.911577 0.556191 0.932657
1.000000 0.549899 0.926365
0.000000 0.738430 0.958613
0.000000 0.730640 0.950822
0.126889 0.723587 0.943770
0.285309 0.716789 0.936971
0.440003 0.710150 0.930333
0.591984 0.703628 0.923810
0.741837 0.697197 0.917380
0.889944 0.690841 0.911024
1.000000 0.684549 0.904731
0.000000 0.871511 0.937231
0.000000 0.863720 0.929440
0.105508 0.856668 0.922388
0.263928 0.849869 0.915589
0.418622 0.843231 0.908951
0.570602 0.836709 0.902429
0.720455 0.830278 0.895998
0.868562 0.823922 0.889642
1.000000 0.817630 0.883350
0.000000 1.000000 0.916063
0.000000 0.995473 0.908272
0.084340 0.988420 0.901220
0.242760 0.981622 0.894421
0.397453 0.974983 0.887783
0.549434 0.968461 0.881261
0.699287 0.962030 0.874830
0.847394 0.955674 0.868474
0.994022 0.949382 0.862182
0.000000 0.000000 1.000000
0.099123 0.000000 1.000000
0.263463 0.000000 1.000000
0.421883 0.000000 1.000000
0.576577 0.000000 1.000000
0.728558 0.000000 1.000000
0.878411 0.000000 1.000000
1.000000 0.000000 1.000000
1.000000 0.000000 1.000000
0.000000 0.036065 1.000000
0.072915 0.028275 1.000000
0.237255 0.021222 1.000000
0.395675 0.014424 1.000000
0.550369 0.007785 1.000000
0.702350 0.001263 1.000000
0.852203 0.000000 1.000000
1.000000 0.000000 1.000000
1.000000 0.000000 1.000000
0.000000 0.183733 1.000000
0.049190 0.175943 1.000000
0.213530 0.168890 1.000000
0.371950 0.162092 1.000000
0.526644 0.155453 1.000000
0.678625 0.148931 1.000000
0.828478 0.142500 1.000000
0.976584 0.136144 1.000000
1.000000 0.129852 1.000000
0.000000 0.326081 1.000000
0.026319 0.318291 1.000000
0.190660 0.311238 1.000000
0.349080 0.304440 1.000000
0.503773 0.297801 1.000000
0.655754 0.291279 1.000000
0.805607 0.284848 1.000000
0.953714 0.278492 1.000000
1.000000 0.272200 1.000000
0.000000 0.465081 1.000000
0.003987 0.457290 1.000000
0.168327 0.450238 1.000000
0.326747 0.443439 1.000000
0.481441 0.436801 1.000000
0.633422 0.430279 1.000000
0.783275 0.423848 1.000000
0.931381 0.417492 1.000000
1.000000 0.411200 1.000000
0.000000 0.601643 1.000000
0.000000 0.593852 1.000000
0.146386 0.586800 1.000000
0.304806 0.580001 1.000000
0.459500 0.573363 1.000000
0.611481 0.566841 1.000000
0.761334 0.560410 1.000000
0.909440 0.554054 1.000000
1.000000 0.547762 1.000000
0.000000 0.736293 1.000000
0.000000 0.728503 1.000000
0.124752 0.721450 1.000000
0.283172 0.714652 1.000000
0.437866 0.708013 1.000000
0.589847 0.701491 1.000000
0.739700 0.695060 1.000000
0.887807 0.688704 1.000000
1.000000 0.682412 1.000000
0.000000 0.869374 1.000000
0.000000 0.861584 1.000000
0.103371 0.854531 1.000000
0.261791 0.847733 1.000000
0.416485 0.841094 1.000000
0.568465 0.834572 1.000000
0.718318 0.828141 1.000000
0.866425 0.821785 1.000000
1.000000 0.815493 1.000000
0.000000 1.000000 1.000000
0.000000 0.993336 1.000000
0.082203 0.986283 1.000000
0.240623 0.979485 1.000000
0.395317 0.972846 1.000000
0.547297 0.966324 1.000000
0.697150 0.959893 1.000000
0.845257 0.953537 1.000000
0.991885 0.947245 1.000000
