luts/worldwide_dark.cube
TITLE "FlagshipEditor original preset: worldwide_dark.cube"
LUT_3D_SIZE 9
DOMAIN_MIN 0.0 0.0 0.0
DOMAIN_MAX 1.0 1.0 1.0
0.000000 0.000000 0.000000
0.044006 0.001713 0.001713
0.149357 0.005813 0.005813
0.253610 0.009870 0.009870
0.357157 0.013900 0.013900
0.460182 0.017910 0.017910
0.562793 0.021903 0.021903
0.665061 0.025884 0.025884
0.767036 0.029852 0.029852
0.005304 0.044237 0.005304
0.049310 0.045950 0.007017
0.154660 0.050050 0.011117
0.258914 0.054107 0.015174
0.362461 0.058137 0.019204
0.465486 0.062147 0.023214
0.568097 0.066141 0.027207
0.670365 0.070121 0.031187
0.772340 0.074090 0.035156
0.019097 0.159281 0.019097
0.063103 0.160994 0.020810
0.168454 0.165094 0.024910
0.272707 0.169151 0.028967
0.376254 0.173181 0.032997
0.479279 0.177191 0.037007
0.581890 0.181184 0.041001
0.684158 0.185164 0.044981
0.786133 0.189133 0.048949
0.032747 0.273126 0.032747
0.076753 0.274839 0.034459
0.182103 0.278939 0.038559
0.286357 0.282997 0.042617
0.389904 0.287027 0.046647
0.492929 0.291036 0.050657
0.595540 0.295030 0.054650
0.697808 0.299010 0.058630
0.799783 0.302979 0.062599
0.046304 0.386201 0.046304
0.090310 0.387913 0.048016
0.195660 0.392013 0.052117
0.299914 0.396071 0.056174
0.403461 0.400101 0.060204
0.506486 0.404110 0.064214
0.609097 0.408104 0.068207
0.711365 0.412084 0.072187
0.813340 0.416053 0.076156
0.059792 0.498705 0.059792
0.103798 0.500417 0.061505
0.209149 0.504518 0.065605
0.313402 0.508575 0.069663
0.416950 0.512605 0.073693
0.519975 0.516615 0.077702
0.622586 0.520608 0.081696
0.724854 0.524588 0.085676
0.826829 0.528557 0.089645
0.073227 0.610757 0.073227
0.117233 0.612469 0.074940
0.222584 0.616570 0.079040
0.326837 0.620627 0.083097
0.430384 0.624657 0.087127
0.533409 0.628667 0.091137
0.636020 0.632660 0.095130
0.738288 0.636640 0.099111
0.840263 0.640609 0.103079
0.086617 0.722434 0.086617
0.130623 0.724147 0.088329
0.235973 0.728247 0.092429
0.340227 0.732304 0.096487
0.443774 0.736334 0.100517
0.546799 0.740344 0.104526
0.649410 0.744338 0.108520
0.751678 0.748318 0.112500
0.853653 0.752287 0.116469
0.099968 0.833792 0.099968
0.143974 0.835504 0.101680
0.249324 0.839605 0.105781
0.353578 0.843662 0.109838
0.457125 0.847692 0.113868
0.560150 0.851702 0.117878
0.662761 0.855695 0.121871
0.765029 0.859675 0.125851
0.867004 0.863644 0.129820
0.000905 0.000905 0.066718
0.044911 0.002618 0.068431
0.150262 0.006718 0.072531
0.254515 0.010775 0.076589
0.358062 0.014805 0.080619
0.461087 0.018815 0.084628
0.563698 0.022809 0.088622
0.665966 0.026789 0.092602
0.767942 0.030758 0.096571
0.006209 0.045142 0.072022
0.050215 0.046855 0.073735
0.155566 0.050955 0.077835
0.259819 0.055013 0.081893
0.363366 0.059042 0.085922
0.466391 0.063052 0.089932
0.569002 0.067046 0.093926
0.671270 0.071026 0.097906
0.773245 0.074995 0.101875
0.020002 0.160186 0.085815
0.064008 0.161899 0.087528
0.169359 0.165999 0.091628
0.273612 0.170056 0.095686
0.377159 0.174086 0.099716
0.480184 0.178096 0.103725
0.582795 0.182089 0.107719
0.685063 0.186070 0.111699
0.787039 0.190038 0.115668
0.033652 0.274031 0.099465
0.077658 0.275744 0.101178
0.183008 0.279844 0.105278
0.287262 0.283902 0.109335
0.390809 0.287932 0.113365
0.493834 0.291941 0.117375
0.596445 0.295935 0.121368
0.698713 0.299915 0.125349
0.800688 0.303884 0.129317
0.047209 0.387106 0.113022
0.091215 0.388818 0.114735
0.196565 0.392918 0.118835
0.300819 0.396976 0.122892
0.404366 0.401006 0.126922
0.507391 0.405016 0.130932
0.610002 0.409009 0.134926
0.712270 0.412989 0.138906
0.814245 0.416958 0.142875
0.060697 0.499610 0.126511
0.104703 0.501323 0.128223
0.210054 0.505423 0.132324
0.314307 0.509480 0.136381
0.417855 0.513510 0.140411
0.520880 0.517520 0.144421
0.623491 0.521513 0.148414
0.725759 0.525493 0.152394
0.827734 0.529462 0.156363
0.074132 0.611662 0.139945
0.118138 0.613375 0.141658
0.223489 0.617475 0.145758
0.327742 0.621532 0.149816
0.431289 0.625562 0.153846
0.534314 0.629572 0.157855
0.636925 0.633565 0.161849
0.739193 0.637546 0.165829
0.841168 0.641514 0.169798
0.087522 0.723339 0.153335
0.131528 0.725052 0.155048
0.236878 0.729152 0.159148
0.341132 0.733210 0.163205
0.444679 0.737240 0.167235
0.547704 0.741249 0.171245
0.650315 0.745243 0.175238
0.752583 0.749223 0.179219
0.854558 0.753192 0.183187
0.100873 0.834697 0.166686
0.144879 0.836410 0.168399
0.250230 0.840510 0.172499
0.354483 0.844567 0.176556
0.458030 0.848597 0.180586
0.561055 0.852607 0.184596
0.663666 0.856600 0.188590
0.765934 0.860581 0.192570
0.867909 0.864549 0.196539
0.002298 0.002298 0.169361
0.046304 0.004010 0.171074
0.151654 0.008110 0.175174
0.255908 0.012168 0.179232
0.359455 0.016198 0.183262
0.462480 0.020207 0.187271
0.565091 0.024201 0.191265
0.667359 0.028181 0.195245
0.769334 0.032150 0.199214
0.007601 0.046535 0.174665
0.051607 0.048247 0.176378
0.156958 0.052348 0.180478
0.261211 0.056405 0.184535
0.364758 0.060435 0.188565
0.467784 0.064445 0.192575
0.570395 0.068438 0.196569
0.672663 0.072418 0.200549
0.774638 0.076387 0.204518
0.021395 0.161578 0.188458
0.065401 0.163291 0.190171
0.170751 0.167391 0.194271
0.275005 0.171449 0.198329
0.378552 0.175479 0.202359
0.481577 0.179488 0.206368
0.584188 0.183482 0.210362
0.686456 0.187462 0.214342
0.788431 0.191431 0.218311
0.035044 0.275424 0.202108
0.079050 0.277136 0.203821
0.184401 0.281237 0.207921
0.288654 0.285294 0.211978
0.392201 0.289324 0.216008
0.495226 0.293334 0.220018
0.597837 0.297327 0.224011
0.700105 0.301307 0.227992
0.802081 0.305276 0.231960
0.048601 0.388498 0.215665
0.092607 0.390211 0.217378
0.197958 0.394311 0.221478
0.302211 0.398368 0.225535
0.405758 0.402398 0.229565
0.508783 0.406408 0.233575
0.611394 0.410402 0.237568
0.713662 0.414382 0.241549
0.815638 0.418350 0.245517
0.062090 0.501002 0.229154
0.106096 0.502715 0.230866
0.211447 0.506815 0.234967
0.315700 0.510873 0.239024
0.419247 0.514903 0.243054
0.522272 0.518912 0.247064
0.624883 0.522906 0.251057
0.727151 0.526886 0.255037
0.829126 0.530855 0.259006
0.075524 0.613054 0.242588
0.119530 0.614767 0.244301
0.224881 0.618867 0.248401
0.329134 0.622925 0.252459
0.432682 0.626955 0.256489
0.535707 0.630964 0.260498
0.638318 0.634958 0.264492
0.740586 0.638938 0.268472
0.842561 0.642907 0.272441
0.088914 0.724732 0.255978
0.132920 0.726444 0.257691
0.238271 0.730545 0.261791
0.342524 0.734602 0.265848
0.446071 0.738632 0.269878
0.549096 0.742642 0.273888
0.651707 0.746635 0.277881
0.753975 0.750615 0.281861
0.855950 0.754584 0.285830
0.102265 0.836089 0.269329
0.146271 0.837802 0.271042
0.251622 0.841902 0.275142
0.355875 0.845960 0.279199
0.459422 0.849990 0.283229
0.562448 0.853999 0.287239
0.665059 0.857993 0.291233
0.767327 0.861973 0.295213
0.869302 0.865942 0.299182
0.003675 0.003675 0.270935
0.047681 0.005388 0.272648
0.153032 0.009488 0.276748
0.257285 0.013546 0.280805
0.360833 0.017576 0.284835
0.463858 0.021585 0.288845
0.566469 0.025579 0.292839
0.668737 0.029559 0.296819
0.770712 0.033528 0.300788
0.008979 0.047913 0.276239
0.052985 0.049625 0.277952
0.158336 0.053725 0.282052
0.262589 0.057783 0.286109
0.366136 0.061813 0.290139
0.469162 0.065823 0.294149
0.571773 0.069816 0.298142
0.674041 0.073796 0.302123
0.776016 0.077765 0.306091
0.022772 0.162956 0.290032
0.066778 0.164669 0.291745
0.172129 0.168769 0.295845
0.276382 0.172827 0.299902
0.379930 0.176857 0.303932
0.482955 0.180866 0.307942
0.585566 0.184860 0.311936
0.687834 0.188840 0.315916
0.789809 0.192809 0.319885
0.036422 0.276802 0.303682
0.080428 0.278514 0.305394
0.185779 0.282615 0.309495
0.290032 0.286672 0.313552
0.393579 0.290702 0.317582
0.496604 0.294712 0.321592
0.599215 0.298705 0.325585
0.701483 0.302685 0.329565
0.803458 0.306654 0.333534
0.049979 0.389876 0.317239
0.093985 0.391589 0.318952
0.199336 0.395689 0.323052
0.303589 0.399746 0.327109
0.407136 0.403776 0.331139
0.510161 0.407786 0.335149
0.612772 0.411779 0.339142
0.715040 0.415760 0.343122
0.817016 0.419728 0.347091
0.063468 0.502380 0.330728
0.107474 0.504093 0.332440
0.212824 0.508193 0.336540
0.317078 0.512250 0.340598
0.420625 0.516280 0.344628
0.523650 0.520290 0.348637
0.626261 0.524284 0.352631
0.728529 0.528264 0.356611
0.830504 0.532233 0.360580
0.076902 0.614432 0.344162
0.120908 0.616145 0.345875
0.226259 0.620245 0.349975
0.330512 0.624303 0.354032
0.434060 0.628332 0.358062
0.537085 0.632342 0.362072
0.639696 0.636336 0.366066
0.741964 0.640316 0.370046
0.843939 0.644285 0.374015
0.090292 0.726110 0.357552
0.134298 0.727822 0.359264
0.239649 0.731922 0.363365
0.343902 0.735980 0.367422
0.447449 0.740010 0.371452
0.550474 0.744020 0.375462
0.653085 0.748013 0.379455
0.755353 0.751993 0.383435
0.857328 0.755962 0.387404
0.103643 0.837467 0.370903
0.147649 0.839180 0.372616
0.253000 0.843280 0.376716
0.357253 0.847338 0.380773
0.460800 0.851368 0.384803
0.563826 0.855377 0.388813
0.666437 0.859371 0.392806
0.768705 0.863351 0.396787
0.870680 0.867320 0.400755
0.005044 0.005044 0.371821
0.049050 0.006757 0.373534
0.154401 0.010857 0.377634
0.258654 0.014914 0.381691
0.362201 0.018944 0.385721
0.465226 0.022954 0.389731
0.567837 0.026948 0.393724
0.670105 0.030928 0.397705
0.772080 0.034896 0.401673
0.010348 0.049281 0.377125
0.054354 0.050994 0.378837
0.159705 0.055094 0.382938
0.263958 0.059151 0.386995
0.367505 0.063181 0.391025
0.470530 0.067191 0.395035
0.573141 0.071185 0.399028
0.675409 0.075165 0.403008
0.777384 0.079134 0.406977
0.024141 0.164325 0.390918
0.068147 0.166038 0.392631
0.173498 0.170138 0.396731
0.277751 0.174195 0.400788
0.381298 0.178225 0.404818
0.484323 0.182235 0.408828
0.586934 0.186228 0.412821
0.689202 0.190209 0.416802
0.791178 0.194177 0.420770
0.037791 0.278170 0.404568
0.081797 0.279883 0.406280
0.187147 0.283983 0.410380
0.291401 0.288041 0.414438
0.394948 0.292071 0.418468
0.497973 0.296080 0.422477
0.600584 0.300074 0.426471
0.702852 0.304054 0.430451
0.804827 0.308023 0.434420
0.051348 0.391245 0.418125
0.095354 0.392957 0.419837
0.200704 0.397057 0.423937
0.304958 0.401115 0.427995
0.408505 0.405145 0.432025
0.511530 0.409155 0.436035
0.614141 0.413148 0.440028
0.716409 0.417128 0.444008
0.818384 0.421097 0.447977
0.064836 0.503749 0.431613
0.108842 0.505461 0.433326
0.214193 0.509562 0.437426
0.318446 0.513619 0.441484
0.421994 0.517649 0.445514
0.525019 0.521659 0.449523
0.627630 0.525652 0.453517
0.729898 0.529632 0.457497
0.831873 0.533601 0.461466
0.078271 0.615801 0.445048
0.122277 0.617513 0.446761
0.227628 0.621614 0.450861
0.331881 0.625671 0.454918
0.435428 0.629701 0.458948
0.538453 0.633711 0.462958
0.641064 0.637704 0.466951
0.743332 0.641684 0.470931
0.845307 0.645653 0.474900
0.091661 0.727478 0.458437
0.135667 0.729191 0.460150
0.241017 0.733291 0.464250
0.345271 0.737348 0.468308
0.448818 0.741378 0.472338
0.551843 0.745388 0.476347
0.654454 0.749382 0.480341
0.756722 0.753362 0.484321
0.858697 0.757331 0.488290
0.105012 0.838836 0.471789
0.149018 0.840549 0.473501
0.254368 0.844649 0.477602
0.358622 0.848706 0.481659
0.462169 0.852736 0.485689
0.565194 0.856746 0.489699
0.667805 0.860739 0.493692
0.770073 0.864720 0.497672
0.872048 0.868688 0.501641
0.006406 0.006406 0.472198
0.050412 0.008118 0.473911
0.155762 0.012219 0.478011
0.260016 0.016276 0.482068
0.363563 0.020306 0.486098
0.466588 0.024316 0.490108
0.569199 0.028309 0.494102
0.671467 0.032289 0.498082
0.773442 0.036258 0.502051
0.011710 0.050643 0.477502
0.055716 0.052356 0.479215
0.161066 0.056456 0.483315
0.265320 0.060513 0.487372
0.368867 0.064543 0.491402
0.471892 0.068553 0.495412
0.574503 0.072546 0.499405
0.676771 0.076527 0.503386
0.778746 0.080495 0.507354
0.025503 0.165687 0.491295
0.069509 0.167399 0.493008
0.174859 0.171499 0.497108
0.279113 0.175557 0.501165
0.382660 0.179587 0.505195
0.485685 0.183597 0.509205
0.588296 0.187590 0.513199
0.690564 0.191570 0.517179
0.792539 0.195539 0.521148
0.039152 0.279532 0.504945
0.083158 0.281245 0.506657
0.188509 0.285345 0.510758
0.292762 0.289402 0.514815
0.396309 0.293432 0.518845
0.499335 0.297442 0.522855
0.601946 0.301436 0.526848
0.704214 0.305416 0.530828
0.806189 0.309384 0.534797
0.052709 0.392606 0.518502
0.096715 0.394319 0.520214
0.202066 0.398419 0.524315
0.306319 0.402477 0.528372
0.409867 0.406507 0.532402
0.512892 0.410516 0.536412
0.615503 0.414510 0.540405
0.717771 0.418490 0.544385
0.819746 0.422459 0.548354
0.066198 0.505110 0.531990
0.110204 0.506823 0.533703
0.215555 0.510923 0.537803
0.319808 0.514981 0.541861
0.423355 0.519011 0.545891
0.526380 0.523020 0.549900
0.628991 0.527014 0.553894
0.731259 0.530994 0.557874
0.833235 0.534963 0.561843
0.079633 0.617163 0.545425
0.123639 0.618875 0.547138
0.228989 0.622975 0.551238
0.333243 0.627033 0.555295
0.436790 0.631063 0.559325
0.539815 0.635072 0.563335
0.642426 0.639066 0.567328
0.744694 0.643046 0.571309
0.846669 0.647015 0.575277
0.093022 0.728840 0.558815
0.137028 0.730553 0.560527
0.242379 0.734653 0.564627
0.346632 0.738710 0.568685
0.450179 0.742740 0.572715
0.553205 0.746750 0.576725
0.655816 0.750743 0.580718
0.758084 0.754724 0.584698
0.860059 0.758692 0.588667
0.106374 0.840198 0.572166
0.150380 0.841910 0.573879
0.255730 0.846010 0.577979
0.359984 0.850068 0.582036
0.463531 0.854098 0.586066
0.566556 0.858107 0.590076
0.669167 0.862101 0.594069
0.771435 0.866081 0.598050
0.873410 0.870050 0.602018
0.007762 0.007762 0.572172
0.051768 0.009475 0.573884
0.157119 0.013575 0.577985
0.261372 0.017632 0.582042
0.364919 0.021662 0.586072
0.467944 0.025672 0.590082
0.570555 0.029665 0.594075
0.672823 0.033646 0.598055
0.774798 0.037614 0.602024
0.013066 0.051999 0.577476
0.057072 0.053712 0.579188
0.162422 0.057812 0.583288
0.266676 0.061869 0.587346
0.370223 0.065899 0.591376
0.473248 0.069909 0.595386
0.575859 0.073903 0.599379
0.678127 0.077883 0.603359
0.780102 0.081852 0.607328
0.026859 0.167043 0.591269
0.070865 0.168755 0.592982
0.176216 0.172856 0.597082
0.280469 0.176913 0.601139
0.384016 0.180943 0.605169
0.487041 0.184953 0.609179
0.589652 0.188946 0.613172
0.691920 0.192926 0.617153
0.793895 0.196895 0.621121
0.040509 0.280888 0.604918
0.084515 0.282601 0.606631
0.189865 0.286701 0.610731
0.294119 0.290759 0.614789
0.397666 0.294789 0.618819
0.500691 0.298798 0.622828
0.603302 0.302792 0.626822
0.705570 0.306772 0.630802
0.807545 0.310741 0.634771
0.054066 0.393963 0.618475
0.098072 0.395675 0.620188
0.203422 0.399775 0.624288
0.307676 0.403833 0.628346
0.411223 0.407863 0.632376
0.514248 0.411872 0.636385
0.616859 0.415866 0.640379
0.719127 0.419846 0.644359
0.821102 0.423815 0.648328
0.067554 0.506467 0.631964
0.111560 0.508179 0.633677
0.216911 0.512280 0.637777
0.321164 0.516337 0.641835
0.424712 0.520367 0.645864
0.527737 0.524377 0.649874
0.630348 0.528370 0.653868
0.732616 0.532350 0.657848
0.834591 0.536319 0.661817
0.080989 0.618519 0.645399
0.124995 0.620231 0.647111
0.230346 0.624332 0.651212
0.334599 0.628389 0.655269
0.438146 0.632419 0.659299
0.541171 0.636429 0.663309
0.643782 0.640422 0.667302
0.746050 0.644402 0.671282
0.848025 0.648371 0.675251
0.094379 0.730196 0.658788
0.138384 0.731909 0.660501
0.243735 0.736009 0.664601
0.347989 0.740066 0.668659
0.451536 0.744096 0.672689
0.554561 0.748106 0.676698
0.657172 0.752100 0.680692
0.759440 0.756080 0.684672
0.861415 0.760049 0.688641
0.107730 0.841554 0.672140
0.151736 0.843266 0.673852
0.257086 0.847367 0.677952
0.361340 0.851424 0.682010
0.464887 0.855454 0.686040
0.567912 0.859464 0.690050
0.670523 0.863457 0.694043
0.772791 0.867437 0.698023
0.874766 0.871406 0.701992
0.009114 0.009114 0.671811
0.053120 0.010826 0.673524
0.158470 0.014927 0.677624
0.262724 0.018984 0.681682
0.366271 0.023014 0.685712
0.469296 0.027024 0.689721
0.571907 0.031017 0.693715
0.674175 0.034997 0.697695
0.776150 0.038966 0.701664
0.014417 0.053351 0.677115
0.058423 0.055063 0.678828
0.163774 0.059164 0.682928
0.268028 0.063221 0.686985
0.371575 0.067251 0.691015
0.474600 0.071261 0.695025
0.577211 0.075254 0.699019
0.679479 0.079234 0.702999
0.781454 0.083203 0.706968
0.028211 0.168395 0.690908
0.072217 0.170107 0.692621
0.177567 0.174207 0.696721
0.281821 0.178265 0.700779
0.385368 0.182295 0.704809
0.488393 0.186304 0.708818
0.591004 0.190298 0.712812
0.693272 0.194278 0.716792
0.795247 0.198247 0.720761
0.041860 0.282240 0.704558
0.085866 0.283953 0.706271
0.191217 0.288053 0.710371
0.295470 0.292110 0.714428
0.399017 0.296140 0.718458
0.502043 0.300150 0.722468
0.604654 0.304143 0.726461
0.706922 0.308124 0.730442
0.808897 0.312092 0.734410
0.055417 0.395314 0.718115
0.099423 0.397027 0.719828
0.204774 0.401127 0.723928
0.309027 0.405185 0.727985
0.412574 0.409214 0.732015
0.515600 0.413224 0.736025
0.618211 0.417218 0.740018
0.720479 0.421198 0.743999
0.822454 0.425167 0.747967
0.068906 0.507818 0.731604
0.112912 0.509531 0.733316
0.218263 0.513631 0.737417
0.322516 0.517689 0.741474
0.426063 0.521719 0.745504
0.529088 0.525728 0.749514
0.631699 0.529722 0.753507
0.733967 0.533702 0.757487
0.835943 0.537671 0.761456
0.082341 0.619870 0.745038
0.126347 0.621583 0.746751
0.231697 0.625683 0.750851
0.335951 0.629741 0.754909
0.439498 0.633771 0.758938
0.542523 0.637780 0.762948
0.645134 0.641774 0.766942
0.747402 0.645754 0.770922
0.849377 0.649723 0.774891
0.095730 0.731548 0.758428
0.139736 0.733260 0.760140
0.245087 0.737361 0.764241
0.349340 0.741418 0.768298
0.452887 0.745448 0.772328
0.555912 0.749458 0.776338
0.658524 0.753451 0.780331
0.760791 0.757431 0.784311
0.862767 0.761400 0.788280
0.109081 0.842905 0.771779
0.153087 0.844618 0.773492
0.258438 0.848718 0.777592
0.362691 0.852776 0.781649
0.466239 0.856806 0.785679
0.569264 0.860815 0.789689
0.671875 0.864809 0.793683
0.774143 0.868789 0.797663
0.876118 0.872758 0.801632
0.010461 0.010461 0.771165
0.054467 0.012174 0.772878
0.159818 0.016274 0.776978
0.264071 0.020332 0.781036
0.367619 0.024362 0.785066
0.470644 0.028371 0.789075
0.573255 0.032365 0.793069
0.675523 0.036345 0.797049
0.777498 0.040314 0.801018
0.015765 0.054699 0.776469
0.059771 0.056411 0.778182
0.165122 0.060511 0.782282
0.269375 0.064569 0.786340
0.372922 0.068599 0.790370
0.475948 0.072609 0.794379
0.578559 0.076602 0.798373
0.680827 0.080582 0.802353
0.782802 0.084551 0.806322
0.029559 0.169742 0.790263
0.073565 0.171455 0.791975
0.178915 0.175555 0.796075
0.283169 0.179613 0.800133
0.386716 0.183643 0.804163
0.489741 0.187652 0.808172
0.592352 0.191646 0.812166
0.694620 0.195626 0.816146
0.796595 0.199595 0.820115
0.043208 0.283588 0.803912
0.087214 0.285300 0.805625
0.192565 0.289401 0.809725
0.296818 0.293458 0.813782
0.400365 0.297488 0.817812
0.503390 0.301498 0.821822
0.606001 0.305491 0.825816
0.708269 0.309471 0.829796
0.810245 0.313440 0.833765
0.056765 0.396662 0.817469
0.100771 0.398375 0.819182
0.206122 0.402475 0.823282
0.310375 0.406532 0.827339
0.413922 0.410562 0.831369
0.516947 0.414572 0.835379
0.619558 0.418565 0.839373
0.721826 0.422546 0.843353
0.823802 0.426514 0.847322
0.070254 0.509166 0.830958
0.114260 0.510879 0.832671
0.219611 0.514979 0.836771
0.323864 0.519037 0.840828
0.427411 0.523067 0.844858
0.530436 0.527076 0.848868
0.633047 0.531070 0.852861
0.735315 0.535050 0.856842
0.837290 0.539019 0.860810
0.083688 0.621218 0.844392
0.127694 0.622931 0.846105
0.233045 0.627031 0.850205
0.337298 0.631089 0.854263
0.440846 0.635119 0.858293
0.543871 0.639128 0.862302
0.646482 0.643122 0.866296
0.748750 0.647102 0.870276
0.850725 0.651071 0.874245
0.097078 0.732896 0.857782
0.141084 0.734608 0.859495
0.246435 0.738708 0.863595
0.350688 0.742766 0.867652
0.454235 0.746796 0.871682
0.557260 0.750806 0.875692
0.659871 0.754799 0.879685
0.762139 0.758779 0.883666
0.864114 0.762748 0.887634
0.110429 0.844253 0.871133
0.154435 0.845966 0.872846
0.259786 0.850066 0.876946
0.364039 0.854124 0.881004
0.467586 0.858154 0.885034
0.570612 0.862163 0.889043
0.673223 0.866157 0.893037
0.775491 0.870137 0.897017
0.877466 0.874106 0.900986
