luts/worldwide_neon_dark.cube
TITLE "FlagshipEditor original preset: worldwide_neon_dark.cube"
LUT_3D_SIZE 5
DOMAIN_MIN 0.0 0.0 0.0
DOMAIN_MAX 1.0 1.0 1.0
0.000000 0.000000 0.000000
0.281761 0.000000 0.000000
0.594875 0.000000 0.000000
0.896709 0.000000 0.000000
1.000000 0.000000 0.000000
0.000000 0.202032 0.000000
0.231828 0.187188 0.000000
0.544942 0.173751 0.000000
0.846776 0.160798 0.000000
1.000000 0.148150 0.000000
0.000000 0.483379 0.000000
0.186625 0.468536 0.000000
0.499739 0.455099 0.000000
0.801573 0.442146 0.000000
1.000000 0.429498 0.000000
0.000000 0.754592 0.000000
0.143051 0.739748 0.000000
0.456165 0.726311 0.000000
0.757998 0.713358 0.000000
1.000000 0.700710 0.000000
0.000000 1.000000 0.000000
0.100501 1.000000 0.000000
0.413615 0.991144 0.000000
0.715449 0.978191 0.000000
1.000000 0.965543 0.000000
0.000000 0.000000 0.312644
0.276721 0.000000 0.297801
0.589834 0.000000 0.284364
0.891668 0.000000 0.271411
1.000000 0.000000 0.258762
0.000000 0.196991 0.262711
0.226788 0.182148 0.247868
0.539902 0.168711 0.234431
0.841735 0.155758 0.221478
1.000000 0.143109 0.208829
0.000000 0.478339 0.217508
0.181585 0.463495 0.202665
0.494698 0.450058 0.189228
0.796532 0.437105 0.176275
1.000000 0.424457 0.163626
0.000000 0.749551 0.173933
0.138010 0.734708 0.159090
0.451124 0.721271 0.145653
0.752958 0.708318 0.132700
1.000000 0.695669 0.120052
0.000000 1.000000 0.131383
0.095460 0.999541 0.116540
0.408574 0.986104 0.103103
0.710408 0.973151 0.090150
1.000000 0.960502 0.077502
0.000000 0.000000 0.634631
0.272157 0.000000 0.619788
0.585271 0.000000 0.606351
0.887105 0.000000 0.593398
1.000000 0.000000 0.580750
0.000000 0.192427 0.584698
0.222224 0.177584 0.569855
0.535338 0.164147 0.556418
0.837172 0.151194 0.543465
1.000000 0.138546 0.530817
0.000000 0.473775 0.539495
0.177021 0.458932 0.524652
0.490135 0.445495 0.511215
0.791969 0.432542 0.498262
1.000000 0.419894 0.485614
0.000000 0.744987 0.495921
0.133447 0.730144 0.481078
0.446561 0.716707 0.467641
0.748394 0.703754 0.454688
1.000000 0.691106 0.442039
0.000000 1.000000 0.453371
0.090897 0.994977 0.438528
0.404011 0.981540 0.425091
0.705845 0.968587 0.412138
1.000000 0.955939 0.399490
0.000000 0.000000 0.945019
0.267758 0.000000 0.930176
0.580872 0.000000 0.916739
0.882706 0.000000 0.903786
1.000000 0.000000 0.891138
0.000000 0.188029 0.895086
0.217826 0.173186 0.880243
0.530939 0.159748 0.866806
0.832773 0.146796 0.853853
1.000000 0.134147 0.841205
0.000000 0.469376 0.849883
0.172622 0.454533 0.835040
0.485736 0.441096 0.821603
0.787570 0.428143 0.808650
1.000000 0.415495 0.796002
0.000000 0.740589 0.806309
0.129048 0.725746 0.791466
0.442162 0.712308 0.778028
0.743996 0.699356 0.765076
1.000000 0.686707 0.752427
0.000000 1.000000 0.763759
0.086498 0.990578 0.748916
0.399612 0.977141 0.735479
0.701446 0.964188 0.722526
0.996180 0.951540 0.709878
0.000000 0.000000 1.000000
0.263463 0.000000 1.000000
0.576577 0.000000 1.000000
0.878411 0.000000 1.000000
1.000000 0.000000 1.000000
0.000000 0.183733 1.000000
0.213530 0.168890 1.000000
0.526644 0.155453 1.000000
0.828478 0.142500 1.000000
1.000000 0.129852 1.000000
0.000000 0.465081 1.000000
0.168327 0.450238 1.000000
0.481441 0.436801 1.000000
0.783275 0.423848 1.000000
1.000000 0.411200 1.000000
0.000000 0.736293 1.000000
0.124752 0.721450 1.000000
0.437866 0.708013 1.000000
0.739700 0.695060 1.000000
1.000000 0.682412 1.000000
0.000000 1.000000 1.000000
0.082203 0.986283 1.000000
0.395317 0.972846 1.000000
0.697150 0.959893 1.000000
0.991885 0.947245 1.000000
