luts/worldwide_neon_dark.cube
TITLE "FlagshipEditor original preset: worldwide_neon_dark.cube"
LUT_3D_SIZE 17
DOMAIN_MIN 0.0 0.0 0.0
DOMAIN_MAX 1.0 1.0 1.0
0.000000 0.000000 0.000000
0.031166 0.000000 0.000000
0.117421 0.000000 0.000000
0.200569 0.000000 0.000000
0.281761 0.000000 0.000000
0.361530 0.000000 0.000000
0.440181 0.000000 0.000000
0.517916 0.000000 0.000000
0.594875 0.000000 0.000000
0.671162 0.000000 0.000000
0.746856 0.000000 0.000000
0.822021 0.000000 0.000000
0.896709 0.000000 0.000000
0.970962 0.000000 0.000000
1.000000 0.000000 0.000000
1.000000 0.000000 0.000000
1.000000 0.000000 0.000000
0.000000 0.000000 0.000000
0.017410 0.000000 0.000000
0.103666 0.000000 0.000000
0.186814 0.000000 0.000000
0.268006 0.000000 0.000000
0.347774 0.000000 0.000000
0.426426 0.000000 0.000000
0.504161 0.000000 0.000000
0.581120 0.000000 0.000000
0.657406 0.000000 0.000000
0.733101 0.000000 0.000000
0.808266 0.000000 0.000000
0.882954 0.000000 0.000000
0.957207 0.000000 0.000000
1.000000 0.000000 0.000000
1.000000 0.000000 0.000000
1.000000 0.000000 0.000000
0.000000 0.054364 0.000000
0.004958 0.050275 0.000000
0.091213 0.046573 0.000000
0.174361 0.043005 0.000000
0.255554 0.039521 0.000000
0.335322 0.036098 0.000000
0.413974 0.032722 0.000000
0.491709 0.029386 0.000000
0.568667 0.026084 0.000000
0.644954 0.022810 0.000000
0.720648 0.019562 0.000000
0.795814 0.016336 0.000000
0.870501 0.013131 0.000000
0.944754 0.009944 0.000000
1.000000 0.006775 0.000000
1.000000 0.003621 0.000000
1.000000 0.000482 0.000000
0.000000 0.129076 0.000000
0.000000 0.124987 0.000000
0.079210 0.121286 0.000000
0.162358 0.117718 0.000000
0.243550 0.114233 0.000000
0.323318 0.110810 0.000000
0.401970 0.107435 0.000000
0.479705 0.104099 0.000000
0.556664 0.100796 0.000000
0.632950 0.097522 0.000000
0.708644 0.094274 0.000000
0.783810 0.091048 0.000000
0.858498 0.087843 0.000000
0.932750 0.084657 0.000000
1.000000 0.081487 0.000000
1.000000 0.078334 0.000000
1.000000 0.075195 0.000000
0.000000 0.202032 0.000000
0.000000 0.197943 0.000000
0.067488 0.194241 0.000000
0.150636 0.190673 0.000000
0.231828 0.187188 0.000000
0.311597 0.183765 0.000000
0.390248 0.180390 0.000000
0.467983 0.177054 0.000000
0.544942 0.173751 0.000000
0.621229 0.170478 0.000000
0.696923 0.167229 0.000000
0.772088 0.164004 0.000000
0.846776 0.160798 0.000000
0.921029 0.157612 0.000000
0.994883 0.154443 0.000000
1.000000 0.151289 0.000000
1.000000 0.148150 0.000000
0.000000 0.273707 0.000000
0.000000 0.269618 0.000000
0.055972 0.265917 0.000000
0.139120 0.262348 0.000000
0.220313 0.258864 0.000000
0.300081 0.255441 0.000000
0.378733 0.252066 0.000000
0.456468 0.248730 0.000000
0.533426 0.245427 0.000000
0.609713 0.242153 0.000000
0.685407 0.238905 0.000000
0.760572 0.235679 0.000000
0.835260 0.232474 0.000000
0.909513 0.229288 0.000000
0.983367 0.226118 0.000000
1.000000 0.222965 0.000000
1.000000 0.219826 0.000000
0.000000 0.344379 0.000000
0.000000 0.340291 0.000000
0.044618 0.336589 0.000000
0.127766 0.333021 0.000000
0.208958 0.329536 0.000000
0.288726 0.326113 0.000000
0.367378 0.322738 0.000000
0.445113 0.319402 0.000000
0.522072 0.316099 0.000000
0.598358 0.312826 0.000000
0.674053 0.309577 0.000000
0.749218 0.306352 0.000000
0.823906 0.303146 0.000000
0.898159 0.299960 0.000000
0.972012 0.296791 0.000000
1.000000 0.293637 0.000000
1.000000 0.290498 0.000000
0.000000 0.414228 0.000000
0.000000 0.410139 0.000000
0.033395 0.406438 0.000000
0.116543 0.402869 0.000000
0.197736 0.399385 0.000000
0.277504 0.395962 0.000000
0.356156 0.392587 0.000000
0.433891 0.389251 0.000000
0.510849 0.385948 0.000000
0.587136 0.382674 0.000000
0.662830 0.379426 0.000000
0.737996 0.376200 0.000000
0.812683 0.372995 0.000000
0.886936 0.369809 0.000000
0.960790 0.366639 0.000000
1.000000 0.363486 0.000000
1.000000 0.360347 0.000000
0.000000 0.483379 0.000000
0.000000 0.479290 0.000000
0.022285 0.475589 0.000000
0.105433 0.472021 0.000000
0.186625 0.468536 0.000000
0.266394 0.465113 0.000000
0.345045 0.461738 0.000000
0.422780 0.458402 0.000000
0.499739 0.455099 0.000000
0.576026 0.451825 0.000000
0.651720 0.448577 0.000000
0.726885 0.445351 0.000000
0.801573 0.442146 0.000000
0.875826 0.438960 0.000000
0.949680 0.435790 0.000000
1.000000 0.432637 0.000000
1.000000 0.429498 0.000000
0.000000 0.551926 0.000000
0.000000 0.547837 0.000000
0.011272 0.544136 0.000000
0.094420 0.540568 0.000000
0.175612 0.537083 0.000000
0.255381 0.533660 0.000000
0.334032 0.530285 0.000000
0.411767 0.526949 0.000000
0.488726 0.523646 0.000000
0.565013 0.520373 0.000000
0.640707 0.517124 0.000000
0.715872 0.513899 0.000000
0.790560 0.510693 0.000000
0.864813 0.507507 0.000000
0.938667 0.504337 0.000000
1.000000 0.501184 0.000000
1.000000 0.498045 0.000000
0.000000 0.619941 0.000000
0.000000 0.615852 0.000000
0.000344 0.612151 0.000000
0.083492 0.608583 0.000000
0.164685 0.605098 0.000000
0.244453 0.601675 0.000000
0.323105 0.598300 0.000000
0.400840 0.594964 0.000000
0.477798 0.591661 0.000000
0.554085 0.588387 0.000000
0.629779 0.585139 0.000000
0.704944 0.581913 0.000000
0.779632 0.578708 0.000000
0.853885 0.575522 0.000000
0.927739 0.572352 0.000000
1.000000 0.569199 0.000000
1.000000 0.566060 0.000000
0.000000 0.687481 0.000000
0.000000 0.683392 0.000000
0.000000 0.679690 0.000000
0.072641 0.676122 0.000000
0.153833 0.672638 0.000000
0.233602 0.669215 0.000000
0.312253 0.665839 0.000000
0.389988 0.662503 0.000000
0.466947 0.659201 0.000000
0.543234 0.655927 0.000000
0.618928 0.652679 0.000000
0.694093 0.649453 0.000000
0.768781 0.646248 0.000000
0.843034 0.643061 0.000000
0.916887 0.639892 0.000000
0.990373 0.636738 0.000000
1.000000 0.633600 0.000000
0.000000 0.754592 0.000000
0.000000 0.750503 0.000000
0.000000 0.746801 0.000000
0.061858 0.743233 0.000000
0.143051 0.739748 0.000000
0.222819 0.736325 0.000000
0.301471 0.732950 0.000000
0.379206 0.729614 0.000000
0.456165 0.726311 0.000000
0.532451 0.723038 0.000000
0.608145 0.719789 0.000000
0.683311 0.716564 0.000000
0.757998 0.713358 0.000000
0.832251 0.710172 0.000000
0.906105 0.707003 0.000000
0.979590 0.703849 0.000000
1.000000 0.700710 0.000000
0.000000 0.821311 0.000000
0.000000 0.817222 0.000000
0.000000 0.813521 0.000000
0.051139 0.809953 0.000000
0.132331 0.806468 0.000000
0.212100 0.803045 0.000000
0.290751 0.799670 0.000000
0.368486 0.796334 0.000000
0.445445 0.793031 0.000000
0.521732 0.789757 0.000000
0.597426 0.786509 0.000000
0.672591 0.783283 0.000000
0.747279 0.780078 0.000000
0.821532 0.776892 0.000000
0.895385 0.773722 0.000000
0.968871 0.770569 0.000000
1.000000 0.767430 0.000000
0.000000 0.887672 0.000000
0.000000 0.883584 0.000000
0.000000 0.879882 0.000000
0.040477 0.876314 0.000000
0.121669 0.872829 0.000000
0.201438 0.869406 0.000000
0.280089 0.866031 0.000000
0.357824 0.862695 0.000000
0.434783 0.859392 0.000000
0.511070 0.856119 0.000000
0.586764 0.852870 0.000000
0.661929 0.849645 0.000000
0.736617 0.846439 0.000000
0.810870 0.843253 0.000000
0.884723 0.840083 0.000000
0.958209 0.836930 0.000000
1.000000 0.833791 0.000000
0.000000 0.953702 0.000000
0.000000 0.949613 0.000000
0.000000 0.945912 0.000000
0.029868 0.942344 0.000000
0.111060 0.938859 0.000000
0.190829 0.935436 0.000000
0.269480 0.932061 0.000000
0.347215 0.928725 0.000000
0.424174 0.925422 0.000000
0.500461 0.922148 0.000000
0.576155 0.918900 0.000000
0.651320 0.915674 0.000000
0.726008 0.912469 0.000000
0.800261 0.909283 0.000000
0.874115 0.906113 0.000000
0.947600 0.902960 0.000000
1.000000 0.899821 0.000000
0.000000 1.000000 0.000000
0.000000 1.000000 0.000000
0.000000 1.000000 0.000000
0.019309 1.000000 0.000000
0.100501 1.000000 0.000000
0.180269 1.000000 0.000000
0.258921 0.997783 0.000000
0.336656 0.994447 0.000000
0.413615 0.991144 0.000000
0.489901 0.987871 0.000000
0.565596 0.984622 0.000000
0.640761 0.981397 0.000000
0.715449 0.978191 0.000000
0.789702 0.975005 0.000000
0.863555 0.971836 0.000000
0.937040 0.968682 0.000000
1.000000 0.965543 0.000000
0.000000 0.000000 0.054946
0.029777 0.000000 0.050857
0.116032 0.000000 0.047155
0.199180 0.000000 0.043587
0.280373 0.000000 0.040103
0.360141 0.000000 0.036680
0.438793 0.000000 0.033304
0.516528 0.000000 0.029968
0.593487 0.000000 0.026666
0.669773 0.000000 0.023392
0.745467 0.000000 0.020144
0.820633 0.000000 0.016918
0.895320 0.000000 0.013713
0.969573 0.000000 0.010526
1.000000 0.000000 0.007357
1.000000 0.000000 0.004203
1.000000 0.000000 0.001065
0.000000 0.000000 0.041191
0.016022 0.000000 0.037102
0.102277 0.000000 0.033400
0.185425 0.000000 0.029832
0.266617 0.000000 0.026347
0.346386 0.000000 0.022924
0.425037 0.000000 0.019549
0.502772 0.000000 0.016213
0.579731 0.000000 0.012910
0.656018 0.000000 0.009637
0.731712 0.000000 0.006388
0.806877 0.000000 0.003163
0.881565 0.000000 0.000000
0.955818 0.000000 0.000000
1.000000 0.000000 0.000000
1.000000 0.000000 0.000000
1.000000 0.000000 0.000000
0.000000 0.052975 0.028738
0.003569 0.048886 0.024649
0.089825 0.045185 0.020948
0.172973 0.041616 0.017379
0.254165 0.038132 0.013895
0.333933 0.034709 0.010472
0.412585 0.031334 0.007097
0.490320 0.027998 0.003761
0.567279 0.024695 0.000458
0.643565 0.021421 0.000000
0.719260 0.018173 0.000000
0.794425 0.014947 0.000000
0.869113 0.011742 0.000000
0.943366 0.008556 0.000000
1.000000 0.005386 0.000000
1.000000 0.002233 0.000000
1.000000 0.000000 0.000000
0.000000 0.127688 0.016734
0.000000 0.123599 0.012645
0.077821 0.119897 0.008944
0.160969 0.116329 0.005376
0.242161 0.112845 0.001891
0.321930 0.109421 0.000000
0.400581 0.106046 0.000000
0.478316 0.102710 0.000000
0.555275 0.099408 0.000000
0.631562 0.096134 0.000000
0.707256 0.092885 0.000000
0.782421 0.089660 0.000000
0.857109 0.086455 0.000000
0.931362 0.083268 0.000000
1.000000 0.080099 0.000000
1.000000 0.076945 0.000000
1.000000 0.073806 0.000000
0.000000 0.200643 0.005013
0.000000 0.196554 0.000924
0.066099 0.192852 0.000000
0.149248 0.189284 0.000000
0.230440 0.185800 0.000000
0.310208 0.182377 0.000000
0.388860 0.179001 0.000000
0.466595 0.175665 0.000000
0.543554 0.172363 0.000000
0.619840 0.169089 0.000000
0.695534 0.165841 0.000000
0.770700 0.162615 0.000000
0.845388 0.159410 0.000000
0.919640 0.156223 0.000000
0.993494 0.153054 0.000000
1.000000 0.149900 0.000000
1.000000 0.146762 0.000000
0.000000 0.272319 0.000000
0.000000 0.268230 0.000000
0.054584 0.264528 0.000000
0.137732 0.260960 0.000000
0.218924 0.257476 0.000000
0.298692 0.254052 0.000000
0.377344 0.250677 0.000000
0.455079 0.247341 0.000000
0.532038 0.244039 0.000000
0.608324 0.240765 0.000000
0.684019 0.237516 0.000000
0.759184 0.234291 0.000000
0.833872 0.231086 0.000000
0.908125 0.227899 0.000000
0.981978 0.224730 0.000000
1.000000 0.221576 0.000000
1.000000 0.218437 0.000000
0.000000 0.342991 0.000000
0.000000 0.338902 0.000000
0.043229 0.335200 0.000000
0.126377 0.331632 0.000000
0.207569 0.328148 0.000000
0.287338 0.324725 0.000000
0.365989 0.321349 0.000000
0.443724 0.318013 0.000000
0.520683 0.314711 0.000000
0.596970 0.311437 0.000000
0.672664 0.308189 0.000000
0.747829 0.304963 0.000000
0.822517 0.301758 0.000000
0.896770 0.298571 0.000000
0.970624 0.295402 0.000000
1.000000 0.292248 0.000000
1.000000 0.289110 0.000000
0.000000 0.412840 0.000000
0.000000 0.408751 0.000000
0.032007 0.405049 0.000000
0.115155 0.401481 0.000000
0.196347 0.397996 0.000000
0.276115 0.394573 0.000000
0.354767 0.391198 0.000000
0.432502 0.387862 0.000000
0.509461 0.384559 0.000000
0.585747 0.381286 0.000000
0.661442 0.378037 0.000000
0.736607 0.374812 0.000000
0.811295 0.371606 0.000000
0.885548 0.368420 0.000000
0.959401 0.365251 0.000000
1.000000 0.362097 0.000000
1.000000 0.358958 0.000000
0.000000 0.481991 0.000000
0.000000 0.477902 0.000000
0.020896 0.474200 0.000000
0.104044 0.470632 0.000000
0.185237 0.467148 0.000000
0.265005 0.463724 0.000000
0.343657 0.460349 0.000000
0.421392 0.457013 0.000000
0.498351 0.453711 0.000000
0.574637 0.450437 0.000000
0.650331 0.447188 0.000000
0.725497 0.443963 0.000000
0.800184 0.440758 0.000000
0.874437 0.437571 0.000000
0.948291 0.434402 0.000000
1.000000 0.431248 0.000000
1.000000 0.428109 0.000000
0.000000 0.550538 0.000000
0.000000 0.546449 0.000000
0.009883 0.542747 0.000000
0.093031 0.539179 0.000000
0.174224 0.535695 0.000000
0.253992 0.532272 0.000000
0.332644 0.528896 0.000000
0.410379 0.525560 0.000000
0.487337 0.522258 0.000000
0.563624 0.518984 0.000000
0.639318 0.515736 0.000000
0.714483 0.512510 0.000000
0.789171 0.509305 0.000000
0.863424 0.506118 0.000000
0.937278 0.502949 0.000000
1.000000 0.499795 0.000000
1.000000 0.496656 0.000000
0.000000 0.618553 0.000000
0.000000 0.614464 0.000000
0.000000 0.610762 0.000000
0.082104 0.607194 0.000000
0.163296 0.603710 0.000000
0.243064 0.600286 0.000000
0.321716 0.596911 0.000000
0.399451 0.593575 0.000000
0.476410 0.590273 0.000000
0.552696 0.586999 0.000000
0.628390 0.583750 0.000000
0.703556 0.580525 0.000000
0.778244 0.577320 0.000000
0.852496 0.574133 0.000000
0.926350 0.570964 0.000000
0.999835 0.567810 0.000000
1.000000 0.564671 0.000000
0.000000 0.686092 0.000000
0.000000 0.682003 0.000000
0.000000 0.678302 0.000000
0.071252 0.674734 0.000000
0.152445 0.671249 0.000000
0.232213 0.667826 0.000000
0.310865 0.664451 0.000000
0.388600 0.661115 0.000000
0.465558 0.657812 0.000000
0.541845 0.654538 0.000000
0.617539 0.651290 0.000000
0.692704 0.648064 0.000000
0.767392 0.644859 0.000000
0.841645 0.641673 0.000000
0.915499 0.638503 0.000000
0.988984 0.635350 0.000000
1.000000 0.632211 0.000000
0.000000 0.753203 0.000000
0.000000 0.749114 0.000000
0.000000 0.745412 0.000000
0.060470 0.741844 0.000000
0.141662 0.738360 0.000000
0.221431 0.734937 0.000000
0.300082 0.731561 0.000000
0.377817 0.728225 0.000000
0.454776 0.724923 0.000000
0.531063 0.721649 0.000000
0.606757 0.718401 0.000000
0.681922 0.715175 0.000000
0.756610 0.711970 0.000000
0.830863 0.708783 0.000000
0.904716 0.705614 0.000000
0.978202 0.702460 0.000000
1.000000 0.699322 0.000000
0.000000 0.819923 0.000000
0.000000 0.815834 0.000000
0.000000 0.812132 0.000000
0.049750 0.808564 0.000000
0.130943 0.805080 0.000000
0.210711 0.801656 0.000000
0.289363 0.798281 0.000000
0.367098 0.794945 0.000000
0.444056 0.791643 0.000000
0.520343 0.788369 0.000000
0.596037 0.785120 0.000000
0.671202 0.781895 0.000000
0.745890 0.778690 0.000000
0.820143 0.775503 0.000000
0.893997 0.772334 0.000000
0.967482 0.769180 0.000000
1.000000 0.766041 0.000000
0.000000 0.886284 0.000000
0.000000 0.882195 0.000000
0.000000 0.878493 0.000000
0.039088 0.874925 0.000000
0.120281 0.871441 0.000000
0.200049 0.868018 0.000000
0.278701 0.864642 0.000000
0.356436 0.861306 0.000000
0.433394 0.858004 0.000000
0.509681 0.854730 0.000000
0.585375 0.851482 0.000000
0.660540 0.848256 0.000000
0.735228 0.845051 0.000000
0.809481 0.841864 0.000000
0.883335 0.838695 0.000000
0.956820 0.835541 0.000000
1.000000 0.832402 0.000000
0.000000 0.952314 0.000000
0.000000 0.948225 0.000000
0.000000 0.944523 0.000000
0.028479 0.940955 0.000000
0.109672 0.937471 0.000000
0.189440 0.934047 0.000000
0.268092 0.930672 0.000000
0.345827 0.927336 0.000000
0.422786 0.924034 0.000000
0.499072 0.920760 0.000000
0.574766 0.917511 0.000000
0.649932 0.914286 0.000000
0.724619 0.911081 0.000000
0.798872 0.907894 0.000000
0.872726 0.904725 0.000000
0.946211 0.901571 0.000000
1.000000 0.898432 0.000000
0.000000 1.000000 0.000000
0.000000 1.000000 0.000000
0.000000 1.000000 0.000000
0.017920 1.000000 0.000000
0.099112 1.000000 0.000000
0.178881 0.999770 0.000000
0.257533 0.996394 0.000000
0.335268 0.993058 0.000000
0.412226 0.989756 0.000000
0.488513 0.986482 0.000000
0.564207 0.983234 0.000000
0.639372 0.980008 0.000000
0.714060 0.976803 0.000000
0.788313 0.973616 0.000000
0.862167 0.970447 0.000000
0.935652 0.967293 0.000000
1.000000 0.964155 0.000000
0.000000 0.000000 0.143646
0.028520 0.000000 0.139557
0.114775 0.000000 0.135855
0.197923 0.000000 0.132287
0.279116 0.000000 0.128803
0.358884 0.000000 0.125380
0.437536 0.000000 0.122004
0.515271 0.000000 0.118668
0.592229 0.000000 0.115366
0.668516 0.000000 0.112092
0.744210 0.000000 0.108844
0.819376 0.000000 0.105618
0.894063 0.000000 0.102413
0.968316 0.000000 0.099226
1.000000 0.000000 0.096057
1.000000 0.000000 0.092903
1.000000 0.000000 0.089764
0.000000 0.000000 0.129890
0.014765 0.000000 0.125802
0.101020 0.000000 0.122100
0.184168 0.000000 0.118532
0.265360 0.000000 0.115047
0.345129 0.000000 0.111624
0.423780 0.000000 0.108249
0.501515 0.000000 0.104913
0.578474 0.000000 0.101610
0.654761 0.000000 0.098337
0.730455 0.000000 0.095088
0.805620 0.000000 0.091863
0.880308 0.000000 0.088657
0.954561 0.000000 0.085471
1.000000 0.000000 0.082302
1.000000 0.000000 0.079148
1.000000 0.000000 0.076009
0.000000 0.051718 0.117438
0.002312 0.047629 0.113349
0.088568 0.043928 0.109648
0.171716 0.040359 0.106079
0.252908 0.036875 0.102595
0.332676 0.033452 0.099172
0.411328 0.030077 0.095797
0.489063 0.026741 0.092461
0.566022 0.023438 0.089158
0.642308 0.020164 0.085884
0.718003 0.016916 0.082636
0.793168 0.013690 0.079410
0.867856 0.010485 0.076205
0.942109 0.007299 0.073019
1.000000 0.004129 0.069849
1.000000 0.000976 0.066696
1.000000 0.000000 0.063557
0.000000 0.126431 0.105434
0.000000 0.122342 0.101345
0.076564 0.118640 0.097644
0.159712 0.115072 0.094076
0.240904 0.111588 0.090591
0.320673 0.108164 0.087168
0.399324 0.104789 0.083793
0.477059 0.101453 0.080457
0.554018 0.098151 0.077154
0.630305 0.094877 0.073880
0.705999 0.091628 0.070632
0.781164 0.088403 0.067406
0.855852 0.085198 0.064201
0.930105 0.082011 0.061015
1.000000 0.078842 0.057845
1.000000 0.075688 0.054692
1.000000 0.072549 0.051553
0.000000 0.199386 0.093713
0.000000 0.195297 0.089624
0.064842 0.191595 0.085922
0.147990 0.188027 0.082354
0.229183 0.184543 0.078870
0.308951 0.181120 0.075447
0.387603 0.177744 0.072071
0.465338 0.174408 0.068735
0.542297 0.171106 0.065433
0.618583 0.167832 0.062159
0.694277 0.164584 0.058911
0.769443 0.161358 0.055685
0.844130 0.158153 0.052480
0.918383 0.154966 0.049293
0.992237 0.151797 0.046124
1.000000 0.148643 0.042970
1.000000 0.145504 0.039832
0.000000 0.271062 0.082197
0.000000 0.266973 0.078108
0.053327 0.263271 0.074407
0.136475 0.259703 0.070838
0.217667 0.256218 0.067354
0.297435 0.252795 0.063931
0.376087 0.249420 0.060556
0.453822 0.246084 0.057220
0.530781 0.242781 0.053917
0.607067 0.239508 0.050643
0.682761 0.236259 0.047395
0.757927 0.233034 0.044169
0.832615 0.229828 0.040964
0.906867 0.226642 0.037777
0.980721 0.223473 0.034608
1.000000 0.220319 0.031455
1.000000 0.217180 0.028316
0.000000 0.341734 0.070842
0.000000 0.337645 0.066753
0.041972 0.333943 0.063052
0.125120 0.330375 0.059484
0.206312 0.326891 0.055999
0.286081 0.323468 0.052576
0.364732 0.320092 0.049201
0.442467 0.316756 0.045865
0.519426 0.313454 0.042562
0.595713 0.310180 0.039289
0.671407 0.306932 0.036040
0.746572 0.303706 0.032814
0.821260 0.300501 0.029609
0.895513 0.297314 0.026423
0.969367 0.294145 0.023253
1.000000 0.290991 0.020100
1.000000 0.287852 0.016961
0.000000 0.411582 0.059620
0.000000 0.407494 0.055531
0.030750 0.403792 0.051830
0.113898 0.400224 0.048261
0.195090 0.396739 0.044777
0.274858 0.393316 0.041354
0.353510 0.389941 0.037979
0.431245 0.386605 0.034643
0.508204 0.383302 0.031340
0.584490 0.380029 0.028066
0.660185 0.376780 0.024818
0.735350 0.373555 0.021592
0.810038 0.370349 0.018387
0.884291 0.367163 0.015201
0.958144 0.363994 0.012031
1.000000 0.360840 0.008878
1.000000 0.357701 0.005739
0.000000 0.480734 0.048510
0.000000 0.476645 0.044421
0.019639 0.472943 0.040719
0.102787 0.469375 0.037151
0.183980 0.465891 0.033667
0.263748 0.462467 0.030244
0.342400 0.459092 0.026868
0.420135 0.455756 0.023532
0.497094 0.452454 0.020230
0.573380 0.449180 0.016956
0.649074 0.445931 0.013708
0.724240 0.442706 0.010482
0.798927 0.439501 0.007277
0.873180 0.436314 0.004090
0.947034 0.433145 0.000921
1.000000 0.429991 0.000000
1.000000 0.426852 0.000000
0.000000 0.549281 0.037497
0.000000 0.545192 0.033408
0.008626 0.541490 0.029706
0.091774 0.537922 0.026138
0.172967 0.534438 0.022654
0.252735 0.531014 0.019230
0.331387 0.527639 0.015855
0.409122 0.524303 0.012519
0.486080 0.521001 0.009217
0.562367 0.517727 0.005943
0.638061 0.514478 0.002694
0.713226 0.511253 0.000000
0.787914 0.508048 0.000000
0.862167 0.504861 0.000000
0.936021 0.501692 0.000000
1.000000 0.498538 0.000000
1.000000 0.495399 0.000000
0.000000 0.617296 0.026569
0.000000 0.613207 0.022480
0.000000 0.609505 0.018778
0.080847 0.605937 0.015210
0.162039 0.602453 0.011726
0.241807 0.599029 0.008303
0.320459 0.595654 0.004927
0.398194 0.592318 0.001591
0.475153 0.589016 0.000000
0.551439 0.585742 0.000000
0.627133 0.582493 0.000000
0.702299 0.579268 0.000000
0.776987 0.576063 0.000000
0.851239 0.572876 0.000000
0.925093 0.569707 0.000000
0.998578 0.566553 0.000000
1.000000 0.563414 0.000000
0.000000 0.684835 0.015718
0.000000 0.680746 0.011629
0.000000 0.677045 0.007927
0.069995 0.673477 0.004359
0.151187 0.669992 0.000875
0.230956 0.666569 0.000000
0.309608 0.663194 0.000000
0.387343 0.659858 0.000000
0.464301 0.656555 0.000000
0.540588 0.653281 0.000000
0.616282 0.650033 0.000000
0.691447 0.646807 0.000000
0.766135 0.643602 0.000000
0.840388 0.640416 0.000000
0.914242 0.637246 0.000000
0.987727 0.634093 0.000000
1.000000 0.630954 0.000000
0.000000 0.751946 0.004935
0.000000 0.747857 0.000846
0.000000 0.744155 0.000000
0.059213 0.740587 0.000000
0.140405 0.737103 0.000000
0.220173 0.733680 0.000000
0.298825 0.730304 0.000000
0.376560 0.726968 0.000000
0.453519 0.723666 0.000000
0.529805 0.720392 0.000000
0.605500 0.717144 0.000000
0.680665 0.713918 0.000000
0.755353 0.710713 0.000000
0.829606 0.707526 0.000000
0.903459 0.704357 0.000000
0.976944 0.701203 0.000000
1.000000 0.698064 0.000000
0.000000 0.818666 0.000000
0.000000 0.814577 0.000000
0.000000 0.810875 0.000000
0.048493 0.807307 0.000000
0.129685 0.803823 0.000000
0.209454 0.800399 0.000000
0.288106 0.797024 0.000000
0.365841 0.793688 0.000000
0.442799 0.790386 0.000000
0.519086 0.787112 0.000000
0.594780 0.783863 0.000000
0.669945 0.780638 0.000000
0.744633 0.777433 0.000000
0.818886 0.774246 0.000000
0.892740 0.771077 0.000000
0.966225 0.767923 0.000000
1.000000 0.764784 0.000000
0.000000 0.885027 0.000000
0.000000 0.880938 0.000000
0.000000 0.877236 0.000000
0.037831 0.873668 0.000000
0.119023 0.870184 0.000000
0.198792 0.866760 0.000000
0.277444 0.863385 0.000000
0.355179 0.860049 0.000000
0.432137 0.856747 0.000000
0.508424 0.853473 0.000000
0.584118 0.850225 0.000000
0.659283 0.846999 0.000000
0.733971 0.843794 0.000000
0.808224 0.840607 0.000000
0.882078 0.837438 0.000000
0.955563 0.834284 0.000000
1.000000 0.831145 0.000000
0.000000 0.951057 0.000000
0.000000 0.946968 0.000000
0.000000 0.943266 0.000000
0.027222 0.939698 0.000000
0.108415 0.936214 0.000000
0.188183 0.932790 0.000000
0.266835 0.929415 0.000000
0.344570 0.926079 0.000000
0.421529 0.922777 0.000000
0.497815 0.919503 0.000000
0.573509 0.916254 0.000000
0.648675 0.913029 0.000000
0.723362 0.909824 0.000000
0.797615 0.906637 0.000000
0.871469 0.903468 0.000000
0.944954 0.900314 0.000000
1.000000 0.897175 0.000000
0.000000 1.000000 0.000000
0.000000 1.000000 0.000000
0.000000 1.000000 0.000000
0.016663 1.000000 0.000000
0.097855 1.000000 0.000000
0.177624 0.998513 0.000000
0.256275 0.995137 0.000000
0.334010 0.991801 0.000000
0.410969 0.988499 0.000000
0.487256 0.985225 0.000000
0.562950 0.981977 0.000000
0.638115 0.978751 0.000000
0.712803 0.975546 0.000000
0.787056 0.972359 0.000000
0.860910 0.969190 0.000000
0.934395 0.966036 0.000000
1.000000 0.962897 0.000000
0.000000 0.000000 0.229150
0.027308 0.000000 0.225061
0.113564 0.000000 0.221360
0.196712 0.000000 0.217792
0.277904 0.000000 0.214307
0.357672 0.000000 0.210884
0.436324 0.000000 0.207509
0.514059 0.000000 0.204173
0.591018 0.000000 0.200870
0.667304 0.000000 0.197596
0.742998 0.000000 0.194348
0.818164 0.000000 0.191122
0.892852 0.000000 0.187917
0.967104 0.000000 0.184731
1.000000 0.000000 0.181561
1.000000 0.000000 0.178408
1.000000 0.000000 0.175269
