luts/worldwide_dark.cube
TITLE "FlagshipEditor original preset: worldwide_dark.cube"
LUT_3D_SIZE 17
DOMAIN_MIN 0.0 0.0 0.0
DOMAIN_MAX 1.0 1.0 1.0
0.000000 0.000000 0.000000
0.000000 0.000000 0.000000
0.044006 0.001713 0.001713
0.096860 0.003770 0.003770
0.149357 0.005813 0.005813
0.201588 0.007846 0.007846
0.253610 0.009870 0.009870
0.305458 0.011888 0.011888
0.357157 0.013900 0.013900
0.408727 0.015907 0.015907
0.460182 0.017910 0.017910
0.511534 0.019909 0.019909
0.562793 0.021903 0.021903
0.613967 0.023895 0.023895
0.665061 0.025884 0.025884
0.716083 0.027869 0.027869
0.767036 0.029852 0.029852
0.000000 0.000000 0.000000
0.000000 0.000000 0.000000
0.044006 0.001713 0.001713
0.096860 0.003770 0.003770
0.149357 0.005813 0.005813
0.201588 0.007846 0.007846
0.253610 0.009870 0.009870
0.305458 0.011888 0.011888
0.357157 0.013900 0.013900
0.408727 0.015907 0.015907
0.460182 0.017910 0.017910
0.511534 0.019909 0.019909
0.562793 0.021903 0.021903
0.613967 0.023895 0.023895
0.665061 0.025884 0.025884
0.716083 0.027869 0.027869
0.767036 0.029852 0.029852
0.005304 0.044237 0.005304
0.005304 0.044237 0.005304
0.049310 0.045950 0.007017
0.102164 0.048007 0.009074
0.154660 0.050050 0.011117
0.206892 0.052083 0.013149
0.258914 0.054107 0.015174
0.310762 0.056125 0.017192
0.362461 0.058137 0.019204
0.414031 0.060144 0.021211
0.465486 0.062147 0.023214
0.516838 0.064146 0.025212
0.568097 0.066141 0.027207
0.619270 0.068132 0.029199
0.670365 0.070121 0.031187
0.721387 0.072107 0.033173
0.772340 0.074090 0.035156
0.012224 0.101954 0.012224
0.012224 0.101954 0.012224
0.056230 0.103667 0.013937
0.109084 0.105724 0.015994
0.161581 0.107767 0.018037
0.213812 0.109800 0.020070
0.265834 0.111825 0.022094
0.317682 0.113843 0.024112
0.369381 0.115855 0.026124
0.420951 0.117862 0.028131
0.472406 0.119864 0.030134
0.523758 0.121863 0.032132
0.575017 0.123858 0.034127
0.626191 0.125850 0.036119
0.677285 0.127838 0.038108
0.728307 0.129824 0.040093
0.779260 0.131807 0.042076
0.019097 0.159281 0.019097
0.019097 0.159281 0.019097
0.063103 0.160994 0.020810
0.115957 0.163051 0.022867
0.168454 0.165094 0.024910
0.220685 0.167126 0.026943
0.272707 0.169151 0.028967
0.324555 0.171169 0.030985
0.376254 0.173181 0.032997
0.427824 0.175188 0.035004
0.479279 0.177191 0.037007
0.530632 0.179189 0.039006
0.581890 0.181184 0.041001
0.633064 0.183176 0.042992
0.684158 0.185164 0.044981
0.735180 0.187150 0.046966
0.786133 0.189133 0.048949
0.025936 0.216318 0.025936
0.025936 0.216318 0.025936
0.069942 0.218031 0.027648
0.122796 0.220088 0.029705
0.175292 0.222131 0.031748
0.227524 0.224164 0.033781
0.279546 0.226188 0.035806
0.331393 0.228206 0.037824
0.383093 0.230218 0.039836
0.434663 0.232226 0.041843
0.486118 0.234228 0.043845
0.537470 0.236227 0.045844
0.588729 0.238222 0.047839
0.639902 0.240213 0.049831
0.690997 0.242202 0.051819
0.742018 0.244188 0.053805
0.792972 0.246171 0.055788
0.032747 0.273126 0.032747
0.032747 0.273126 0.032747
0.076753 0.274839 0.034459
0.129607 0.276896 0.036516
0.182103 0.278939 0.038559
0.234335 0.280972 0.040592
0.286357 0.282997 0.042617
0.338204 0.285014 0.044635
0.389904 0.287027 0.046647
0.441474 0.289034 0.048654
0.492929 0.291036 0.050657
0.544281 0.293035 0.052655
0.595540 0.295030 0.054650
0.646713 0.297021 0.056642
0.697808 0.299010 0.058630
0.748829 0.300996 0.060616
0.799783 0.302979 0.062599
0.039535 0.329744 0.039535
0.039535 0.329744 0.039535
0.083541 0.331457 0.041248
0.136395 0.333514 0.043305
0.188891 0.335557 0.045348
0.241123 0.337590 0.047380
0.293145 0.339615 0.049405
0.344993 0.341633 0.051423
0.396692 0.343645 0.053435
0.448262 0.345652 0.055442
0.499717 0.347654 0.057445
0.551069 0.349653 0.059443
0.602328 0.351648 0.061438
0.653502 0.353640 0.063430
0.704596 0.355628 0.065418
0.755618 0.357614 0.067404
0.806571 0.359597 0.069387
0.046304 0.386201 0.046304
0.046304 0.386201 0.046304
0.090310 0.387913 0.048016
0.143164 0.389970 0.050073
0.195660 0.392013 0.052117
0.247892 0.394046 0.054149
0.299914 0.396071 0.056174
0.351761 0.398089 0.058192
0.403461 0.400101 0.060204
0.455031 0.402108 0.062211
0.506486 0.404110 0.064214
0.557838 0.406109 0.066212
0.609097 0.408104 0.068207
0.660270 0.410096 0.070199
0.711365 0.412084 0.072187
0.762387 0.414070 0.074173
0.813340 0.416053 0.076156
0.053056 0.442515 0.053056
0.053056 0.442515 0.053056
0.097062 0.444228 0.054768
0.149916 0.446285 0.056825
0.202412 0.448328 0.058868
0.254644 0.450361 0.060901
0.306666 0.452386 0.062926
0.358513 0.454403 0.064944
0.410213 0.456416 0.066956
0.461783 0.458423 0.068963
0.513238 0.460425 0.070965
0.564590 0.462424 0.072964
0.615849 0.464419 0.074959
0.667022 0.466410 0.076951
0.718117 0.468399 0.078939
0.769138 0.470385 0.080925
0.820092 0.472368 0.082908
0.059792 0.498705 0.059792
0.059792 0.498705 0.059792
0.103798 0.500417 0.061505
0.156653 0.502474 0.063562
0.209149 0.504518 0.065605
0.261381 0.506550 0.067638
0.313402 0.508575 0.069663
0.365250 0.510593 0.071681
0.416950 0.512605 0.073693
0.468519 0.514612 0.075700
0.519975 0.516615 0.077702
0.571327 0.518613 0.079701
0.622586 0.520608 0.081696
0.673759 0.522600 0.083687
0.724854 0.524588 0.085676
0.775875 0.526574 0.087662
0.826829 0.528557 0.089645
0.066516 0.554782 0.066516
0.066516 0.554782 0.066516
0.110522 0.556494 0.068228
0.163376 0.558551 0.070286
0.215872 0.560595 0.072329
0.268104 0.562627 0.074361
0.320126 0.564652 0.076386
0.371974 0.566670 0.078404
0.423673 0.568682 0.080416
0.475243 0.570689 0.082423
0.526698 0.572692 0.084426
0.578050 0.574690 0.086424
0.629309 0.576685 0.088419
0.680482 0.578677 0.090411
0.731577 0.580665 0.092399
0.782599 0.582651 0.094385
0.833552 0.584634 0.096368
0.073227 0.610757 0.073227
0.073227 0.610757 0.073227
0.117233 0.612469 0.074940
0.170087 0.614526 0.076997
0.222584 0.616570 0.079040
0.274815 0.618602 0.081073
0.326837 0.620627 0.083097
0.378685 0.622645 0.085115
0.430384 0.624657 0.087127
0.481954 0.626664 0.089134
0.533409 0.628667 0.091137
0.584761 0.630665 0.093135
0.636020 0.632660 0.095130
0.687194 0.634652 0.097122
0.738288 0.636640 0.099111
0.789310 0.638626 0.101096
0.840263 0.640609 0.103079
0.079927 0.666638 0.079927
0.079927 0.666638 0.079927
0.123933 0.668351 0.081640
0.176787 0.670408 0.083697
0.229284 0.672451 0.085740
0.281515 0.674484 0.087773
0.333537 0.676509 0.089797
0.385385 0.678527 0.091815
0.437084 0.680539 0.093827
0.488654 0.682546 0.095834
0.540109 0.684548 0.097837
0.591461 0.686547 0.099835
0.642720 0.688542 0.101830
0.693894 0.690534 0.103822
0.744988 0.692522 0.105811
0.796010 0.694508 0.107796
0.846963 0.696491 0.109779
0.086617 0.722434 0.086617
0.086617 0.722434 0.086617
0.130623 0.724147 0.088329
0.183477 0.726204 0.090386
0.235973 0.728247 0.092429
0.288205 0.730280 0.094462
0.340227 0.732304 0.096487
0.392074 0.734322 0.098505
0.443774 0.736334 0.100517
0.495344 0.738341 0.102524
0.546799 0.740344 0.104526
0.598151 0.742343 0.106525
0.649410 0.744338 0.108520
0.700583 0.746329 0.110512
0.751678 0.748318 0.112500
0.802699 0.750304 0.114486
0.853653 0.752287 0.116469
0.093297 0.778150 0.093297
0.093297 0.778150 0.093297
0.137303 0.779863 0.095009
0.190157 0.781920 0.097066
0.242653 0.783963 0.099109
0.294885 0.785996 0.101142
0.346907 0.788020 0.103167
0.398754 0.790038 0.105185
0.450454 0.792050 0.107197
0.502024 0.794057 0.109204
0.553479 0.796060 0.111207
0.604831 0.798059 0.113205
0.656090 0.800054 0.115200
0.707263 0.802045 0.117192
0.758358 0.804034 0.119180
0.809379 0.806019 0.121166
0.860333 0.808003 0.123149
0.099968 0.833792 0.099968
0.099968 0.833792 0.099968
0.143974 0.835504 0.101680
0.196828 0.837562 0.103738
0.249324 0.839605 0.105781
0.301556 0.841637 0.107813
0.353578 0.843662 0.109838
0.405426 0.845680 0.111856
0.457125 0.847692 0.113868
0.508695 0.849699 0.115875
0.560150 0.851702 0.117878
0.611502 0.853700 0.119876
0.662761 0.855695 0.121871
0.713934 0.857687 0.123863
0.765029 0.859675 0.125851
0.816051 0.861661 0.127837
0.867004 0.863644 0.129820
0.000199 0.000199 0.014681
0.000199 0.000199 0.014681
0.044205 0.001912 0.016393
0.097059 0.003969 0.018450
0.149556 0.006012 0.020493
0.201787 0.008045 0.022526
0.253809 0.010069 0.024551
0.305657 0.012087 0.026569
0.357356 0.014099 0.028581
0.408926 0.016106 0.030588
0.460381 0.018109 0.032590
0.511734 0.020108 0.034589
0.562992 0.022103 0.036584
0.614166 0.024094 0.038576
0.665260 0.026083 0.040564
0.716282 0.028069 0.042550
0.767236 0.030052 0.044533
0.000199 0.000199 0.014681
0.000199 0.000199 0.014681
0.044205 0.001912 0.016393
0.097059 0.003969 0.018450
0.149556 0.006012 0.020493
0.201787 0.008045 0.022526
0.253809 0.010069 0.024551
0.305657 0.012087 0.026569
0.357356 0.014099 0.028581
0.408926 0.016106 0.030588
0.460381 0.018109 0.032590
0.511734 0.020108 0.034589
0.562992 0.022103 0.036584
0.614166 0.024094 0.038576
0.665260 0.026083 0.040564
0.716282 0.028069 0.042550
0.767236 0.030052 0.044533
0.005503 0.044436 0.019984
0.005503 0.044436 0.019984
0.049509 0.046149 0.021697
0.102363 0.048206 0.023754
0.154860 0.050249 0.025797
0.207091 0.052282 0.027830
0.259113 0.054307 0.029855
0.310961 0.056324 0.031873
0.362660 0.058337 0.033885
0.414230 0.060344 0.035892
0.465685 0.062346 0.037894
0.517037 0.064345 0.039893
0.568296 0.066340 0.041888
0.619470 0.068331 0.043879
0.670564 0.070320 0.045868
0.721586 0.072306 0.047854
0.772539 0.074289 0.049837
0.012423 0.102154 0.026904
0.012423 0.102154 0.026904
0.056429 0.103866 0.028617
0.109283 0.105923 0.030674
0.161780 0.107966 0.032717
0.214011 0.109999 0.034750
0.266033 0.112024 0.036775
0.317881 0.114042 0.038793
0.369580 0.116054 0.040805
0.421150 0.118061 0.042812
0.472605 0.120064 0.044814
0.523958 0.122062 0.046813
0.575216 0.124057 0.048808
0.626390 0.126049 0.050799
0.677484 0.128037 0.052788
0.728506 0.130023 0.054774
0.779459 0.132006 0.056757
0.019296 0.159480 0.033778
0.019296 0.159480 0.033778
0.063302 0.161193 0.035490
0.116157 0.163250 0.037547
0.168653 0.165293 0.039590
0.220884 0.167326 0.041623
0.272906 0.169350 0.043648
0.324754 0.171368 0.045666
0.376453 0.173380 0.047678
0.428023 0.175387 0.049685
0.479478 0.177390 0.051687
0.530831 0.179388 0.053686
0.582089 0.181383 0.055681
0.633263 0.183375 0.057673
0.684357 0.185364 0.059661
0.735379 0.187349 0.061647
0.786333 0.189332 0.063630
0.026135 0.216517 0.040616
0.026135 0.216517 0.040616
0.070141 0.218230 0.042329
0.122995 0.220287 0.044386
0.175491 0.222330 0.046429
0.227723 0.224363 0.048462
0.279745 0.226388 0.050486
0.331592 0.228406 0.052504
0.383292 0.230418 0.054516
0.434862 0.232425 0.056523
0.486317 0.234427 0.058526
0.537669 0.236426 0.060525
0.588928 0.238421 0.062520
0.640101 0.240412 0.064511
0.691196 0.242401 0.066500
0.742218 0.244387 0.068485
0.793171 0.246370 0.070469
0.032946 0.273325 0.047427
0.032946 0.273325 0.047427
0.076952 0.275038 0.049140
0.129806 0.277095 0.051197
0.182302 0.279138 0.053240
0.234534 0.281171 0.055273
0.286556 0.283196 0.057297
0.338404 0.285214 0.059315
0.390103 0.287226 0.061327
0.441673 0.289233 0.063334
0.493128 0.291235 0.065337
0.544480 0.293234 0.067336
0.595739 0.295229 0.069331
0.646912 0.297221 0.071322
0.698007 0.299209 0.073311
0.749029 0.301195 0.075296
0.799982 0.303178 0.077280
0.039734 0.329944 0.054215
0.039734 0.329944 0.054215
0.083740 0.331656 0.055928
0.136594 0.333713 0.057985
0.189091 0.335756 0.060028
0.241322 0.337789 0.062061
0.293344 0.339814 0.064086
0.345192 0.341832 0.066104
0.396891 0.343844 0.068116
0.448461 0.345851 0.070123
0.499916 0.347854 0.072125
0.551268 0.349852 0.074124
0.602527 0.351847 0.076119
0.653701 0.353839 0.078110
0.704795 0.355827 0.080099
0.755817 0.357813 0.082085
0.806770 0.359796 0.084068
0.046503 0.386400 0.060984
0.046503 0.386400 0.060984
0.090509 0.388112 0.062697
0.143363 0.390169 0.064754
0.195859 0.392213 0.066797
0.248091 0.394245 0.068830
0.300113 0.396270 0.070854
0.351961 0.398288 0.072872
0.403660 0.400300 0.074884
0.455230 0.402307 0.076892
0.506685 0.404310 0.078894
0.558037 0.406308 0.080893
0.609296 0.408303 0.082888
0.660469 0.410295 0.084879
0.711564 0.412283 0.086868
0.762586 0.414269 0.088854
0.813539 0.416252 0.090837
0.053255 0.442714 0.067736
0.053255 0.442714 0.067736
0.097261 0.444427 0.069449
0.150115 0.446484 0.071506
0.202611 0.448527 0.073549
0.254843 0.450560 0.075582
0.306865 0.452585 0.077606
0.358712 0.454603 0.079624
0.410412 0.456615 0.081636
0.461982 0.458622 0.083643
0.513437 0.460624 0.085646
0.564789 0.462623 0.087645
0.616048 0.464618 0.089640
0.667221 0.466610 0.091631
0.718316 0.468598 0.093620
0.769338 0.470584 0.095605
0.820291 0.472567 0.097589
0.059992 0.498904 0.074473
0.059992 0.498904 0.074473
0.103998 0.500617 0.076186
0.156852 0.502674 0.078243
0.209348 0.504717 0.080286
0.261580 0.506750 0.082319
0.313602 0.508774 0.084343
0.365449 0.510792 0.086361
0.417149 0.512804 0.088373
0.468719 0.514811 0.090380
0.520174 0.516814 0.092383
0.571526 0.518812 0.094381
0.622785 0.520807 0.096376
0.673958 0.522799 0.098368
0.725053 0.524788 0.100357
0.776074 0.526773 0.102342
0.827028 0.528756 0.104325
0.066715 0.554981 0.081196
0.066715 0.554981 0.081196
0.110721 0.556694 0.082909
0.163575 0.558751 0.084966
0.216072 0.560794 0.087009
0.268303 0.562827 0.089042
0.320325 0.564851 0.091067
0.372173 0.566869 0.093084
0.423872 0.568881 0.095097
0.475442 0.570888 0.097104
0.526897 0.572891 0.099106
0.578249 0.574889 0.101105
0.629508 0.576884 0.103100
0.680682 0.578876 0.105091
0.731776 0.580865 0.107080
0.782798 0.582850 0.109066
0.833751 0.584833 0.111049
0.073426 0.610956 0.087907
0.073426 0.610956 0.087907
0.117432 0.612669 0.089620
0.170286 0.614726 0.091677
0.222783 0.616769 0.093720
0.275014 0.618802 0.095753
0.327036 0.620826 0.097778
0.378884 0.622844 0.099796
0.430583 0.624856 0.101808
0.482153 0.626863 0.103815
0.533608 0.628866 0.105817
0.584961 0.630864 0.107816
0.636219 0.632859 0.109811
0.687393 0.634851 0.111803
0.738487 0.636840 0.113791
0.789509 0.638825 0.115777
0.840463 0.640808 0.117760
0.080126 0.666838 0.094607
0.080126 0.666838 0.094607
0.124132 0.668550 0.096320
0.176986 0.670607 0.098377
0.229483 0.672650 0.100420
0.281714 0.674683 0.102453
0.333736 0.676708 0.104478
0.385584 0.678726 0.106496
0.437283 0.680738 0.108508
0.488853 0.682745 0.110515
0.540308 0.684748 0.112517
0.591661 0.686746 0.114516
0.642919 0.688741 0.116511
0.694093 0.690733 0.118502
0.745187 0.692721 0.120491
0.796209 0.694707 0.122477
0.847162 0.696690 0.124460
0.086816 0.722633 0.101297
0.086816 0.722633 0.101297
0.130822 0.724346 0.103010
0.183676 0.726403 0.105067
0.236172 0.728446 0.107110
0.288404 0.730479 0.109143
0.340426 0.732504 0.111167
0.392273 0.734521 0.113185
0.443973 0.736534 0.115197
0.495543 0.738541 0.117204
0.546998 0.740543 0.119207
0.598350 0.742542 0.121206
0.649609 0.744537 0.123201
0.700782 0.746528 0.125192
0.751877 0.748517 0.127181
0.802899 0.750503 0.129166
0.853852 0.752486 0.131149
0.093496 0.778349 0.107977
0.093496 0.778349 0.107977
0.137502 0.780062 0.109690
0.190356 0.782119 0.111747
0.242852 0.784162 0.113790
0.295084 0.786195 0.115823
0.347106 0.788220 0.117847
0.398954 0.790237 0.119865
0.450653 0.792250 0.121877
0.502223 0.794257 0.123884
0.553678 0.796259 0.125887
0.605030 0.798258 0.127886
0.656289 0.800253 0.129881
0.707462 0.802244 0.131872
0.758557 0.804233 0.133861
0.809579 0.806219 0.135847
0.860532 0.808202 0.137830
0.100167 0.833991 0.114648
0.100167 0.833991 0.114648
0.144173 0.835704 0.116361
0.197027 0.837761 0.118418
0.249524 0.839804 0.120461
0.301755 0.841837 0.122494
0.353777 0.843861 0.124519
0.405625 0.845879 0.126536
0.457324 0.847891 0.128549
0.508894 0.849898 0.130556
0.560349 0.851901 0.132558
0.611701 0.853899 0.134557
0.662960 0.855894 0.136552
0.714134 0.857886 0.138543
0.765228 0.859875 0.140532
0.816250 0.861860 0.142518
0.867203 0.863843 0.144501
0.000905 0.000905 0.066718
0.000905 0.000905 0.066718
0.044911 0.002618 0.068431
0.097765 0.004675 0.070488
0.150262 0.006718 0.072531
0.202493 0.008751 0.074564
0.254515 0.010775 0.076589
0.306363 0.012793 0.078607
0.358062 0.014805 0.080619
0.409632 0.016812 0.082626
0.461087 0.018815 0.084628
0.512440 0.020814 0.086627
0.563698 0.022809 0.088622
0.614872 0.024800 0.090613
0.665966 0.026789 0.092602
0.716988 0.028774 0.094588
0.767942 0.030758 0.096571
0.000905 0.000905 0.066718
0.000905 0.000905 0.066718
0.044911 0.002618 0.068431
0.097765 0.004675 0.070488
0.150262 0.006718 0.072531
0.202493 0.008751 0.074564
0.254515 0.010775 0.076589
0.306363 0.012793 0.078607
0.358062 0.014805 0.080619
0.409632 0.016812 0.082626
0.461087 0.018815 0.084628
0.512440 0.020814 0.086627
0.563698 0.022809 0.088622
0.614872 0.024800 0.090613
0.665966 0.026789 0.092602
0.716988 0.028774 0.094588
0.767942 0.030758 0.096571
0.006209 0.045142 0.072022
0.006209 0.045142 0.072022
0.050215 0.046855 0.073735
0.103069 0.048912 0.075792
0.155566 0.050955 0.077835
0.207797 0.052988 0.079868
0.259819 0.055013 0.081893
0.311667 0.057030 0.083910
0.363366 0.059042 0.085922
0.414936 0.061050 0.087930
0.466391 0.063052 0.089932
0.517743 0.065051 0.091931
0.569002 0.067046 0.093926
0.620176 0.069037 0.095917
0.671270 0.071026 0.097906
0.722292 0.073012 0.099892
0.773245 0.074995 0.101875
0.013129 0.102860 0.078942
0.013129 0.102860 0.078942
0.057135 0.104572 0.080655
0.109989 0.106629 0.082712
0.162486 0.108672 0.084755
0.214717 0.110705 0.086788
0.266739 0.112730 0.088813
0.318587 0.114748 0.090830
0.370286 0.116760 0.092843
0.421856 0.118767 0.094850
0.473311 0.120769 0.096852
0.524663 0.122768 0.098851
0.575922 0.124763 0.100846
0.627096 0.126755 0.102837
0.678190 0.128743 0.104826
0.729212 0.130729 0.106812
0.780165 0.132712 0.108795
0.020002 0.160186 0.085815
0.020002 0.160186 0.085815
0.064008 0.161899 0.087528
0.116862 0.163956 0.089585
0.169359 0.165999 0.091628
0.221590 0.168032 0.093661
0.273612 0.170056 0.095686
0.325460 0.172074 0.097704
0.377159 0.174086 0.099716
0.428729 0.176093 0.101723
0.480184 0.178096 0.103725
0.531537 0.180094 0.105724
0.582795 0.182089 0.107719
0.633969 0.184081 0.109711
0.685063 0.186070 0.111699
0.736085 0.188055 0.113685
0.787039 0.190038 0.115668
0.026841 0.217223 0.092654
0.026841 0.217223 0.092654
0.070847 0.218936 0.094367
0.123701 0.220993 0.096424
0.176197 0.223036 0.098467
0.228429 0.225069 0.100500
0.280451 0.227094 0.102524
0.332298 0.229111 0.104542
0.383998 0.231124 0.106554
0.435568 0.233131 0.108561
0.487023 0.235133 0.110564
0.538375 0.237132 0.112562
0.589634 0.239127 0.114557
0.640807 0.241118 0.116549
0.691902 0.243107 0.118538
0.742924 0.245093 0.120523
0.793877 0.247076 0.122506
0.033652 0.274031 0.099465
0.033652 0.274031 0.099465
0.077658 0.275744 0.101178
0.130512 0.277801 0.103235
0.183008 0.279844 0.105278
0.235240 0.281877 0.107311
0.287262 0.283902 0.109335
0.339109 0.285920 0.111353
0.390809 0.287932 0.113365
0.442379 0.289939 0.115372
0.493834 0.291941 0.117375
0.545186 0.293940 0.119373
0.596445 0.295935 0.121368
0.647618 0.297926 0.123360
0.698713 0.299915 0.125349
0.749735 0.301901 0.127334
0.800688 0.303884 0.129317
0.040440 0.330650 0.106253
0.040440 0.330650 0.106253
0.084446 0.332362 0.107966
0.137300 0.334419 0.110023
0.189797 0.336462 0.112066
0.242028 0.338495 0.114099
0.294050 0.340520 0.116124
0.345898 0.342538 0.118141
0.397597 0.344550 0.120154
0.449167 0.346557 0.122161
0.500622 0.348559 0.124163
0.551974 0.350558 0.126162
0.603233 0.352553 0.128157
0.654407 0.354545 0.130148
0.705501 0.356533 0.132137
0.756523 0.358519 0.134123
0.807476 0.360502 0.136106
0.047209 0.387106 0.113022
0.047209 0.387106 0.113022
0.091215 0.388818 0.114735
0.144069 0.390875 0.116792
0.196565 0.392918 0.118835
0.248797 0.394951 0.120868
0.300819 0.396976 0.122892
0.352667 0.398994 0.124910
0.404366 0.401006 0.126922
0.455936 0.403013 0.128929
0.507391 0.405016 0.130932
0.558743 0.407014 0.132931
0.610002 0.409009 0.134926
0.661175 0.411001 0.136917
0.712270 0.412989 0.138906
0.763292 0.414975 0.140891
0.814245 0.416958 0.142875
0.053961 0.443420 0.119774
0.053961 0.443420 0.119774
0.097967 0.445133 0.121487
0.150821 0.447190 0.123544
0.203317 0.449233 0.125587
0.255549 0.451266 0.127620
0.307571 0.453291 0.129644
0.359418 0.455309 0.131662
0.411118 0.457321 0.133674
0.462688 0.459328 0.135681
0.514143 0.461330 0.137684
0.565495 0.463329 0.139682
0.616754 0.465324 0.141677
0.667927 0.467315 0.143669
0.719022 0.469304 0.145658
0.770044 0.471290 0.147643
0.820997 0.473273 0.149626
0.060697 0.499610 0.126511
0.060697 0.499610 0.126511
0.104703 0.501323 0.128223
0.157558 0.503380 0.130281
0.210054 0.505423 0.132324
0.262286 0.507455 0.134356
0.314307 0.509480 0.136381
0.366155 0.511498 0.138399
0.417855 0.513510 0.140411
0.469425 0.515517 0.142418
0.520880 0.517520 0.144421
0.572232 0.519518 0.146419
0.623491 0.521513 0.148414
0.674664 0.523505 0.150406
0.725759 0.525493 0.152394
0.776780 0.527479 0.154380
0.827734 0.529462 0.156363
0.067421 0.555687 0.133234
0.067421 0.555687 0.133234
0.111427 0.557400 0.134947
0.164281 0.559457 0.137004
0.216777 0.561500 0.139047
0.269009 0.563533 0.141080
0.321031 0.565557 0.143104
0.372879 0.567575 0.145122
0.424578 0.569587 0.147134
0.476148 0.571594 0.149142
0.527603 0.573597 0.151144
0.578955 0.575595 0.153143
0.630214 0.577590 0.155138
0.681388 0.579582 0.157129
0.732482 0.581570 0.159118
0.783504 0.583556 0.161104
0.834457 0.585539 0.163087
0.074132 0.611662 0.139945
0.074132 0.611662 0.139945
0.118138 0.613375 0.141658
0.170992 0.615432 0.143715
0.223489 0.617475 0.145758
0.275720 0.619508 0.147791
0.327742 0.621532 0.149816
0.379590 0.623550 0.151833
0.431289 0.625562 0.153846
0.482859 0.627569 0.155853
0.534314 0.629572 0.157855
0.585667 0.631570 0.159854
0.636925 0.633565 0.161849
0.688099 0.635557 0.163840
0.739193 0.637546 0.165829
0.790215 0.639531 0.167815
0.841168 0.641514 0.169798
0.080832 0.667544 0.146645
0.080832 0.667544 0.146645
0.124838 0.669256 0.148358
0.177692 0.671313 0.150415
0.230189 0.673356 0.152458
0.282420 0.675389 0.154491
0.334442 0.677414 0.156516
0.386290 0.679432 0.158533
0.437989 0.681444 0.160546
0.489559 0.683451 0.162553
0.541014 0.685453 0.164555
0.592366 0.687452 0.166554
0.643625 0.689447 0.168549
0.694799 0.691439 0.170540
0.745893 0.693427 0.172529
0.796915 0.695413 0.174515
0.847868 0.697396 0.176498
0.087522 0.723339 0.153335
0.087522 0.723339 0.153335
0.131528 0.725052 0.155048
0.184382 0.727109 0.157105
0.236878 0.729152 0.159148
0.289110 0.731185 0.161181
0.341132 0.733210 0.163205
0.392979 0.735227 0.165223
0.444679 0.737240 0.167235
0.496249 0.739247 0.169242
0.547704 0.741249 0.171245
0.599056 0.743248 0.173243
0.650315 0.745243 0.175238
0.701488 0.747234 0.177230
0.752583 0.749223 0.179219
0.803604 0.751209 0.181204
0.854558 0.753192 0.183187
0.094202 0.779055 0.160015
0.094202 0.779055 0.160015
0.138208 0.780768 0.161728
0.191062 0.782825 0.163785
0.243558 0.784868 0.165828
0.295790 0.786901 0.167861
0.347812 0.788926 0.169885
0.399659 0.790943 0.171903
0.451359 0.792955 0.173915
0.502929 0.794963 0.175922
0.554384 0.796965 0.177925
0.605736 0.798964 0.179924
0.656995 0.800959 0.181918
0.708168 0.802950 0.183910
0.759263 0.804939 0.185899
0.810285 0.806925 0.187884
0.861238 0.808908 0.189867
0.100873 0.834697 0.166686
0.100873 0.834697 0.166686
0.144879 0.836410 0.168399
0.197733 0.838467 0.170456
0.250230 0.840510 0.172499
0.302461 0.842543 0.174532
0.354483 0.844567 0.176556
0.406331 0.846585 0.178574
0.458030 0.848597 0.180586
0.509600 0.850604 0.182594
0.561055 0.852607 0.184596
0.612407 0.854605 0.186595
0.663666 0.856600 0.188590
0.714840 0.858592 0.190581
0.765934 0.860581 0.192570
0.816956 0.862566 0.194556
0.867909 0.864549 0.196539
0.001604 0.001604 0.118214
0.001604 0.001604 0.118214
0.045610 0.003316 0.119927
0.098464 0.005373 0.121984
0.150960 0.007417 0.124027
0.203192 0.009449 0.126060
0.255214 0.011474 0.128085
0.307061 0.013492 0.130102
0.358761 0.015504 0.132115
0.410331 0.017511 0.134122
0.461786 0.019514 0.136124
0.513138 0.021512 0.138123
0.564397 0.023507 0.140118
0.615570 0.025499 0.142109
0.666665 0.027487 0.144098
0.717687 0.029473 0.146084
0.768640 0.031456 0.148067
